;FLAVOR:Marlin
;TIME:6538
;Filament used: 4.57014m
;Layer height: 0.24
;MINX:35.58
;MINY:33.076
;MINZ:0.24
;MAXX:182.557
;MAXY:201.027
;MAXZ:18
;Generated with Cura_SteamEngine 4.13.1
M82 ;absolute extrusion mode
START_PRINT BED_TEMP=60 EXTRUDER_TEMP=205
G92 E0
G92 E0
G1 F1500 E-6
;LAYER_COUNT:54
;LAYER:0
M107
G1 F300 Z0.44
G0 F6000 X38.787 Y36.448 Z0.44
;TYPE:SKIRT
G1 F300 Z0.24
G1 F1500 E0
G1 F1200 X39.476 Y35.811 E0.03745
G1 X40.106 Y35.316 E0.06943
G1 X40.265 Y35.2 E0.07728
G1 X41.045 Y34.68 E0.1147
G1 X41.867 Y34.228 E0.15214
G1 X42.725 Y33.848 E0.18959
G1 X43.612 Y33.543 E0.22703
G1 X44.521 Y33.314 E0.26444
G1 X45.447 Y33.163 E0.30189
G1 X46.355 Y33.093 E0.33824
G1 X46.843 Y33.079 E0.35772
G1 X47.17 Y33.076 E0.37078
G1 X73.056 Y33.076 E1.40394
G1 X73.915 Y33.087 E1.43823
G1 X74.852 Y33.14 E1.47569
G1 X75.78 Y33.273 E1.5131
G1 X76.694 Y33.485 E1.55055
G1 X77.586 Y33.773 E1.58796
G1 X78.451 Y34.137 E1.62542
G1 X79.281 Y34.573 E1.66284
G1 X80.333 Y35.267 E1.71314
G1 X80.498 Y35.39 E1.72135
G1 X81.226 Y35.982 E1.7588
G1 X81.9 Y36.634 E1.79623
G1 X82.516 Y37.341 E1.83366
G1 X83.07 Y38.098 E1.8711
G1 X83.557 Y38.899 E1.90851
G1 X83.975 Y39.739 E1.94596
G1 X84.319 Y40.611 E1.98337
G1 X84.588 Y41.51 E2.02083
G1 X84.779 Y42.428 E2.05825
G1 X84.915 Y43.769 E2.11205
G1 X84.928 Y44.218 E2.12998
G1 X84.933 Y44.713 E2.14973
G1 X84.933 Y81.643 E3.62369
G1 X84.923 Y82.346 E3.65175
G1 X84.87 Y83.283 E3.68921
G1 X84.737 Y84.211 E3.72663
G1 X84.525 Y85.125 E3.76407
G1 X84.237 Y86.017 E3.80148
G1 X83.873 Y86.882 E3.83894
G1 X83.437 Y87.712 E3.87636
G1 X82.932 Y88.503 E3.91382
G1 X82.362 Y89.247 E3.95122
G1 X81.73 Y89.94 E3.98866
G1 X81.042 Y90.577 E4.02608
G1 X80.276 Y91.171 E4.06477
G1 X80.112 Y91.287 E4.07279
G1 X79.324 Y91.795 E4.11021
G1 X78.495 Y92.234 E4.14765
G1 X77.633 Y92.602 E4.18505
G1 X76.741 Y92.894 E4.22251
G1 X75.829 Y93.11 E4.25992
G1 X74.901 Y93.247 E4.29736
G1 X74.112 Y93.3 E4.32892
G1 X73.625 Y93.313 E4.34837
G1 X73.319 Y93.316 E4.36058
G1 X47.3 Y93.315 E5.39906
G1 X46.597 Y93.305 E5.42712
G1 X45.66 Y93.252 E5.46457
G1 X44.732 Y93.119 E5.50199
G1 X43.818 Y92.907 E5.53944
G1 X42.926 Y92.619 E5.57685
G1 X42.061 Y92.255 E5.61431
G1 X41.231 Y91.819 E5.65173
G1 X40.401 Y91.287 E5.69107
G1 X40.237 Y91.171 E5.69909
G1 X39.495 Y90.597 E5.73653
G1 X38.805 Y89.962 E5.77396
G1 X38.171 Y89.271 E5.81139
G1 X37.598 Y88.528 E5.84884
G1 X37.091 Y87.739 E5.88627
G1 X36.653 Y86.91 E5.92369
G1 X36.287 Y86.046 E5.96114
G1 X35.996 Y85.155 E5.99855
G1 X35.782 Y84.241 E6.03602
G1 X35.647 Y83.313 E6.07345
G1 X35.595 Y82.549 E6.10401
G1 X35.583 Y82.099 E6.12198
G1 X35.58 Y81.651 E6.13986
G1 X35.58 Y44.719 E7.61389
G1 X35.59 Y44.04 E7.641
G1 X35.644 Y43.104 E7.67842
G1 X35.777 Y42.175 E7.71587
G1 X35.989 Y41.262 E7.75328
G1 X36.278 Y40.369 E7.79074
G1 X36.642 Y39.505 E7.82816
G1 X37.078 Y38.675 E7.86558
G1 X37.584 Y37.885 E7.90303
G1 X38.155 Y37.141 E7.94046
G1 X38.787 Y36.448 E7.97789
G0 F6000 X39.179 Y36.623
G1 F1200 X39.864 Y36.008 E8.01463
G1 X40.342 Y35.639 E8.03874
G1 X40.501 Y35.523 E8.04659
G1 X41.267 Y35.013 E8.08332
G1 X42.075 Y34.572 E8.12006
G1 X42.918 Y34.202 E8.1568
G1 X43.79 Y33.907 E8.19355
G1 X44.685 Y33.689 E8.23031
G1 X45.595 Y33.549 E8.26706
G1 X46.37 Y33.493 E8.29807
G1 X46.847 Y33.479 E8.31712
G1 X47.174 Y33.476 E8.33017
G1 X73.056 Y33.476 E9.36318
G1 X73.91 Y33.487 E9.39726
G1 X74.829 Y33.54 E9.434
G1 X75.74 Y33.673 E9.47075
G1 X76.636 Y33.884 E9.50749
G1 X77.51 Y34.172 E9.54422
G1 X78.357 Y34.535 E9.581
G1 X79.168 Y34.97 E9.61773
G1 X80.094 Y35.587 E9.66214
G1 X80.259 Y35.71 E9.67035
G1 X80.973 Y36.292 E9.70712
G1 X81.633 Y36.934 E9.74387
G1 X82.235 Y37.63 E9.7806
G1 X82.775 Y38.376 E9.81735
G1 X83.248 Y39.166 E9.8541
G1 X83.65 Y39.994 E9.89084
G1 X83.979 Y40.854 E9.92759
G1 X84.232 Y41.739 E9.96433
G1 X84.408 Y42.643 E10.00108
G1 X84.516 Y43.785 E10.04687
G1 X84.521 Y43.91 E10.05186
G1 X84.528 Y44.222 E10.06432
G1 X84.533 Y44.713 E10.08391
G1 X84.533 Y81.638 E11.55767
G1 X84.523 Y82.341 E11.58573
G1 X84.47 Y83.26 E11.62247
G1 X84.337 Y84.171 E11.65922
G1 X84.126 Y85.067 E11.69596
G1 X83.838 Y85.941 E11.73268
G1 X83.475 Y86.788 E11.76946
G1 X83.04 Y87.599 E11.8062
G1 X82.536 Y88.37 E11.84296
G1 X81.968 Y89.094 E11.87969
G1 X81.338 Y89.766 E11.91645
G1 X80.653 Y90.38 E11.95317
G1 X80.045 Y90.844 E11.98369
G1 X79.881 Y90.96 E11.99171
G1 X79.107 Y91.459 E12.02847
G1 X78.293 Y91.888 E12.06519
G1 X77.444 Y92.245 E12.10195
G1 X76.568 Y92.527 E12.13868
G1 X75.67 Y92.732 E12.17544
G1 X74.758 Y92.859 E12.21219
G1 X74.099 Y92.901 E12.23855
G1 X73.849 Y92.909 E12.24853
G1 X73.319 Y92.916 E12.26969
G1 X47.305 Y92.915 E13.30796
G1 X46.602 Y92.905 E13.33602
G1 X45.683 Y92.852 E13.37276
G1 X44.772 Y92.719 E13.40951
G1 X43.876 Y92.508 E13.44625
G1 X43.002 Y92.22 E13.48298
G1 X42.155 Y91.857 E13.51976
G1 X41.344 Y91.422 E13.55649
G1 X40.632 Y90.96 E13.59036
G1 X40.468 Y90.844 E13.59838
G1 X39.74 Y90.28 E13.63514
G1 X39.064 Y89.655 E13.67188
G1 X38.444 Y88.974 E13.70864
G1 X37.886 Y88.242 E13.74537
G1 X37.394 Y87.464 E13.78211
G1 X36.971 Y86.646 E13.81887
G1 X36.621 Y85.795 E13.8556
G1 X36.346 Y84.916 E13.89235
G1 X36.148 Y84.017 E13.9291
G1 X36.029 Y83.104 E13.96584
G1 X35.995 Y82.535 E13.98859
G1 X35.983 Y82.096 E14.00612
G1 X35.98 Y81.651 E14.02388
G1 X35.98 Y44.725 E15.49768
G1 X35.99 Y44.046 E15.52478
G1 X36.044 Y43.127 E15.56153
G1 X36.177 Y42.216 E15.59827
G1 X36.388 Y41.32 E15.63501
G1 X36.677 Y40.446 E15.67175
G1 X37.04 Y39.6 E15.70849
G1 X37.476 Y38.788 E15.74528
G1 X37.98 Y38.018 E15.78201
G1 X38.549 Y37.294 E15.81876
G1 X39.179 Y36.623 E15.8555
G0 F6000 X39.57 Y36.801
G1 F1200 X40.577 Y35.962 E15.90781
G1 X40.736 Y35.846 E15.91567
G1 X41.489 Y35.346 E15.95174
G1 X42.282 Y34.915 E15.98777
G1 X43.111 Y34.556 E16.02382
G1 X43.968 Y34.272 E16.05986
G1 X44.847 Y34.065 E16.0959
G1 X45.741 Y33.936 E16.13195
G1 X46.384 Y33.892 E16.15767
G1 X46.58 Y33.885 E16.1655
G1 X46.85 Y33.879 E16.17628
G1 X47.177 Y33.876 E16.18933
G1 X73.056 Y33.876 E17.22222
G1 X73.904 Y33.887 E17.25607
G1 X74.806 Y33.94 E17.29213
G1 X75.699 Y34.072 E17.32816
G1 X76.577 Y34.283 E17.3642
G1 X77.433 Y34.571 E17.40025
G1 X78.26 Y34.933 E17.43628
G1 X79.052 Y35.367 E17.47232
G1 X79.855 Y35.908 E17.51097
G1 X80.02 Y36.031 E17.51918
G1 X80.72 Y36.602 E17.55524
G1 X81.366 Y37.233 E17.59128
G1 X81.954 Y37.919 E17.62734
G1 X82.479 Y38.654 E17.66339
G1 X82.936 Y39.432 E17.6994
G1 X83.324 Y40.248 E17.73546
G1 X83.637 Y41.095 E17.7715
G1 X83.874 Y41.967 E17.80757
G1 X84.034 Y42.855 E17.84358
G1 X84.116 Y43.801 E17.88148
G1 X84.121 Y43.926 E17.88647
G1 X84.128 Y44.226 E17.89845
G1 X84.133 Y44.713 E17.91789
G1 X84.133 Y81.632 E19.39141
G1 X84.123 Y82.335 E19.41947
G1 X84.07 Y83.237 E19.45553
G1 X83.938 Y84.13 E19.49156
G1 X83.727 Y85.008 E19.5276
G1 X83.439 Y85.864 E19.56365
G1 X83.077 Y86.691 E19.59968
G1 X82.643 Y87.483 E19.63572
G1 X82.141 Y88.234 E19.67178
G1 X81.574 Y88.937 E19.70782
G1 X80.947 Y89.587 E19.74387
G1 X80.265 Y90.179 E19.77991
G1 X79.814 Y90.517 E19.80241
G1 X79.65 Y90.633 E19.81043
G1 X78.89 Y91.122 E19.8465
G1 X78.091 Y91.541 E19.8825
G1 X77.257 Y91.888 E19.91856
G1 X76.395 Y92.16 E19.95463
G1 X75.514 Y92.354 E19.99064
G1 X74.618 Y92.47 E20.0267
G1 X74.086 Y92.501 E20.04797
G1 X73.836 Y92.509 E20.05795
G1 X73.319 Y92.516 E20.07859
G1 X47.311 Y92.515 E21.11662
G1 X46.608 Y92.505 E21.14468
G1 X45.706 Y92.452 E21.18075
G1 X44.813 Y92.32 E21.21678
G1 X43.935 Y92.109 E21.25282
G1 X43.079 Y91.821 E21.28886
G1 X42.252 Y91.459 E21.32489
G1 X41.46 Y91.025 E21.36094
G1 X40.863 Y90.633 E21.38944
G1 X40.699 Y90.517 E21.39746
G1 X39.985 Y89.964 E21.43351
G1 X39.324 Y89.349 E21.46954
G1 X38.719 Y88.679 E21.50557
G1 X38.176 Y87.957 E21.54163
G1 X37.699 Y87.19 E21.57768
G1 X37.291 Y86.384 E21.61373
G1 X36.957 Y85.545 E21.64978
G1 X36.698 Y84.68 E21.68582
G1 X36.516 Y83.795 E21.72188
G1 X36.394 Y82.522 E21.77292
G1 X36.383 Y82.092 E21.79009
G1 X36.38 Y81.651 E21.80769
G1 X36.38 Y44.731 E23.28124
G1 X36.39 Y44.052 E23.30835
G1 X36.443 Y43.15 E23.34441
G1 X36.576 Y42.257 E23.38044
G1 X36.787 Y41.379 E23.41649
G1 X37.076 Y40.523 E23.45254
G1 X37.438 Y39.696 E23.48858
G1 X37.873 Y38.904 E23.52464
G1 X38.375 Y38.154 E23.56066
G1 X38.943 Y37.451 E23.59673
G1 X39.57 Y36.801 E23.63278
G1 F1500 E17.63278
G1 F300 Z0.44
;MESH:Strong_Case_Front.3mf
G0 F6000 X73.334 Y81.716 Z0.44
;TYPE:WALL-INNER
G1 F300 Z0.24
G1 F1500 E23.63278
G1 F1200 X47.18 Y81.716 E24.67664
G1 X47.179 Y44.676 E26.15499
G1 X73.333 Y44.676 E27.19885
G1 X73.334 Y81.716 E28.6772
G0 F6000 X73.734 Y82.092
;TYPE:WALL-OUTER
G1 F1200 X73.699 Y82.116 E28.67889
G1 X46.813 Y82.116 E29.75197
G1 X46.78 Y82.093 E29.75357
G1 X46.779 Y44.299 E31.26202
G1 X46.812 Y44.276 E31.26362
G1 X73.7 Y44.276 E32.33678
G1 X73.733 Y44.299 E32.33838
G1 X73.734 Y82.092 E33.84678
G0 F6000 X72.944 Y81.326
;TYPE:SKIN
G1 F1200 X47.57 Y81.326 E34.85952
G1 X47.569 Y45.066 E36.30673
G1 X72.943 Y45.066 E37.31946
G1 X72.944 Y81.326 E38.76668
G1 F1500 E32.76668
G1 F300 Z0.44
G0 F6000 X72.782 Y45.629 Z0.44
G1 F300 Z0.24
G1 F1500 E38.76668
G1 F1200 X72.379 Y45.226 E38.78942
G0 F6000 X71.813 Y45.226
G1 F1200 X72.782 Y46.195 E38.84412
G0 F6000 X72.782 Y46.76
G1 F1200 X71.248 Y45.226 E38.9307
G0 F6000 X70.682 Y45.226
G1 F1200 X72.782 Y47.326 E39.04924
G0 F6000 X72.782 Y47.892
G1 F1200 X70.116 Y45.226 E39.19972
G0 F6000 X69.551 Y45.226
G1 F1200 X72.782 Y48.458 E39.38212
G0 F6000 X72.782 Y49.023
G1 F1200 X68.985 Y45.226 E39.59644
G0 F6000 X68.419 Y45.226
G1 F1200 X72.782 Y49.589 E39.8427
G0 F6000 X72.782 Y50.155
G1 F1200 X67.853 Y45.226 E40.12092
G0 F6000 X67.288 Y45.226
G1 F1200 X72.782 Y50.72 E40.43102
G0 F6000 X72.782 Y51.286
G1 F1200 X66.722 Y45.226 E40.77307
G0 F6000 X66.156 Y45.226
G1 F1200 X72.782 Y51.852 E41.14707
G0 F6000 X72.782 Y52.417
G1 F1200 X65.591 Y45.226 E41.55297
G0 F6000 X65.025 Y45.226
G1 F1200 X72.782 Y52.983 E41.9908
G0 F6000 X72.782 Y53.549
G1 F1200 X64.459 Y45.226 E42.46059
G0 F6000 X63.894 Y45.226
G1 F1200 X72.782 Y54.114 E42.96227
G0 F6000 X72.783 Y54.681
G1 F1200 X63.328 Y45.226 E43.49595
G0 F6000 X62.762 Y45.226
G1 F1200 X72.783 Y55.246 E44.06155
G0 F6000 X72.783 Y55.812
G1 F1200 X62.197 Y45.226 E44.65907
G0 F6000 X61.631 Y45.226
G1 F1200 X72.783 Y56.378 E45.28854
G0 F6000 X72.783 Y56.944
G1 F1200 X61.065 Y45.226 E45.94995
G0 F6000 X60.5 Y45.226
G1 F1200 X72.783 Y57.509 E46.64326
G0 F6000 X72.783 Y58.075
G1 F1200 X59.934 Y45.226 E47.36851
G0 F6000 X59.368 Y45.226
G1 F1200 X72.783 Y58.641 E48.12571
G0 F6000 X72.783 Y59.206
G1 F1200 X58.802 Y45.226 E48.91483
G0 F6000 X58.237 Y45.226
G1 F1200 X72.783 Y59.772 E49.73587
G0 F6000 X72.783 Y60.338
G1 F1200 X57.671 Y45.226 E50.58886
G0 F6000 X57.105 Y45.226
G1 F1200 X72.783 Y60.903 E51.47376
G0 F6000 X72.783 Y61.469
G1 F1200 X56.54 Y45.226 E52.39059
G0 F6000 X55.974 Y45.226
G1 F1200 X72.783 Y62.035 E53.33936
G0 F6000 X72.783 Y62.6
G1 F1200 X55.408 Y45.226 E54.32005
G0 F6000 X54.843 Y45.226
G1 F1200 X72.783 Y63.166 E55.33266
G0 F6000 X72.783 Y63.732
G1 F1200 X54.277 Y45.226 E56.37722
G0 F6000 X53.711 Y45.226
G1 F1200 X72.783 Y64.298 E57.45373
G0 F6000 X72.783 Y64.864
G1 F1200 X53.146 Y45.226 E58.56215
G0 F6000 X52.58 Y45.226
G1 F1200 X72.783 Y65.43 E59.70252
G0 F6000 X72.783 Y65.995
G1 F1200 X52.014 Y45.226 E60.87482
G0 F6000 X51.449 Y45.226
G1 F1200 X72.783 Y66.561 E62.07903
G0 F6000 X72.783 Y67.127
G1 F1200 X50.883 Y45.226 E63.31519
G0 F6000 X50.317 Y45.226
G1 F1200 X72.783 Y67.692 E64.58326
G0 F6000 X72.783 Y68.258
G1 F1200 X49.752 Y45.226 E65.88326
G0 F6000 X49.186 Y45.226
G1 F1200 X72.783 Y68.824 E67.21521
G0 F6000 X72.783 Y69.389
G1 F1200 X48.62 Y45.226 E68.57907
G0 F6000 X48.054 Y45.226
G1 F1200 X72.783 Y69.955 E69.97488
G0 F6000 X72.783 Y70.521
G1 F1200 X47.728 Y45.465 E71.38912
G0 F6000 X47.728 Y46.031
G1 F1200 X72.783 Y71.086 E72.80334
G0 F6000 X72.783 Y71.652
G1 F1200 X47.728 Y46.596 E74.21758
G0 F6000 X47.728 Y47.162
G1 F1200 X72.784 Y72.218 E75.63185
G0 F6000 X72.784 Y72.784
G1 F1200 X47.728 Y47.728 E77.04611
G0 F6000 X47.728 Y48.293
G1 F1200 X72.784 Y73.35 E78.46041
G0 F6000 X72.784 Y73.915
G1 F1200 X47.728 Y48.859 E79.87468
G0 F6000 X47.728 Y49.425
G1 F1200 X72.784 Y74.481 E81.28895
G0 F6000 X72.784 Y75.047
G1 F1200 X47.728 Y49.991 E82.70322
G0 F6000 X47.728 Y50.556
G1 F1200 X72.784 Y75.613 E84.11752
G0 F6000 X72.784 Y76.178
G1 F1200 X47.728 Y51.122 E85.53178
G0 F6000 X47.728 Y51.688
G1 F1200 X72.784 Y76.744 E86.94605
G0 F6000 X72.784 Y77.31
G1 F1200 X47.728 Y52.253 E88.36035
G0 F6000 X47.728 Y52.819
G1 F1200 X72.784 Y77.875 E89.77462
G0 F6000 X72.784 Y78.441
G1 F1200 X47.728 Y53.385 E91.18889
G0 F6000 X47.728 Y53.95
G1 F1200 X72.784 Y79.007 E92.60319
G0 F6000 X72.784 Y79.572
G1 F1200 X47.728 Y54.516 E94.01745
G0 F6000 X47.728 Y55.082
G1 F1200 X72.784 Y80.138 E95.43172
G0 F6000 X72.784 Y80.704
G1 F1200 X47.728 Y55.647 E96.84602
G0 F6000 X47.728 Y56.213
G1 F1200 X72.679 Y81.165 E98.25439
G0 F6000 X72.114 Y81.165
G1 F1200 X47.728 Y56.779 E99.63084
G0 F6000 X47.729 Y57.345
G1 F1200 X71.548 Y81.165 E100.97532
G0 F6000 X70.982 Y81.165
G1 F1200 X47.729 Y57.911 E102.28785
G0 F6000 X47.729 Y58.477
G1 F1200 X70.417 Y81.165 E103.56845
G0 F6000 X69.851 Y81.165
G1 F1200 X47.729 Y59.042 E104.81714
G0 F6000 X47.729 Y59.608
G1 F1200 X69.285 Y81.165 E106.03389
G0 F6000 X68.72 Y81.165
G1 F1200 X47.729 Y60.174 E107.21871
G0 F6000 X47.729 Y60.739
G1 F1200 X68.154 Y81.165 E108.37161
G0 F6000 X67.588 Y81.165
G1 F1200 X47.729 Y61.305 E109.49257
G0 F6000 X47.729 Y61.871
G1 F1200 X67.023 Y81.165 E110.5816
G0 F6000 X66.457 Y81.165
G1 F1200 X47.729 Y62.436 E111.63872
G0 F6000 X47.729 Y63.002
G1 F1200 X65.891 Y81.165 E112.66389
G0 F6000 X65.326 Y81.165
G1 F1200 X47.729 Y63.568 E113.65714
G0 F6000 X47.729 Y64.133
G1 F1200 X64.76 Y81.165 E114.61847
G0 F6000 X64.194 Y81.165
G1 F1200 X47.729 Y64.699 E115.54786
G0 F6000 X47.729 Y65.265
G1 F1200 X63.629 Y81.165 E116.44532
G0 F6000 X63.063 Y81.165
G1 F1200 X47.729 Y65.83 E117.31087
G0 F6000 X47.729 Y66.396
G1 F1200 X62.497 Y81.165 E118.14447
G0 F6000 X61.931 Y81.165
G1 F1200 X47.729 Y66.962 E118.94612
G0 F6000 X47.729 Y67.527
G1 F1200 X61.366 Y81.165 E119.71588
G0 F6000 X60.8 Y81.165
G1 F1200 X47.729 Y68.093 E120.45369
G0 F6000 X47.729 Y68.659
G1 F1200 X60.234 Y81.165 E121.15955
G0 F6000 X59.669 Y81.165
G1 F1200 X47.729 Y69.225 E121.8335
G0 F6000 X47.729 Y69.791
G1 F1200 X59.103 Y81.165 E122.4755
G0 F6000 X58.537 Y81.165
G1 F1200 X47.729 Y70.357 E123.08555
G0 F6000 X47.729 Y70.922
G1 F1200 X57.972 Y81.165 E123.66371
G0 F6000 X57.406 Y81.165
G1 F1200 X47.729 Y71.488 E124.20992
G0 F6000 X47.729 Y72.054
G1 F1200 X56.84 Y81.165 E124.72418
G0 F6000 X56.275 Y81.165
G1 F1200 X47.729 Y72.619 E125.20655
G0 F6000 X47.729 Y73.185
G1 F1200 X55.709 Y81.165 E125.65698
G0 F6000 X55.143 Y81.165
G1 F1200 X47.729 Y73.751 E126.07546
G0 F6000 X47.729 Y74.316
G1 F1200 X54.578 Y81.165 E126.46205
G0 F6000 X54.012 Y81.165
G1 F1200 X47.729 Y74.882 E126.81668
G0 F6000 X47.729 Y75.448
G1 F1200 X53.446 Y81.165 E127.13938
G0 F6000 X52.88 Y81.165
G1 F1200 X47.729 Y76.013 E127.43015
G0 F6000 X47.729 Y76.579
G1 F1200 X52.315 Y81.165 E127.689
G0 F6000 X51.749 Y81.165
G1 F1200 X47.729 Y77.145 E127.91591
G0 F6000 X47.729 Y77.711
G1 F1200 X51.183 Y81.165 E128.11087
G0 F6000 X50.618 Y81.165
G1 F1200 X47.729 Y78.276 E128.27394
G0 F6000 X47.729 Y78.842
G1 F1200 X50.052 Y81.165 E128.40506
G0 F6000 X49.486 Y81.165
G1 F1200 X47.729 Y79.408 E128.50423
G0 F6000 X47.729 Y79.973
G1 F1200 X48.921 Y81.165 E128.57151
G0 F6000 X48.355 Y81.165
G1 F1200 X47.729 Y80.539 E128.60684
G0 F6000 X47.729 Y81.105
M104 S205
G1 F1200 X47.789 Y81.165 E128.61023
G1 F1500 E122.61023
G1 F300 Z0.44
;MESH:NONMESH
G0 F6000 X73.574 Y81.885 Z0.44
;TIME_ELAPSED:176.355371
;LAYER:1
M106 S25.5
;MESH:Strong_Case_Front.3mf
G0 F10500 X73.574 Y81.885 Z0.68
;TYPE:WALL-INNER
G1 F300 Z0.48
G1 F1500 E128.61023
G1 F2100 X73.474 Y81.956 E128.61513
G1 X47.04 Y81.956 E129.67016
G1 X46.94 Y81.885 E129.67506
G1 X46.939 Y44.507 E131.1669
G1 X47.039 Y44.436 E131.17179
G1 X73.473 Y44.436 E132.22683
G1 X73.573 Y44.507 E132.23172
G1 X73.574 Y81.885 E133.72356
G0 F10500 X73.974 Y82.093
;TYPE:WALL-OUTER
