;FLAVOR:Marlin
;TIME:3357
;Filament used: 1.90513m
;Layer height: 0.24
;MINX:67.255
;MINY:49.66
;MINZ:0.24
;MAXX:138.249
;MAXY:155.085
;MAXZ:35.24
;Generated with Cura_SteamEngine 4.13.1
M82 ;absolute extrusion mode
START_PRINT BED_TEMP=60 EXTRUDER_TEMP=205
G92 E0
G92 E0
G1 F1500 E-6
;LAYER_COUNT:146
;LAYER:0
M107
G1 F300 Z0.44
G0 F6000 X74.94 Y54.363 Z0.44
;TYPE:SKIRT
G1 F300 Z0.24
G1 F1500 E0
G1 F1200 X75.51 Y53.618 E0.03744
G1 X76.142 Y52.924 E0.0749
G1 X76.83 Y52.287 E0.11232
G1 X77.57 Y51.711 E0.14975
G1 X78.356 Y51.199 E0.18719
G1 X79.183 Y50.757 E0.22462
G1 X80.045 Y50.387 E0.26206
G1 X80.935 Y50.091 E0.29949
G1 X81.847 Y49.873 E0.33692
G1 X82.774 Y49.732 E0.37434
G1 X83.645 Y49.673 E0.40919
G1 X83.966 Y49.664 E0.422
G1 X84.274 Y49.66 E0.4343
G1 X118.987 Y49.66 E1.81977
G1 X119.843 Y49.671 E1.85393
G1 X120.779 Y49.725 E1.89135
G1 X121.707 Y49.857 E1.92877
G1 X122.621 Y50.069 E1.96621
G1 X123.513 Y50.358 E2.00364
G1 X124.378 Y50.721 E2.04108
G1 X125.208 Y51.157 E2.0785
G1 X125.999 Y51.662 E2.11595
G1 X126.743 Y52.233 E2.15339
G1 X127.436 Y52.865 E2.19082
G1 X128.073 Y53.553 E2.22824
G1 X128.648 Y54.294 E2.26568
G1 X129.159 Y55.08 E2.30309
G1 X129.601 Y55.908 E2.34056
G1 X129.97 Y56.77 E2.37798
G1 X130.265 Y57.66 E2.4154
G1 X130.483 Y58.572 E2.45283
G1 X130.623 Y59.5 E2.49028
G1 X130.681 Y60.361 E2.52473
G1 X130.69 Y60.681 E2.5375
G1 X130.694 Y60.99 E2.54984
G1 X130.693 Y64.088 E2.67349
G1 X130.677 Y65.233 E2.71919
G1 X130.677 Y67.81 E2.82204
G1 X130.72 Y69.329 E2.88269
G1 X130.718 Y69.479 E2.88868
G1 X130.764 Y71.054 E2.95157
G1 X130.769 Y71.377 E2.96446
G1 X130.768 Y74.474 E3.08807
G1 X130.758 Y75.194 E3.11681
G1 X130.705 Y76.13 E3.15423
G1 X130.574 Y77.051 E3.19136
G1 X130.294 Y78.554 E3.25238
G1 X130.256 Y78.749 E3.26031
G1 X129.834 Y81.244 E3.3613
G1 X129.478 Y83.77 E3.46312
G1 X129.205 Y86.227 E3.56178
G1 X128.995 Y88.743 E3.66255
G1 X128.857 Y91.283 E3.76408
G1 X128.79 Y93.777 E3.86366
G1 X128.796 Y96.301 E3.96439
G1 X128.871 Y98.815 E4.06478
G1 X129.018 Y101.317 E4.16481
G1 X129.238 Y103.846 E4.26613
G1 X129.528 Y106.348 E4.36666
G1 X129.884 Y108.821 E4.46638
G1 X130.313 Y111.294 E4.56656
G1 X130.817 Y113.779 E4.66776
G1 X131.381 Y116.211 E4.7674
G1 X132.021 Y118.653 E4.86816
G1 X132.733 Y121.082 E4.96918
G1 X133.512 Y123.489 E5.07016
G1 X134.34 Y125.82 E5.16889
G1 X135.261 Y128.196 E5.27059
G1 X136.085 Y130.162 E5.35567
G1 X137.043 Y132.391 E5.45251
G1 X137.423 Y133.413 E5.49603
G1 X137.555 Y133.83 E5.51348
G1 X137.809 Y134.779 E5.55269
G1 X137.924 Y135.3 E5.57399
G1 X138.109 Y136.399 E5.61847
G1 X138.165 Y136.88 E5.63779
G1 X138.237 Y137.928 E5.67972
G1 X138.249 Y138.517 E5.70323
G1 X138.203 Y139.766 E5.75312
G1 X138.168 Y140.14 E5.76811
G1 X138.052 Y141.005 E5.80294
G1 X137.969 Y141.481 E5.82223
G1 X137.732 Y142.533 E5.86527
G1 X137.586 Y143.059 E5.88706
G1 X137.255 Y144.062 E5.92921
G1 X137.099 Y144.468 E5.94657
G1 X136.678 Y145.426 E5.98834
G1 X136.441 Y145.902 E6.00956
G1 X135.907 Y146.852 E6.05306
G1 X135.638 Y147.28 E6.07323
G1 X135.023 Y148.161 E6.11611
G1 X134.728 Y148.542 E6.13535
G1 X134.058 Y149.328 E6.17657
G1 X133.718 Y149.691 E6.19642
G1 X132.953 Y150.432 E6.23893
G1 X132.589 Y150.752 E6.25827
G1 X131.762 Y151.412 E6.3005
G1 X131.36 Y151.702 E6.32028
G1 X130.459 Y152.287 E6.36316
G1 X130.052 Y152.524 E6.38196
G1 X129.109 Y153.014 E6.42437
G1 X128.604 Y153.246 E6.44655
G1 X127.589 Y153.652 E6.49019
G1 X127.176 Y153.794 E6.50762
G1 X126.206 Y154.079 E6.54797
G1 X125.71 Y154.2 E6.56834
G1 X124.655 Y154.403 E6.61122
G1 X124.171 Y154.472 E6.63074
G1 X123.109 Y154.571 E6.67331
G1 X122.504 Y154.598 E6.69748
G1 X121.264 Y154.583 E6.74697
G1 X120.898 Y154.558 E6.76161
G1 X120.153 Y154.482 E6.7915
G1 X117.555 Y154.126 E6.89616
G1 X115.071 Y153.857 E6.99589
G1 X112.572 Y153.658 E7.09594
G1 X110.031 Y153.528 E7.19749
G1 X107.534 Y153.471 E7.29718
G1 X105.011 Y153.484 E7.39788
G1 X102.49 Y153.569 E7.49855
G1 X99.969 Y153.725 E7.59936
G1 X97.47 Y153.951 E7.69951
G1 X95.036 Y154.242 E7.79735
G1 X90.939 Y154.874 E7.9628
G1 X90.333 Y154.96 E7.98723
G1 X89.268 Y155.058 E8.02992
G1 X88.651 Y155.085 E8.05457
G1 X87.402 Y155.069 E8.10442
G1 X87.045 Y155.044 E8.11871
G1 X86.18 Y154.949 E8.15344
G1 X85.687 Y154.875 E8.17334
G1 X84.62 Y154.66 E8.21678
G1 X83.996 Y154.502 E8.24247
G1 X83.04 Y154.214 E8.28232
G1 X82.935 Y154.177 E8.28676
G1 X82.469 Y154.001 E8.30664
G1 X82.229 Y153.904 E8.31698
G1 X81.688 Y153.668 E8.34053
G1 X81.297 Y153.485 E8.35776
G1 X80.339 Y152.978 E8.40102
G1 X79.836 Y152.679 E8.42438
G1 X78.952 Y152.093 E8.46671
G1 X78.607 Y151.84 E8.48378
G1 X77.76 Y151.152 E8.52734
G1 X77.336 Y150.771 E8.55009
G1 X76.598 Y150.042 E8.59149
G1 X76.317 Y149.737 E8.60804
G1 X75.646 Y148.935 E8.64978
G1 X75.315 Y148.499 E8.67163
G1 X74.703 Y147.605 E8.71487
G1 X74.461 Y147.211 E8.73332
G1 X73.947 Y146.275 E8.77594
G1 X73.711 Y145.791 E8.79743
G1 X73.303 Y144.845 E8.83855
G1 X73.134 Y144.396 E8.8577
G1 X72.881 Y143.643 E8.88941
G1 X72.815 Y143.42 E8.89869
G1 X72.649 Y142.79 E8.92469
G1 X72.582 Y142.502 E8.93649
G1 X72.472 Y141.969 E8.95821
G1 X72.055 Y139.663 E9.05174
G1 X71.533 Y137.183 E9.1529
G1 X70.947 Y134.745 E9.25297
G1 X70.284 Y132.291 E9.35443
G1 X69.566 Y129.908 E9.45376
G1 X68.758 Y127.475 E9.55608
G1 X68.102 Y125.65 E9.63349
G1 X67.94 Y125.165 E9.6539
G1 X67.9 Y125.035 E9.65932
G1 X67.763 Y124.55 E9.67944
G1 X67.684 Y124.244 E9.69205
G1 X67.534 Y123.574 E9.71946
G1 X67.508 Y123.439 E9.72494
G1 X67.424 Y122.946 E9.7449
G1 X67.389 Y122.706 E9.75458
G1 X67.303 Y121.912 E9.78646
G1 X67.285 Y121.663 E9.79642
G1 X67.257 Y120.999 E9.82295
G1 X67.255 Y120.828 E9.82977
G1 X67.259 Y120.358 E9.84853
G1 X67.274 Y119.874 E9.86786
G1 X67.35 Y118.885 E9.90745
G1 X67.369 Y118.729 E9.91372
G1 X67.447 Y118.193 E9.93534
G1 X67.484 Y117.978 E9.94405
G1 X67.571 Y117.527 E9.96238
G1 X67.769 Y116.725 E9.99535
G1 X67.856 Y116.421 E10.00797
G1 X68.071 Y115.75 E10.03609
G1 X68.316 Y115.063 E10.0652
G1 X69.16 Y112.591 E10.16946
G1 X69.895 Y110.221 E10.26849
G1 X70.572 Y107.79 E10.36921
G1 X71.193 Y105.299 E10.47168
G1 X71.726 Y102.858 E10.5714
G1 X72.19 Y100.411 E10.6708
G1 X72.592 Y97.905 E10.7721
G1 X72.917 Y95.425 E10.87193
G1 X73.173 Y92.942 E10.97156
G1 X73.363 Y90.38 E11.07409
G1 X73.478 Y87.893 E11.17346
G1 X73.521 Y85.374 E11.27401
G1 X73.495 Y82.882 E11.37348
G1 X73.395 Y80.324 E11.47565
G1 X73.226 Y77.809 E11.57626
G1 X73.186 Y77.368 E11.59393
G1 X73.068 Y75.975 E11.64973
G1 X73.034 Y75.38 E11.67352
G1 X73.024 Y75.05 E11.68669
G1 X73.019 Y74.717 E11.69999
G1 X73.02 Y71.594 E11.82463
G1 X73.036 Y70.461 E11.86986
G1 X73.036 Y67.89 E11.97247
G1 X72.993 Y66.38 E12.03276
G1 X72.995 Y66.229 E12.03879
G1 X72.949 Y64.653 E12.10172
G1 X72.944 Y64.33 E12.11461
G1 X72.945 Y61.185 E12.24014
G1 X72.954 Y60.52 E12.26668
G1 X73.007 Y59.584 E12.3041
G1 X73.139 Y58.655 E12.34155
G1 X73.35 Y57.741 E12.37899
G1 X73.638 Y56.849 E12.4164
G1 X74.001 Y55.984 E12.45384
G1 X74.436 Y55.153 E12.49128
G1 X74.94 Y54.363 E12.52868
G0 F6000 X75.336 Y54.495
G1 F1200 X75.905 Y53.771 E12.56543
G1 X76.533 Y53.099 E12.60214
G1 X77.218 Y52.483 E12.63891
G1 X77.954 Y51.93 E12.67565
G1 X78.735 Y51.442 E12.71241
G1 X79.555 Y51.024 E12.74914
G1 X80.409 Y50.679 E12.7859
G1 X81.289 Y50.409 E12.82264
G1 X82.189 Y50.217 E12.85937
G1 X83.103 Y50.103 E12.89613
G1 X83.656 Y50.073 E12.91824
G1 X83.977 Y50.064 E12.93105
G1 X84.274 Y50.06 E12.94291
G1 X118.987 Y50.06 E14.32838
G1 X119.837 Y50.071 E14.36231
G1 X120.756 Y50.124 E14.39905
G1 X121.667 Y50.257 E14.43579
G1 X122.563 Y50.468 E14.47253
G1 X123.437 Y50.756 E14.50926
G1 X124.284 Y51.119 E14.54604
G1 X125.095 Y51.554 E14.58277
G1 X125.865 Y52.058 E14.6195
G1 X126.589 Y52.627 E14.65625
G1 X127.261 Y53.257 E14.69302
G1 X127.876 Y53.942 E14.72976
G1 X128.429 Y54.678 E14.7665
G1 X128.916 Y55.459 E14.80324
G1 X129.333 Y56.28 E14.83999
G1 X129.678 Y57.134 E14.87675
G1 X129.947 Y58.014 E14.91348
G1 X130.139 Y58.915 E14.95025
G1 X130.252 Y59.828 E14.98697
G1 X130.281 Y60.372 E15.00871
G1 X130.29 Y60.692 E15.02149
G1 X130.294 Y60.99 E15.03338
G1 X130.293 Y64.082 E15.15679
G1 X130.277 Y65.227 E15.20249
G1 X130.277 Y67.821 E15.30603
G1 X130.32 Y69.34 E15.36668
G1 X130.318 Y69.49 E15.37266
G1 X130.364 Y71.066 E15.43559
G1 X130.369 Y71.377 E15.44801
G1 X130.368 Y74.468 E15.57137
G1 X130.358 Y75.188 E15.60011
G1 X130.305 Y76.107 E15.63685
G1 X130.181 Y76.978 E15.67197
G1 X129.901 Y78.477 E15.73283
G1 X129.861 Y78.683 E15.74121
G1 X129.442 Y81.157 E15.84136
G1 X129.084 Y83.702 E15.94393
G1 X128.804 Y86.221 E16.04509
G1 X128.595 Y88.724 E16.14534
G1 X128.457 Y91.251 E16.24635
G1 X128.39 Y93.767 E16.3468
G1 X128.396 Y96.314 E16.44846
G1 X128.471 Y98.816 E16.54836
G1 X128.621 Y101.371 E16.65051
G1 X128.837 Y103.859 E16.75019
G1 X129.133 Y106.415 E16.85289
G1 X129.489 Y108.881 E16.95233
G1 X129.921 Y111.371 E17.0532
G1 X130.429 Y113.878 E17.15529
G1 X130.988 Y116.289 E17.25407
G1 X131.636 Y118.761 E17.35607
G1 X132.347 Y121.19 E17.45708
G1 X133.127 Y123.599 E17.55814
G1 X133.974 Y125.981 E17.65905
G1 X134.89 Y128.346 E17.76027
G1 X135.732 Y130.353 E17.84714
G1 X136.675 Y132.549 E17.94252
G1 X137.042 Y133.534 E17.98448
G1 X137.174 Y133.951 E18.00194
G1 X137.419 Y134.865 E18.0397
G1 X137.534 Y135.386 E18.061
G1 X137.712 Y136.445 E18.10386
G1 X137.768 Y136.926 E18.12319
G1 X137.837 Y137.936 E18.16359
G1 X137.849 Y138.525 E18.1871
G1 X137.805 Y139.729 E18.23519
G1 X137.77 Y140.103 E18.25018
G1 X137.658 Y140.936 E18.28373
G1 X137.575 Y141.412 E18.30301
G1 X137.347 Y142.426 E18.34449
G1 X137.201 Y142.952 E18.36628
G1 X136.882 Y143.919 E18.40692
G1 X136.726 Y144.325 E18.42428
G1 X136.32 Y145.248 E18.46453
G1 X136.083 Y145.724 E18.48575
G1 X135.569 Y146.64 E18.52767
G1 X135.3 Y147.068 E18.54785
G1 X134.706 Y147.916 E18.58917
G1 X134.411 Y148.297 E18.6084
G1 X133.766 Y149.054 E18.6481
G1 X133.426 Y149.417 E18.66795
G1 X132.689 Y150.132 E18.70893
G1 X132.325 Y150.452 E18.72827
G1 X131.528 Y151.088 E18.76897
G1 X131.126 Y151.378 E18.78876
G1 X130.258 Y151.941 E18.83005
G1 X129.851 Y152.178 E18.84885
G1 X128.942 Y152.65 E18.88973
G1 X128.437 Y152.882 E18.91191
G1 X127.459 Y153.274 E18.95396
G1 X127.046 Y153.416 E18.97139
G1 X126.111 Y153.69 E19.01028
G1 X125.615 Y153.811 E19.03065
G1 X124.599 Y154.007 E19.07195
G1 X124.115 Y154.076 E19.09147
G1 X123.092 Y154.171 E19.13247
G1 X122.487 Y154.198 E19.15664
G1 X121.292 Y154.184 E19.20434
G1 X120.926 Y154.159 E19.21898
G1 X120.207 Y154.086 E19.24783
G1 X117.616 Y153.731 E19.35221
G1 X115.077 Y153.456 E19.45414
G1 X112.586 Y153.257 E19.55387
G1 X110.062 Y153.129 E19.65474
G1 X107.541 Y153.071 E19.75539
G1 X104.996 Y153.084 E19.85696
G1 X102.486 Y153.169 E19.9572
G1 X99.944 Y153.326 E20.05885
G1 X97.419 Y153.555 E20.16004
G1 X94.959 Y153.848 E20.25892
G1 X90.882 Y154.478 E20.42357
G1 X90.276 Y154.564 E20.448
G1 X89.25 Y154.659 E20.48913
G1 X88.633 Y154.686 E20.51378
G1 X87.43 Y154.67 E20.5618
G1 X87.073 Y154.645 E20.57608
G1 X86.24 Y154.554 E20.60952
G1 X85.747 Y154.48 E20.62942
G1 X84.718 Y154.273 E20.67131
G1 X84.094 Y154.115 E20.697
G1 X83.173 Y153.836 E20.73541
G1 X83.068 Y153.799 E20.73986
G1 X82.619 Y153.63 E20.759
G1 X82.379 Y153.533 E20.76934
G1 X81.858 Y153.306 E20.79202
G1 X81.467 Y153.123 E20.80925
G1 X80.544 Y152.634 E20.85094
G1 X80.041 Y152.335 E20.87429
G1 X79.189 Y151.771 E20.91507
G1 X78.844 Y151.518 E20.93215
G1 X78.027 Y150.854 E20.97417
G1 X77.603 Y150.473 E20.99692
G1 X76.892 Y149.771 E21.0368
G1 X76.611 Y149.466 E21.05335
G1 X75.964 Y148.693 E21.09358
G1 X75.633 Y148.257 E21.11543
G1 X75.044 Y147.396 E21.15707
G1 X74.802 Y147.002 E21.17552
G1 X74.306 Y146.1 E21.21661
G1 X74.07 Y145.616 E21.2381
G1 X73.677 Y144.704 E21.27774
G1 X73.508 Y144.255 E21.29688
G1 X73.265 Y143.529 E21.32744
G1 X73.199 Y143.306 E21.33672
G1 X73.039 Y142.7 E21.36174
G1 X72.972 Y142.412 E21.37354
G1 X72.865 Y141.898 E21.39449
G1 X72.438 Y139.54 E21.49014
G1 X71.928 Y137.112 E21.58916
G1 X71.336 Y134.651 E21.69018
G1 X70.667 Y132.176 E21.79251
G1 X69.945 Y129.782 E21.89231
G1 X69.135 Y127.34 E21.995
G1 X68.479 Y125.515 E22.0724
G1 X68.323 Y125.047 E22.09209
G1 X68.283 Y124.917 E22.09752
G1 X68.151 Y124.45 E22.11689
G1 X68.072 Y124.144 E22.1295
G1 X67.926 Y123.499 E22.1559
G1 X67.9 Y123.364 E22.16138
G1 X67.82 Y122.889 E22.18061
G1 X67.785 Y122.649 E22.19029
G1 X67.702 Y121.883 E22.22104
G1 X67.684 Y121.634 E22.23101
G1 X67.657 Y120.994 E22.25657
G1 X67.655 Y120.823 E22.2634
G1 X67.659 Y120.371 E22.28144
G1 X67.674 Y119.887 E22.30077
G1 X67.747 Y118.933 E22.33895
G1 X67.766 Y118.777 E22.34523
G1 X67.842 Y118.261 E22.36604
G1 X67.879 Y118.046 E22.37475
G1 X67.963 Y117.608 E22.39255
G1 X68.153 Y116.836 E22.42428
G1 X68.24 Y116.532 E22.4369
G1 X68.448 Y115.884 E22.46406
G1 X68.7 Y115.179 E22.49395
G1 X69.538 Y112.723 E22.59752
G1 X70.276 Y110.342 E22.69701
G1 X70.969 Y107.856 E22.80001
G1 X71.577 Y105.416 E22.90038
G1 X72.116 Y102.946 E23.00128
G1 X72.585 Y100.477 E23.10159
G1 X72.985 Y97.984 E23.20236
G1 X73.317 Y95.447 E23.30448
G1 X73.571 Y92.98 E23.40346
G1 X73.761 Y90.426 E23.50568
G1 X73.878 Y87.885 E23.60721
G1 X73.921 Y85.376 E23.70736
G1 X73.895 Y82.862 E23.80771
G1 X73.796 Y80.317 E23.90936
G1 X73.626 Y77.79 E24.01044
G1 X73.585 Y77.335 E24.02868
G1 X73.467 Y75.942 E24.08447
G1 X73.434 Y75.368 E24.10742
G1 X73.424 Y75.038 E24.1206
G1 X73.419 Y74.717 E24.13341
G1 X73.42 Y71.599 E24.25786
G1 X73.436 Y70.466 E24.30308
G1 X73.436 Y67.879 E24.40634
G1 X73.393 Y66.369 E24.46663
G1 X73.395 Y66.218 E24.47266
G1 X73.349 Y64.641 E24.53562
G1 X73.344 Y64.33 E24.54804
G1 X73.345 Y61.191 E24.67332
G1 X73.354 Y60.526 E24.69987
G1 X73.406 Y59.606 E24.73664
G1 X73.538 Y58.695 E24.77338
G1 X73.749 Y57.799 E24.81012
G1 X74.036 Y56.924 E24.84688
G1 X74.399 Y56.078 E24.88362
G1 X74.833 Y55.266 E24.92037
G1 X75.336 Y54.495 E24.95711
G0 F6000 X75.732 Y54.631
G1 F1200 X76.299 Y53.927 E24.99319
G1 X76.925 Y53.277 E25.02921
G1 X77.606 Y52.684 E25.06525
G1 X78.338 Y52.154 E25.10132
G1 X79.113 Y51.691 E25.13735
G1 X79.926 Y51.298 E25.17339
G1 X80.771 Y50.978 E25.20945
G1 X81.64 Y50.735 E25.24547
G1 X82.528 Y50.569 E25.28152
G1 X83.667 Y50.473 E25.32714
G1 X83.988 Y50.464 E25.33996
G1 X84.274 Y50.46 E25.35138
G1 X119.133 Y50.461 E26.74267
G1 X119.831 Y50.471 E26.77053
G1 X120.733 Y50.524 E26.8066
G1 X121.626 Y50.656 E26.84263
G1 X122.504 Y50.867 E26.87867
G1 X123.36 Y51.155 E26.91471
G1 X124.187 Y51.517 E26.95074
G1 X124.979 Y51.952 E26.98681
G1 X125.73 Y52.454 E27.02286
G1 X126.433 Y53.021 E27.05891
G1 X127.083 Y53.648 E27.09496
G1 X127.675 Y54.33 E27.131
G1 X128.205 Y55.061 E27.16704
G1 X128.667 Y55.837 E27.20308
G1 X129.06 Y56.65 E27.23912
G1 X129.378 Y57.495 E27.27516
G1 X129.621 Y58.365 E27.31121
G1 X129.786 Y59.253 E27.34726
G1 X129.881 Y60.383 E27.39252
G1 X129.89 Y60.703 E27.4053
G1 X129.894 Y60.99 E27.41675
G1 X129.893 Y64.076 E27.53992
G1 X129.877 Y65.221 E27.58563
G1 X129.877 Y67.832 E27.68984
G1 X129.92 Y69.351 E27.75049
G1 X129.918 Y69.475 E27.75544
G1 X129.965 Y71.078 E27.81944
G1 X129.969 Y71.377 E27.83138
G1 X129.968 Y74.463 E27.95455
G1 X129.958 Y75.183 E27.98329
G1 X129.906 Y76.084 E28.01931
G1 X129.787 Y76.905 E28.05242
G1 X129.509 Y78.4 E28.11311
G1 X129.466 Y78.618 E28.12198
G1 X129.039 Y81.142 E28.22415
G1 X128.688 Y83.639 E28.32479
G1 X128.41 Y86.141 E28.42526
G1 X128.196 Y88.705 E28.52795
G1 X128.057 Y91.253 E28.6298
G1 X127.99 Y93.758 E28.72982
G1 X127.996 Y96.327 E28.83235
G1 X128.072 Y98.851 E28.93314
G1 X128.219 Y101.36 E29.03345
G1 X128.443 Y103.938 E29.13673
G1 X128.729 Y106.411 E29.23609
G1 X129.098 Y108.969 E29.33924
G1 X129.528 Y111.447 E29.43962
G1 X130.034 Y113.942 E29.54123
G1 X130.607 Y116.417 E29.64262
G1 X131.251 Y118.871 E29.74389
G1 X131.966 Y121.311 E29.84537
G1 X132.745 Y123.719 E29.94638
G1 X133.599 Y126.123 E30.0482
G1 X134.52 Y128.498 E30.14987
G1 X135.329 Y130.428 E30.2334
G1 X136.308 Y132.707 E30.33239
G1 X136.66 Y133.655 E30.37275
G1 X136.792 Y134.072 E30.39021
G1 X137.028 Y134.951 E30.42654
G1 X137.143 Y135.472 E30.44783
G1 X137.315 Y136.491 E30.48908
G1 X137.371 Y136.972 E30.5084
G1 X137.437 Y137.944 E30.54729
G1 X137.449 Y138.533 E30.5708
