;FLAVOR:Marlin
;TIME:3602
;Filament used: 4.3333m
;Layer height: 0.24
;MINX:74.404
;MINY:86.572
;MINZ:0.24
;MAXX:139.237
;MAXY:133.334
;MAXZ:40.52
;Generated with Cura_SteamEngine 4.13.1
M82 ;absolute extrusion mode
START_PRINT BED_TEMP=60 EXTRUDER_TEMP=205
G92 E0
G92 E0
G1 F1500 E-6
;LAYER_COUNT:168
;LAYER:0
M107
G1 F300 Z0.44
G0 F6000 X84.53 Y90.143 Z0.44
;TYPE:SKIRT
G1 F300 Z0.24
G1 F1500 E0
G1 F1200 X85.076 Y89.645 E0.0295
G1 X85.393 Y89.375 E0.04611
G1 X86.133 Y88.798 E0.08357
G1 X86.918 Y88.286 E0.12097
G1 X87.855 Y87.79 E0.16329
G1 X88.081 Y87.684 E0.17325
G1 X89.273 Y87.207 E0.22449
G1 X90.205 Y86.939 E0.2632
G1 X91.073 Y86.767 E0.29852
G1 X91.391 Y86.717 E0.31136
G1 X92.323 Y86.61 E0.34881
G1 X92.94 Y86.584 E0.37345
G1 X93.856 Y86.572 E0.41002
G1 X119.82 Y86.572 E1.4463
G1 X120.659 Y86.583 E1.47979
G1 X121.599 Y86.637 E1.51736
G1 X121.877 Y86.665 E1.52852
G1 X122.806 Y86.799 E1.56598
G1 X123.719 Y87.011 E1.60339
G1 X124.7 Y87.334 E1.64461
G1 X124.899 Y87.41 E1.65311
G1 X126.097 Y87.952 E1.70559
G1 X126.287 Y88.052 E1.71416
G1 X127.098 Y88.524 E1.75161
G1 X128.197 Y89.328 E1.80596
G1 X128.387 Y89.486 E1.81582
G1 X128.815 Y89.861 E1.83854
G1 X129.079 Y90.11 E1.85302
G1 X129.483 Y90.505 E1.87557
G1 X131.737 Y92.758 E2.00277
G1 X131.889 Y92.913 E2.01143
G1 X132.998 Y94.066 E2.07528
G1 X133.244 Y94.33 E2.08969
G1 X133.425 Y94.531 E2.10048
G1 X133.657 Y94.797 E2.11457
G1 X133.894 Y95.08 E2.1293
G1 X134.04 Y95.259 E2.13852
G1 X134.277 Y95.56 E2.15381
G1 X134.665 Y96.071 E2.17942
G1 X135.017 Y96.562 E2.20353
G1 X135.374 Y97.092 E2.22904
G1 X135.612 Y97.456 E2.24639
G1 X135.95 Y98.008 E2.27223
G1 X136.245 Y98.523 E2.29592
G1 X136.545 Y99.069 E2.32078
G1 X136.73 Y99.422 E2.33669
G1 X136.852 Y99.668 E2.34765
G1 X136.982 Y99.939 E2.35964
G1 X137.122 Y100.243 E2.373
G1 X137.358 Y100.776 E2.39627
G1 X137.586 Y101.331 E2.42021
G1 X137.782 Y101.848 E2.44228
G1 X137.98 Y102.396 E2.46554
G1 X138.164 Y102.953 E2.48895
G1 X138.289 Y103.37 E2.50633
G1 X138.38 Y103.691 E2.51964
G1 X138.529 Y104.249 E2.54269
G1 X138.633 Y104.67 E2.56
G1 X138.741 Y105.173 E2.58054
G1 X138.794 Y105.438 E2.59132
G1 X138.9 Y106.013 E2.61466
G1 X138.974 Y106.468 E2.63306
G1 X139.025 Y106.829 E2.64761
G1 X139.074 Y107.231 E2.66377
G1 X139.141 Y107.876 E2.68965
G1 X139.178 Y108.305 E2.70684
G1 X139.196 Y108.574 E2.7176
G1 X139.207 Y108.782 E2.72591
G1 X139.218 Y109.076 E2.73765
G1 X139.233 Y109.651 E2.76061
G1 X139.237 Y110.01 E2.77494
G1 X139.232 Y110.379 E2.78967
G1 X139.225 Y110.645 E2.80029
G1 X139.213 Y110.955 E2.81267
G1 X139.182 Y111.523 E2.83538
G1 X139.148 Y111.968 E2.85319
G1 X139.113 Y112.335 E2.8679
G1 X139.069 Y112.729 E2.88373
G1 X138.99 Y113.328 E2.90784
G1 X138.937 Y113.685 E2.92225
G1 X138.878 Y114.029 E2.93618
G1 X138.827 Y114.304 E2.94734
G1 X138.771 Y114.584 E2.95874
G1 X138.621 Y115.282 E2.98723
G1 X138.596 Y115.392 E2.99173
G1 X138.481 Y115.855 E3.01077
G1 X138.402 Y116.144 E3.02273
G1 X138.333 Y116.383 E3.03266
G1 X138.182 Y116.89 E3.05377
G1 X137.988 Y117.481 E3.0786
G1 X137.758 Y118.119 E3.10567
G1 X137.67 Y118.354 E3.11568
G1 X137.532 Y118.711 E3.13096
G1 X137.31 Y119.244 E3.154
G1 X137.15 Y119.601 E3.16962
G1 X137.032 Y119.855 E3.1808
G1 X136.802 Y120.335 E3.20204
G1 X136.61 Y120.718 E3.21914
G1 X136.374 Y121.158 E3.23907
G1 X136.223 Y121.429 E3.25145
G1 X135.937 Y121.923 E3.27423
G1 X135.766 Y122.208 E3.2875
G1 X135.549 Y122.554 E3.3038
G1 X135.423 Y122.748 E3.31303
G1 X135.249 Y123.008 E3.32552
G1 X134.943 Y123.451 E3.34701
G1 X134.693 Y123.8 E3.36414
G1 X134.494 Y124.066 E3.3774
G1 X134.178 Y124.471 E3.3979
G1 X133.822 Y124.911 E3.42049
G1 X133.606 Y125.169 E3.43392
G1 X133.507 Y125.284 E3.43998
G1 X133.102 Y125.729 E3.46399
G1 X131.822 Y127.061 E3.53773
G1 X131.665 Y127.221 E3.54667
G1 X129.508 Y129.375 E3.66834
G1 X129.11 Y129.763 E3.69052
G1 X128.594 Y130.235 E3.71843
G1 X128.291 Y130.495 E3.73437
G1 X127.554 Y131.075 E3.7718
G1 X126.77 Y131.59 E3.80924
G1 X125.766 Y132.122 E3.85459
G1 X125.495 Y132.248 E3.86652
G1 X124.628 Y132.606 E3.90395
G1 X123.734 Y132.89 E3.94139
G1 X122.562 Y133.14 E3.98922
G1 X122.256 Y133.188 E4.00159
G1 X121.324 Y133.294 E4.03902
G1 X120.737 Y133.319 E4.06247
G1 X119.783 Y133.334 E4.10055
G1 X93.657 Y133.333 E5.1433
G1 X92.98 Y133.323 E5.17032
G1 X92.007 Y133.265 E5.20923
G1 X91.737 Y133.237 E5.22006
G1 X90.809 Y133.101 E5.25749
G1 X89.897 Y132.886 E5.29489
G1 X88.926 Y132.564 E5.33572
G1 X88.684 Y132.471 E5.34607
G1 X87.499 Y131.933 E5.39801
G1 X87.353 Y131.856 E5.4046
G1 X86.542 Y131.383 E5.44207
G1 X85.467 Y130.597 E5.49522
G1 X85.269 Y130.433 E5.50548
G1 X84.836 Y130.055 E5.52842
G1 X84.534 Y129.771 E5.54497
G1 X84.225 Y129.469 E5.56221
G1 X81.738 Y126.98 E5.70265
G1 X80.666 Y125.867 E5.76432
G1 X80.411 Y125.593 E5.77926
G1 X80.178 Y125.334 E5.79317
G1 X79.846 Y124.947 E5.81352
G1 X79.606 Y124.654 E5.82864
G1 X79.36 Y124.343 E5.84446
G1 X78.979 Y123.842 E5.86958
G1 X78.633 Y123.36 E5.89326
G1 X78.26 Y122.808 E5.91985
G1 X78.023 Y122.445 E5.93716
G1 X77.684 Y121.891 E5.96308
G1 X77.389 Y121.375 E5.9868
G1 X77.084 Y120.818 E6.01215
G1 X76.892 Y120.449 E6.02875
G1 X76.767 Y120.198 E6.03994
G1 X76.649 Y119.951 E6.05087
G1 X76.519 Y119.668 E6.0633
G1 X76.284 Y119.138 E6.08644
G1 X76.155 Y118.836 E6.09954
G1 X76.005 Y118.459 E6.11574
G1 X75.814 Y117.946 E6.13759
G1 X75.629 Y117.419 E6.15988
G1 X75.483 Y116.976 E6.17849
G1 X75.408 Y116.735 E6.18857
G1 X75.351 Y116.542 E6.1966
G1 X75.272 Y116.258 E6.20837
G1 X75.11 Y115.65 E6.23348
G1 X75.012 Y115.258 E6.24961
G1 X74.935 Y114.914 E6.26368
G1 X74.842 Y114.45 E6.28256
G1 X74.739 Y113.892 E6.30521
G1 X74.68 Y113.545 E6.31926
G1 X74.623 Y113.145 E6.33539
G1 X74.589 Y112.879 E6.34609
G1 X74.558 Y112.609 E6.35694
G1 X74.5 Y112.045 E6.37956
G1 X74.472 Y111.731 E6.39215
G1 X74.441 Y111.273 E6.41047
G1 X74.433 Y111.115 E6.41678
G1 X74.423 Y110.839 E6.42781
G1 X74.408 Y110.249 E6.45136
G1 X74.404 Y109.969 E6.46254
G1 X74.408 Y109.503 E6.48114
G1 X74.416 Y109.221 E6.4924
G1 X74.429 Y108.926 E6.50418
G1 X74.46 Y108.365 E6.52661
G1 X74.481 Y108.058 E6.53889
G1 X74.517 Y107.655 E6.55504
G1 X74.54 Y107.436 E6.56383
G1 X74.574 Y107.153 E6.5752
G1 X74.644 Y106.62 E6.59666
G1 X74.743 Y106.002 E6.62164
G1 X74.905 Y105.157 E6.65598
G1 X74.979 Y104.804 E6.67037
G1 X75.079 Y104.37 E6.68815
G1 X75.153 Y104.082 E6.70002
G1 X75.249 Y103.727 E6.7147
G1 X75.326 Y103.457 E6.7259
G1 X75.461 Y103.004 E6.74477
G1 X75.6 Y102.568 E6.76303
G1 X75.698 Y102.281 E6.77514
G1 X75.863 Y101.827 E6.79442
G1 X76.086 Y101.246 E6.81925
G1 X76.287 Y100.76 E6.84025
G1 X76.433 Y100.428 E6.85472
G1 X76.586 Y100.094 E6.86938
G1 X76.841 Y99.563 E6.89289
G1 X77.01 Y99.224 E6.90801
G1 X77.255 Y98.764 E6.92881
G1 X77.426 Y98.459 E6.94277
G1 X77.719 Y97.955 E6.96604
G1 X77.879 Y97.689 E6.97843
G1 X78.069 Y97.385 E6.99274
G1 X78.192 Y97.194 E7.0018
G1 X78.389 Y96.898 E7.01599
G1 X78.704 Y96.442 E7.03811
G1 X78.898 Y96.171 E7.05142
G1 X79.13 Y95.86 E7.0669
G1 X79.293 Y95.648 E7.07758
G1 X79.473 Y95.42 E7.08917
G1 X79.831 Y94.979 E7.11184
G1 X80.064 Y94.701 E7.12632
G1 X80.189 Y94.557 E7.13393
G1 X80.572 Y94.138 E7.15659
G1 X81.79 Y92.873 E7.22667
G1 X84.035 Y90.627 E7.35342
G1 X84.53 Y90.143 E7.38105
G0 F6000 X84.81 Y90.429
G1 F1200 X85.336 Y89.949 E7.40947
G1 X85.653 Y89.679 E7.42609
G1 X86.379 Y89.113 E7.46283
G1 X87.151 Y88.613 E7.49954
G1 X88.025 Y88.152 E7.53898
G1 X88.251 Y88.046 E7.54894
G1 X89.4 Y87.587 E7.59833
G1 X90.315 Y87.324 E7.63632
G1 X91.136 Y87.162 E7.66972
G1 X91.454 Y87.112 E7.68257
G1 X92.368 Y87.008 E7.71929
G1 X92.946 Y86.984 E7.74238
G1 X93.856 Y86.972 E7.7787
G1 X119.82 Y86.972 E8.81498
G1 X120.654 Y86.983 E8.84827
G1 X121.559 Y87.035 E8.88445
G1 X121.837 Y87.063 E8.8956
G1 X122.748 Y87.195 E8.93234
G1 X123.645 Y87.406 E8.96912
G1 X124.557 Y87.708 E9.00746
G1 X124.756 Y87.784 E9.01596
G1 X125.911 Y88.306 E9.06655
G1 X126.101 Y88.406 E9.07512
G1 X126.896 Y88.87 E9.11186
G1 X127.942 Y89.636 E9.16361
G1 X128.132 Y89.794 E9.17347
G1 X128.544 Y90.155 E9.19533
G1 X128.8 Y90.396 E9.20937
G1 X129.201 Y90.788 E9.23175
G1 X131.455 Y93.041 E9.35894
G1 X131.601 Y93.19 E9.36727
G1 X132.71 Y94.343 E9.43112
G1 X132.947 Y94.598 E9.44502
G1 X133.128 Y94.799 E9.45581
G1 X133.352 Y95.055 E9.46939
G1 X133.584 Y95.333 E9.48384
G1 X133.73 Y95.512 E9.49306
G1 X133.958 Y95.802 E9.50778
G1 X134.346 Y96.313 E9.53339
G1 X134.685 Y96.786 E9.55662
G1 X135.039 Y97.311 E9.58189
G1 X135.277 Y97.675 E9.59925
G1 X135.603 Y98.207 E9.62415
G1 X135.898 Y98.722 E9.64784
G1 X136.007 Y98.917 E9.65675
G1 X136.194 Y99.26 E9.67235
G1 X136.374 Y99.604 E9.68784
G1 X136.491 Y99.841 E9.69839
G1 X136.621 Y100.112 E9.71039
G1 X136.756 Y100.405 E9.72326
G1 X136.992 Y100.938 E9.74653
G1 X137.212 Y101.472 E9.76958
G1 X137.408 Y101.989 E9.79165
G1 X137.604 Y102.531 E9.81465
G1 X137.781 Y103.068 E9.83722
G1 X137.906 Y103.485 E9.85459
G1 X137.993 Y103.794 E9.86741
G1 X138.142 Y104.352 E9.89046
G1 X138.243 Y104.761 E9.90727
G1 X138.299 Y105.012 E9.91754
G1 X138.35 Y105.255 E9.92745
G1 X138.4 Y105.51 E9.93782
G1 X138.506 Y106.085 E9.96115
G1 X138.578 Y106.524 E9.97891
G1 X138.629 Y106.885 E9.99346
G1 X138.676 Y107.273 E10.00906
G1 X138.743 Y107.918 E10.03494
G1 X138.779 Y108.336 E10.05169
G1 X138.796 Y108.595 E10.06205
G1 X138.807 Y108.803 E10.07036
G1 X138.818 Y109.087 E10.0817
G1 X138.833 Y109.662 E10.10466
G1 X138.837 Y110.008 E10.11847
G1 X138.832 Y110.369 E10.13288
G1 X138.825 Y110.635 E10.1435
G1 X138.813 Y110.934 E10.15544
G1 X138.782 Y111.502 E10.17815
G1 X138.75 Y111.93 E10.19528
G1 X138.715 Y112.297 E10.20999
G1 X138.672 Y112.677 E10.22525
G1 X138.593 Y113.276 E10.24937
G1 X138.542 Y113.62 E10.26325
G1 X138.484 Y113.956 E10.27686
G1 X138.433 Y114.231 E10.28802
G1 X138.38 Y114.501 E10.299
G1 X138.264 Y115.047 E10.32128
G1 X138.206 Y115.303 E10.33176
G1 X138.095 Y115.749 E10.3501
G1 X138.016 Y116.038 E10.36206
G1 X137.95 Y116.269 E10.37165
G1 X137.799 Y116.776 E10.39276
G1 X137.612 Y117.345 E10.41667
G1 X137.382 Y117.983 E10.44373
G1 X137.297 Y118.21 E10.45341
G1 X137.159 Y118.567 E10.46869
G1 X136.945 Y119.08 E10.49087
G1 X136.785 Y119.437 E10.50648
G1 X136.671 Y119.682 E10.51727
G1 X136.441 Y120.162 E10.53851
G1 X136.254 Y120.535 E10.55517
G1 X136.146 Y120.741 E10.56445
G1 X136.023 Y120.968 E10.57475
G1 X135.877 Y121.229 E10.58669
G1 X135.591 Y121.723 E10.60947
G1 X135.426 Y121.998 E10.62227
G1 X135.214 Y122.336 E10.6382
G1 X135.088 Y122.53 E10.64743
G1 X134.92 Y122.78 E10.65945
G1 X134.614 Y123.223 E10.68094
G1 X134.369 Y123.565 E10.69773
G1 X134.177 Y123.821 E10.7105
G1 X133.867 Y124.219 E10.73064
G1 X133.511 Y124.659 E10.75323
G1 X133.303 Y124.908 E10.76618
G1 X133.204 Y125.023 E10.77223
G1 X132.814 Y125.452 E10.79537
G1 X131.534 Y126.784 E10.86911
G1 X131.383 Y126.938 E10.87771
G1 X129.228 Y129.089 E10.99924
G1 X128.83 Y129.477 E11.02142
G1 X128.334 Y129.931 E11.04826
G1 X128.031 Y130.191 E11.0642
G1 X127.307 Y130.76 E11.10095
G1 X126.536 Y131.264 E11.13771
G1 X125.597 Y131.759 E11.18008
G1 X125.326 Y131.885 E11.19201
G1 X124.475 Y132.236 E11.22875
G1 X123.597 Y132.513 E11.26549
G1 X122.5 Y132.745 E11.31024
G1 X122.194 Y132.793 E11.32261
G1 X121.279 Y132.896 E11.35936
G1 X120.73 Y132.919 E11.38129
G1 X119.783 Y132.934 E11.41909
G1 X93.662 Y132.933 E12.46164
G1 X92.985 Y132.923 E12.48866
G1 X92.049 Y132.867 E12.52608
G1 X91.779 Y132.839 E12.53692
G1 X90.868 Y132.705 E12.57367
G1 X89.972 Y132.492 E12.61043
G1 X89.07 Y132.191 E12.64838
G1 X88.828 Y132.098 E12.65873
G1 X87.685 Y131.579 E12.70883
G1 X87.539 Y131.502 E12.71542
G1 X86.744 Y131.038 E12.75216
G1 X85.722 Y130.289 E12.80273
G1 X85.524 Y130.125 E12.81299
G1 X85.107 Y129.76 E12.83511
G1 X84.814 Y129.485 E12.85115
G1 X84.505 Y129.183 E12.86839
G1 X82.026 Y126.702 E13.00837
G1 X80.954 Y125.589 E13.07005
G1 X80.709 Y125.325 E13.08442
G1 X80.476 Y125.066 E13.09833
G1 X80.156 Y124.694 E13.11791
G1 X79.916 Y124.401 E13.13303
G1 X79.679 Y124.1 E13.14832
G1 X79.298 Y123.599 E13.17344
G1 X78.964 Y123.135 E13.19626
G1 X78.595 Y122.589 E13.22256
G1 X78.358 Y122.226 E13.23986
G1 X78.032 Y121.692 E13.26484
G1 X77.627 Y120.98 E13.29753
G1 X77.435 Y120.627 E13.31357
G1 X77.248 Y120.268 E13.32972
G1 X77.128 Y120.025 E13.34054
G1 X77.01 Y119.778 E13.35146
G1 X76.885 Y119.506 E13.36341
G1 X76.65 Y118.976 E13.38655
G1 X76.524 Y118.681 E13.39936
G1 X76.379 Y118.318 E13.41496
G1 X76.191 Y117.813 E13.43646
G1 X76.006 Y117.286 E13.45876
G1 X75.864 Y116.854 E13.47691
G1 X75.735 Y116.428 E13.49467
G1 X75.658 Y116.155 E13.50599
G1 X75.496 Y115.547 E13.5311
G1 X75.401 Y115.165 E13.54682
G1 X75.327 Y114.833 E13.56039
G1 X75.235 Y114.377 E13.57896
G1 X75.132 Y113.819 E13.60161
G1 X75.076 Y113.485 E13.61512
G1 X75.02 Y113.094 E13.63089
G1 X74.986 Y112.828 E13.64159
G1 X74.956 Y112.568 E13.65204
G1 X74.898 Y112.004 E13.67467
G1 X74.871 Y111.701 E13.68681
G1 X74.841 Y111.253 E13.70473
G1 X74.822 Y110.828 E13.72171
G1 X74.807 Y110.238 E13.74526
G1 X74.804 Y109.815 E13.76215
G1 X74.808 Y109.514 E13.77416
G1 X74.816 Y109.232 E13.78542
G1 X74.828 Y108.948 E13.79677
G1 X74.859 Y108.387 E13.81919
G1 X74.894 Y107.924 E13.83772
G1 X74.938 Y107.478 E13.85561
G1 X74.97 Y107.205 E13.86658
G1 X75.04 Y106.672 E13.88804
G1 X75.136 Y106.077 E13.91209
G1 X75.257 Y105.439 E13.93801
G1 X75.371 Y104.886 E13.96054
G1 X75.467 Y104.468 E13.97766
G1 X75.54 Y104.187 E13.98925
G1 X75.636 Y103.832 E14.00393
G1 X75.71 Y103.572 E14.01472
G1 X75.845 Y103.119 E14.03358
G1 X75.928 Y102.851 E14.04478
G1 X75.98 Y102.692 E14.05146
G1 X76.075 Y102.416 E14.06311
G1 X76.237 Y101.971 E14.08201
G1 X76.46 Y101.39 E14.10685
G1 X76.653 Y100.921 E14.12709
G1 X76.799 Y100.589 E14.14156
G1 X76.947 Y100.267 E14.15571
G1 X77.202 Y99.736 E14.17922
G1 X77.367 Y99.406 E14.19394
G1 X77.484 Y99.182 E14.20403
G1 X77.607 Y98.954 E14.21437
G1 X77.772 Y98.66 E14.22783
G1 X78.065 Y98.156 E14.25109
G1 X78.219 Y97.899 E14.26305
G1 X78.405 Y97.602 E14.27704
G1 X78.528 Y97.411 E14.28611
G1 X78.719 Y97.125 E14.29983
G1 X79.034 Y96.669 E14.32195
G1 X79.22 Y96.408 E14.33474
G1 X79.447 Y96.104 E14.34989
G1 X79.61 Y95.892 E14.36056
G1 X79.783 Y95.672 E14.37173
G1 X80.141 Y95.231 E14.3944
G1 X80.366 Y94.963 E14.40837
G1 X80.491 Y94.819 E14.41598
G1 X80.86 Y94.416 E14.43779
G1 X82.078 Y93.151 E14.50788
G1 X82.22 Y93.006 E14.51598
G1 X84.412 Y90.817 E14.63962
G1 X84.81 Y90.429 E14.6618
G0 F6000 X85.089 Y90.715
G1 F1200 X85.595 Y90.254 E14.68912
G1 X85.912 Y89.984 E14.70574
G1 X86.625 Y89.429 E14.7418
G1 X87.384 Y88.94 E14.77784
G1 X88.195 Y88.514 E14.8144
G1 X88.421 Y88.408 E14.82437
G1 X89.526 Y87.966 E14.87187
G1 X90.425 Y87.709 E14.90918
G1 X91.198 Y87.557 E14.94063
G1 X91.516 Y87.507 E14.95347
G1 X92.413 Y87.406 E14.9895
G1 X92.952 Y87.384 E15.01103
G1 X93.856 Y87.372 E15.04712
G1 X119.82 Y87.372 E16.0834
G1 X120.648 Y87.383 E16.11645
G1 X121.519 Y87.433 E16.15127
G1 X121.797 Y87.461 E16.16242
G1 X122.691 Y87.592 E16.19848
G1 X123.569 Y87.8 E16.23449
G1 X124.414 Y88.081 E16.27004
G1 X124.613 Y88.157 E16.27854
G1 X125.725 Y88.66 E16.32725
G1 X125.915 Y88.76 E16.33582
G1 X126.694 Y89.215 E16.37183
G1 X127.686 Y89.943 E16.42094
G1 X127.876 Y90.101 E16.4308
G1 X128.272 Y90.449 E16.45184
G1 X128.521 Y90.683 E16.46548
G1 X128.918 Y91.071 E16.48763
G1 X131.172 Y93.324 E16.61483
G1 X131.312 Y93.467 E16.62282
G1 X132.421 Y94.62 E16.68667
G1 X132.65 Y94.865 E16.70005
G1 X132.831 Y95.066 E16.71085
G1 X133.046 Y95.313 E16.72392
G1 X133.274 Y95.586 E16.73812
G1 X133.42 Y95.765 E16.74733
G1 X133.64 Y96.044 E16.76152
G1 X134.028 Y96.555 E16.78712
G1 X134.354 Y97.01 E16.80946
G1 X134.704 Y97.53 E16.83448
G1 X134.942 Y97.894 E16.85184
G1 X135.256 Y98.406 E16.87581
G1 X135.551 Y98.921 E16.8995
G1 X135.656 Y99.109 E16.90809
G1 X135.843 Y99.452 E16.92369
G1 X136.017 Y99.786 E16.93872
G1 X136.131 Y100.014 E16.94889
G1 X136.261 Y100.285 E16.96089
G1 X136.391 Y100.567 E16.97328
G1 X136.627 Y101.1 E16.99655
G1 X136.838 Y101.614 E17.01872
G1 X137.034 Y102.131 E17.04079
G1 X137.227 Y102.666 E17.06349
G1 X137.397 Y103.183 E17.08521
G1 X137.522 Y103.6 E17.10259
G1 X137.607 Y103.898 E17.11495
G1 X137.756 Y104.456 E17.13801
G1 X137.854 Y104.853 E17.15433
