;FLAVOR:Marlin
;TIME:617
;Filament used: 0.329269m
;Layer height: 0.24
;MINX:56.348
;MINY:47.281
;MINZ:0.24
;MAXX:180.238
;MAXY:177.148
;MAXZ:9.432
;Generated with Cura_SteamEngine 4.13.1
M82 ;absolute extrusion mode
START_PRINT BED_TEMP=60 EXTRUDER_TEMP=205
G92 E0
G92 E0
G1 F1500 E-6
;LAYER_COUNT:18
;LAYER:0
M107
G1 F300 Z0.44
G0 F6000 X156.982 Y98.295 Z0.44
;TYPE:SKIRT
G1 F300 Z0.24
G1 F1500 E0
G1 F1200 X157.486 Y97.505 E0.0374
G1 X158.056 Y96.76 E0.07484
G1 X158.688 Y96.066 E0.1123
G1 X159.376 Y95.429 E0.14973
G1 X160.116 Y94.853 E0.18715
G1 X160.902 Y94.341 E0.22459
G1 X161.729 Y93.899 E0.26202
G1 X162.591 Y93.529 E0.29946
G1 X163.481 Y93.233 E0.33689
G1 X164.393 Y93.015 E0.37432
G1 X165.32 Y92.874 E0.41174
G1 X166.191 Y92.815 E0.44659
G1 X166.512 Y92.806 E0.4594
G1 X166.82 Y92.802 E0.4717
G1 X168.531 Y92.802 E0.53999
G1 X169.387 Y92.813 E0.57415
G1 X170.323 Y92.867 E0.61157
G1 X171.251 Y92.999 E0.64899
G1 X172.165 Y93.211 E0.68643
G1 X173.057 Y93.5 E0.72386
G1 X173.922 Y93.863 E0.7613
G1 X174.752 Y94.299 E0.79872
G1 X175.543 Y94.804 E0.83617
G1 X176.287 Y95.375 E0.87361
G1 X176.98 Y96.007 E0.91104
G1 X177.617 Y96.695 E0.94846
G1 X178.192 Y97.436 E0.9859
G1 X178.703 Y98.222 E1.02331
G1 X179.145 Y99.05 E1.06078
G1 X179.514 Y99.912 E1.0982
G1 X179.809 Y100.802 E1.13562
G1 X180.027 Y101.714 E1.17305
G1 X180.167 Y102.642 E1.2105
G1 X180.225 Y103.503 E1.24495
G1 X180.234 Y103.823 E1.25772
G1 X180.238 Y104.132 E1.27006
G1 X180.237 Y116.202 E1.7518
G1 X180.228 Y116.929 E1.78082
G1 X180.177 Y117.866 E1.81827
G1 X180.045 Y118.794 E1.85568
G1 X179.836 Y119.708 E1.8931
G1 X179.549 Y120.601 E1.93054
G1 X179.187 Y121.467 E1.968
G1 X178.753 Y122.298 E2.00542
G1 X178.249 Y123.089 E2.04285
G1 X177.68 Y123.834 E2.08027
G1 X177.049 Y124.529 E2.11773
G1 X176.362 Y125.167 E2.15515
G1 X175.623 Y125.744 E2.19257
G1 X174.837 Y126.256 E2.23001
G1 X174.011 Y126.699 E2.26742
G1 X173.149 Y127.071 E2.3049
G1 X172.26 Y127.367 E2.34229
G1 X171.348 Y127.587 E2.37974
G1 X170.421 Y127.728 E2.41716
G1 X169.537 Y127.789 E2.45253
G1 X169.216 Y127.798 E2.46534
G1 X168.908 Y127.802 E2.47764
G1 X167.055 Y127.801 E2.55159
G1 X166.357 Y127.792 E2.57946
G1 X165.421 Y127.74 E2.61687
G1 X164.492 Y127.608 E2.65432
G1 X163.578 Y127.398 E2.69175
G1 X162.685 Y127.111 E2.72919
G1 X161.82 Y126.748 E2.76663
G1 X160.989 Y126.314 E2.80405
G1 X160.198 Y125.81 E2.84148
G1 X159.453 Y125.24 E2.87892
G1 X158.759 Y124.609 E2.91636
G1 X158.122 Y123.922 E2.95375
G1 X157.545 Y123.182 E2.9912
G1 X157.033 Y122.396 E3.02864
G1 X156.59 Y121.569 E3.06609
G1 X156.219 Y120.708 E3.10351
G1 X155.923 Y119.818 E3.14094
G1 X155.704 Y118.906 E3.17838
G1 X155.563 Y117.979 E3.2158
G1 X155.503 Y117.09 E3.25136
G1 X155.494 Y116.757 E3.26466
G1 X155.49 Y116.46 E3.27651
G1 X155.491 Y104.327 E3.76077
G1 X155.5 Y103.662 E3.78731
G1 X155.553 Y102.726 E3.82473
G1 X155.685 Y101.797 E3.86218
G1 X155.896 Y100.883 E3.89962
G1 X156.184 Y99.991 E3.93703
G1 X156.547 Y99.126 E3.97447
G1 X156.982 Y98.295 E4.01191
G0 F6000 X157.379 Y98.408
G1 F1200 X157.882 Y97.637 E4.04865
G1 X158.451 Y96.913 E4.0854
G1 X159.079 Y96.241 E4.12211
G1 X159.764 Y95.625 E4.15888
G1 X160.5 Y95.072 E4.19562
G1 X161.281 Y94.584 E4.23238
G1 X162.101 Y94.166 E4.26911
G1 X162.955 Y93.821 E4.30588
G1 X163.835 Y93.551 E4.34261
G1 X164.735 Y93.359 E4.37934
G1 X165.649 Y93.245 E4.41611
G1 X166.202 Y93.215 E4.43821
G1 X166.523 Y93.206 E4.45103
G1 X166.82 Y93.202 E4.46288
G1 X168.531 Y93.202 E4.53117
G1 X169.381 Y93.213 E4.5651
G1 X170.3 Y93.266 E4.60184
G1 X171.211 Y93.399 E4.63859
G1 X172.107 Y93.61 E4.67533
G1 X172.981 Y93.898 E4.71205
G1 X173.828 Y94.261 E4.74883
G1 X174.639 Y94.696 E4.78556
G1 X175.409 Y95.2 E4.82229
G1 X176.133 Y95.769 E4.85905
G1 X176.805 Y96.399 E4.89581
G1 X177.42 Y97.084 E4.93255
G1 X177.973 Y97.82 E4.9693
G1 X178.46 Y98.601 E5.00603
G1 X178.877 Y99.422 E5.04278
G1 X179.222 Y100.276 E5.07954
G1 X179.491 Y101.156 E5.11627
G1 X179.683 Y102.057 E5.15304
G1 X179.796 Y102.97 E5.18976
G1 X179.825 Y103.514 E5.2115
G1 X179.834 Y103.834 E5.22428
G1 X179.838 Y104.132 E5.23617
G1 X179.837 Y116.197 E5.71771
G1 X179.828 Y116.924 E5.74673
G1 X179.777 Y117.843 E5.78347
G1 X179.646 Y118.755 E5.82024
G1 X179.436 Y119.651 E5.85697
G1 X179.15 Y120.526 E5.89371
G1 X178.789 Y121.373 E5.93046
G1 X178.355 Y122.185 E5.96721
G1 X177.853 Y122.957 E6.00396
G1 X177.285 Y123.682 E6.04072
G1 X176.657 Y124.355 E6.07746
G1 X175.973 Y124.971 E6.1142
G1 X175.238 Y125.525 E6.15093
G1 X174.458 Y126.014 E6.18768
G1 X173.638 Y126.433 E6.22443
G1 X172.785 Y126.779 E6.26117
G1 X171.905 Y127.05 E6.29792
G1 X171.005 Y127.243 E6.33466
G1 X170.091 Y127.358 E6.37143
G1 X169.526 Y127.389 E6.39401
G1 X169.205 Y127.398 E6.40683
G1 X168.908 Y127.402 E6.41868
G1 X167.06 Y127.401 E6.49244
G1 X166.362 Y127.392 E6.5203
G1 X165.443 Y127.34 E6.55704
G1 X164.532 Y127.209 E6.59377
G1 X163.636 Y126.999 E6.6305
G1 X162.761 Y126.712 E6.66726
G1 X161.914 Y126.35 E6.70402
G1 X161.102 Y125.916 E6.74077
G1 X160.331 Y125.414 E6.77749
G1 X159.606 Y124.846 E6.81425
G1 X158.933 Y124.217 E6.85101
G1 X158.318 Y123.533 E6.88772
G1 X157.764 Y122.798 E6.92446
G1 X157.276 Y122.017 E6.96122
G1 X156.857 Y121.197 E6.99797
G1 X156.511 Y120.344 E7.03471
G1 X156.241 Y119.464 E7.07145
G1 X156.048 Y118.563 E7.10822
G1 X155.934 Y117.65 E7.14495
G1 X155.903 Y117.079 E7.16777
G1 X155.894 Y116.746 E7.18107
G1 X155.89 Y116.46 E7.19248
G1 X155.891 Y104.333 E7.6765
G1 X155.9 Y103.668 E7.70304
G1 X155.952 Y102.748 E7.73982
G1 X156.084 Y101.837 E7.77656
G1 X156.295 Y100.941 E7.8133
G1 X156.582 Y100.066 E7.85005
G1 X156.945 Y99.22 E7.88679
G1 X157.379 Y98.408 E7.92354
G0 F6000 X157.776 Y98.524
G1 F1200 X158.278 Y97.773 E7.9596
G1 X158.845 Y97.069 E7.99567
G1 X159.471 Y96.419 E8.03169
G1 X160.152 Y95.826 E8.06773
G1 X160.884 Y95.296 E8.1038
G1 X161.659 Y94.833 E8.13983
G1 X162.472 Y94.44 E8.17587
G1 X163.317 Y94.12 E8.21194
G1 X164.186 Y93.877 E8.24795
G1 X165.074 Y93.711 E8.28401
G1 X166.213 Y93.615 E8.32963
G1 X166.534 Y93.606 E8.34245
G1 X166.82 Y93.602 E8.35386
G1 X168.531 Y93.602 E8.42215
G1 X169.375 Y93.613 E8.45584
G1 X170.277 Y93.666 E8.4919
G1 X171.17 Y93.798 E8.52793
G1 X172.048 Y94.009 E8.56397
G1 X172.904 Y94.297 E8.60002
G1 X173.731 Y94.659 E8.63605
G1 X174.523 Y95.094 E8.67211
G1 X175.274 Y95.596 E8.70817
G1 X175.977 Y96.163 E8.74422
G1 X176.627 Y96.79 E8.78026
G1 X177.219 Y97.472 E8.81631
G1 X177.749 Y98.203 E8.85234
G1 X178.211 Y98.979 E8.88839
G1 X178.604 Y99.792 E8.92443
G1 X178.922 Y100.637 E8.96046
G1 X179.165 Y101.507 E8.99652
G1 X179.33 Y102.395 E9.03257
G1 X179.425 Y103.525 E9.07783
G1 X179.434 Y103.845 E9.0906
G1 X179.438 Y104.132 E9.10206
G1 X179.437 Y116.192 E9.5834
G1 X179.428 Y116.919 E9.61242
G1 X179.377 Y117.821 E9.64848
G1 X179.246 Y118.715 E9.68454
G1 X179.037 Y119.593 E9.72056
G1 X178.751 Y120.45 E9.75662
G1 X178.39 Y121.278 E9.79267
G1 X177.958 Y122.07 E9.82868
G1 X177.457 Y122.822 E9.86474
G1 X176.891 Y123.526 E9.9008
G1 X176.266 Y124.177 E9.93681
G1 X175.585 Y124.771 E9.97288
G1 X174.854 Y125.302 E10.00894
G1 X174.08 Y125.766 E10.04496
G1 X173.267 Y126.16 E10.08102
G1 X172.423 Y126.48 E10.11704
G1 X171.553 Y126.725 E10.15312
G1 X170.666 Y126.891 E10.18914
G1 X169.515 Y126.989 E10.23524
G1 X169.194 Y126.998 E10.24806
G1 X168.908 Y127.002 E10.25947
G1 X167.065 Y127.001 E10.33303
G1 X166.367 Y126.992 E10.36089
G1 X165.466 Y126.941 E10.39691
G1 X164.572 Y126.809 E10.43298
G1 X163.694 Y126.6 E10.469
G1 X162.837 Y126.313 E10.50507
G1 X162.01 Y125.952 E10.54109
G1 X161.217 Y125.519 E10.57715
G1 X160.466 Y125.018 E10.61318
G1 X159.762 Y124.452 E10.64923
G1 X159.111 Y123.826 E10.68528
G1 X158.518 Y123.145 E10.72132
G1 X157.988 Y122.414 E10.75736
G1 X157.524 Y121.639 E10.79341
G1 X157.13 Y120.826 E10.82947
G1 X156.81 Y119.982 E10.86549
G1 X156.566 Y119.112 E10.90156
G1 X156.4 Y118.224 E10.93761
G1 X156.303 Y117.069 E10.98387
G1 X156.294 Y116.736 E10.99717
G1 X156.29 Y116.46 E11.00819
G1 X156.291 Y104.338 E11.492
G1 X156.3 Y103.673 E11.51855
G1 X156.352 Y102.771 E11.55461
G1 X156.484 Y101.878 E11.59064
G1 X156.694 Y101 E11.62667
G1 X156.981 Y100.143 E11.66274
G1 X157.343 Y99.316 E11.69877
G1 X157.776 Y98.524 E11.7348
G1 F1500 E5.7348
G1 F300 Z0.44
;MESH:Strong_Case_Peg.3mf
G0 F6000 X168.638 Y116.202 Z0.44
;TYPE:WALL-INNER
G1 F300 Z0.24
G1 F1500 E11.7348
G1 F1200 X167.09 Y116.202 E11.79658
G1 X167.09 Y104.402 E12.26754
G1 X168.638 Y104.402 E12.32933
G1 X168.638 Y116.202 E12.80029
G0 F6000 X169.038 Y116.602
;TYPE:WALL-OUTER
G1 F1200 X166.69 Y116.602 E12.89401
G1 X166.69 Y104.002 E13.3969
G1 X169.038 Y104.002 E13.49061
G1 X169.038 Y116.602 E13.99351
G0 F6000 X168.248 Y115.812
;TYPE:SKIN
G1 F1200 X167.48 Y115.812 E14.02416
G1 X167.48 Y104.792 E14.46399
G1 X168.248 Y104.792 E14.49464
G1 X168.248 Y115.812 E14.93447
G1 F1500 E8.93447
G1 F300 Z0.44
G0 F6000 X168.087 Y105.295 Z0.44
G1 F300 Z0.24
G1 F1500 E14.93447
G1 F1200 X167.743 Y104.952 E14.95386
G0 F6000 X167.639 Y105.414
G1 F1200 X168.087 Y105.861 E14.97912
G0 F6000 X167.639 Y105.979
G1 F1200 X168.087 Y106.427 E15.00441
G0 F6000 X167.639 Y106.545
G1 F1200 X168.087 Y106.993 E15.0297
G0 F6000 X167.639 Y107.111
G1 F1200 X168.087 Y107.558 E15.05495
G0 F6000 X167.639 Y107.676
G1 F1200 X168.087 Y108.124 E15.08024
G0 F6000 X167.639 Y108.242
G1 F1200 X168.087 Y108.69 E15.10553
G0 F6000 X167.639 Y108.808
G1 F1200 X168.087 Y109.255 E15.13079
G0 F6000 X167.639 Y109.373
G1 F1200 X168.087 Y109.821 E15.15607
G0 F6000 X167.639 Y109.939
G1 F1200 X168.087 Y110.387 E15.18136
G0 F6000 X167.639 Y110.505
G1 F1200 X168.087 Y110.952 E15.20662
G0 F6000 X167.639 Y111.07
G1 F1200 X168.087 Y111.518 E15.23191
G0 F6000 X167.639 Y111.636
G1 F1200 X168.087 Y112.084 E15.25719
G0 F6000 X167.639 Y112.202
G1 F1200 X168.087 Y112.649 E15.28245
G0 F6000 X167.639 Y112.767
G1 F1200 X168.087 Y113.215 E15.30774
G0 F6000 X167.639 Y113.333
G1 F1200 X168.087 Y113.781 E15.33303
G0 F6000 X167.639 Y113.899
G1 F1200 X168.087 Y114.346 E15.35829
G0 F6000 X167.639 Y114.465
G1 F1200 X168.087 Y114.912 E15.38355
G0 F6000 X167.639 Y115.03
M104 S205
G1 F1200 X168.087 Y115.478 E15.40883
;MESH:NONMESH
G0 F300 X168.087 Y115.478 Z0.48
G0 F6000 X168.924 Y116.202
;TIME_ELAPSED:26.990051
;LAYER:1
M106 S68
;TYPE:WALL-INNER
;MESH:Strong_Case_Peg.3mf
G1 F690.9 X166.804 Y116.202 E15.49345
G1 X166.804 Y104.402 E15.96441
G1 X168.924 Y104.402 E16.04902
G1 X168.924 Y116.202 E16.51999
G0 F10500 X169.324 Y116.602
;TYPE:WALL-OUTER
G1 F690.9 X166.404 Y116.602 E16.63653
G1 X166.404 Y104.002 E17.13942
G1 X169.324 Y104.002 E17.25597
G1 X169.324 Y116.602 E17.75886
G0 F10500 X168.534 Y115.812
;TYPE:SKIN
G1 F690.9 X167.194 Y115.812 E17.81234
G1 X167.194 Y104.792 E18.25218
G1 X168.534 Y104.792 E18.30566
G1 X168.534 Y115.812 E18.74549
G1 F1500 E12.74549
G1 F300 Z0.68
G0 F10500 X167.353 Y105.307 Z0.68
G1 F300 Z0.48
G1 F1500 E18.74549
G1 F690.9 X167.708 Y104.951 E18.76556
G0 F10500 X168.274 Y104.951
G1 F690.9 X167.353 Y105.872 E18.81754
G0 F10500 X167.353 Y106.438
G1 F690.9 X168.373 Y105.418 E18.87511
G0 F10500 X168.373 Y105.983
G1 F690.9 X167.353 Y107.004 E18.93272
G0 F10500 X167.353 Y107.57
G1 F690.9 X168.373 Y106.549 E18.99032
G0 F10500 X168.373 Y107.115
G1 F690.9 X167.353 Y108.135 E19.04789
G0 F10500 X167.353 Y108.701
G1 F690.9 X168.373 Y107.681 E19.10546
G0 F10500 X168.373 Y108.246
G1 F690.9 X167.353 Y109.267 E19.16306
G0 F10500 X167.353 Y109.832
G1 F690.9 X168.373 Y108.812 E19.22064
G0 F10500 X168.373 Y109.378
G1 F690.9 X167.353 Y110.398 E19.27821
G0 F10500 X167.353 Y110.964
G1 F690.9 X168.373 Y109.943 E19.33581
G0 F10500 X168.373 Y110.509
G1 F690.9 X167.353 Y111.529 E19.39339
G0 F10500 X167.353 Y112.095
G1 F690.9 X168.373 Y111.075 E19.45096
G0 F10500 X168.373 Y111.64
G1 F690.9 X167.353 Y112.661 E19.50856
G0 F10500 X167.353 Y113.226
G1 F690.9 X168.373 Y112.206 E19.56613
G0 F10500 X168.373 Y112.772
G1 F690.9 X167.353 Y113.792 E19.62371
G0 F10500 X167.353 Y114.358
G1 F690.9 X168.373 Y113.337 E19.68131
G0 F10500 X168.373 Y113.903
G1 F690.9 X167.353 Y114.923 E19.73888
G0 F10500 X167.353 Y115.489
G1 F690.9 X168.373 Y114.469 E19.79645
G0 F10500 X168.373 Y115.034
G1 F690.9 X167.756 Y115.652 E19.83131
;MESH:NONMESH
G0 F300 X167.756 Y115.652 Z0.72
G0 F10500 X169.136 Y116.202
;TIME_ELAPSED:38.835203
;LAYER:2
M106 S136
;TYPE:WALL-INNER
;MESH:Strong_Case_Peg.3mf
G1 F775.1 X166.591 Y116.202 E19.93289
G1 X166.591 Y104.402 E20.40385
G1 X169.136 Y104.402 E20.50543
G1 X169.136 Y116.202 E20.97639
G0 F15000 X169.536 Y116.602
;TYPE:WALL-OUTER
G1 F775.1 X166.191 Y116.602 E21.10989
G1 X166.191 Y104.002 E21.61279
G1 X169.536 Y104.002 E21.74629
G1 X169.536 Y116.602 E22.24919
G0 F15000 X168.746 Y115.812
;TYPE:SKIN
G1 F775.1 X166.981 Y115.812 E22.31963
G1 X166.981 Y104.792 E22.75946
G1 X168.746 Y104.792 E22.82991
G1 X168.746 Y115.812 E23.26974
G1 F1500 E17.26974
G1 F300 Z0.92
G0 F15000 X168.585 Y105.228 Z0.92
G1 F300 Z0.72
G1 F1500 E23.26974
G1 F775.1 X168.308 Y104.951 E23.28538
G0 F15000 X167.742 Y104.951
G1 F775.1 X168.585 Y105.794 E23.33296
G0 F15000 X168.585 Y106.36
G1 F775.1 X167.177 Y104.951 E23.41246
G0 F15000 X167.14 Y105.48
G1 F775.1 X168.585 Y106.925 E23.49402
G0 F15000 X168.585 Y107.491
G1 F775.1 X167.14 Y106.046 E23.57559
G0 F15000 X167.14 Y106.611
G1 F775.1 X168.585 Y108.057 E23.65718
G0 F15000 X168.585 Y108.622
G1 F775.1 X167.14 Y107.177 E23.73874
G0 F15000 X167.14 Y107.743
G1 F775.1 X168.585 Y109.188 E23.8203
G0 F15000 X168.585 Y109.754
G1 F775.1 X167.14 Y108.308 E23.90189
G0 F15000 X167.14 Y108.874
G1 F775.1 X168.585 Y110.319 E23.98345
G0 F15000 X168.585 Y110.885
G1 F775.1 X167.14 Y109.44 E24.06501
G0 F15000 X167.14 Y110.006
G1 F775.1 X168.585 Y111.451 E24.14658
G0 F15000 X168.585 Y112.017
G1 F775.1 X167.14 Y110.571 E24.22817
G0 F15000 X167.14 Y111.137
G1 F775.1 X168.585 Y112.582 E24.30973
G0 F15000 X168.585 Y113.148
G1 F775.1 X167.14 Y111.703 E24.39129
G0 F15000 X167.14 Y112.268
G1 F775.1 X168.585 Y113.714 E24.47288
G0 F15000 X168.585 Y114.279
G1 F775.1 X167.14 Y112.834 E24.55444
G0 F15000 X167.14 Y113.4
G1 F775.1 X168.585 Y114.845 E24.636
G0 F15000 X168.585 Y115.411
G1 F775.1 X167.14 Y113.965 E24.71759
G0 F15000 X167.14 Y114.531
G1 F775.1 X168.26 Y115.651 E24.78081
G0 F15000 X167.694 Y115.651
G1 F775.1 X167.14 Y115.097 E24.81208
G1 F1500 E18.81208
G1 F300 Z0.92
;MESH:NONMESH
G0 F15000 X169.302 Y116.202 Z0.92
;TIME_ELAPSED:51.079800
;LAYER:3
M106 S204
;MESH:Strong_Case_Peg.3mf
G0 X169.302 Y116.202 Z1.16
;TYPE:WALL-INNER
G1 F300 Z0.96
G1 F1500 E24.81208
G1 F843.2 X166.426 Y116.202 E24.92687
G1 X166.426 Y104.402 E25.39783
G1 X169.302 Y104.402 E25.51262
G1 X169.302 Y116.202 E25.98358
G0 F15000 X169.702 Y116.602
;TYPE:WALL-OUTER
G1 F843.2 X166.026 Y116.602 E26.1303
G1 X166.026 Y104.002 E26.63319
G1 X169.702 Y104.002 E26.77991
G1 X169.702 Y116.602 E27.28281
G0 F15000 X168.912 Y115.812
;TYPE:SKIN
G1 F843.2 X166.816 Y115.812 E27.36646
G1 X166.816 Y104.792 E27.80629
G1 X168.912 Y104.792 E27.88995
G1 X168.912 Y115.812 E28.32978
G1 F1500 E22.32978
G1 F300 Z1.16
G0 F15000 X166.975 Y105.119 Z1.16
G1 F300 Z0.96
G1 F1500 E28.32978
G1 F843.2 X167.143 Y104.951 E28.33926
G0 F15000 X167.708 Y104.951
G1 F843.2 X166.975 Y105.684 E28.38064
G0 F15000 X166.975 Y106.25
G1 F843.2 X168.274 Y104.951 E28.45396
G0 F15000 X168.751 Y105.04
G1 F843.2 X166.975 Y106.816 E28.5542
G0 F15000 X166.975 Y107.381
G1 F843.2 X168.751 Y105.606 E28.65442
G0 F15000 X168.751 Y106.172
G1 F843.2 X166.975 Y107.947 E28.75464
G0 F15000 X166.975 Y108.513
G1 F843.2 X168.751 Y106.737 E28.85488
G0 F15000 X168.751 Y107.303
G1 F843.2 X166.975 Y109.078 E28.9551
G0 F15000 X166.975 Y109.644
G1 F843.2 X168.751 Y107.869 E29.05532
G0 F15000 X168.751 Y108.434
G1 F843.2 X166.975 Y110.21 E29.15556
G0 F15000 X166.975 Y110.776
G1 F843.2 X168.751 Y109 E29.25581
G0 F15000 X168.751 Y109.566
G1 F843.2 X166.975 Y111.341 E29.35602
G0 F15000 X166.975 Y111.907
G1 F843.2 X168.751 Y110.131 E29.45627
G0 F15000 X168.751 Y110.697
G1 F843.2 X166.975 Y112.473 E29.55651
G0 F15000 X166.975 Y113.038
G1 F843.2 X168.751 Y111.263 E29.65673
G0 F15000 X168.751 Y111.828
G1 F843.2 X166.975 Y113.604 E29.75698
G0 F15000 X166.975 Y114.17
G1 F843.2 X168.751 Y112.394 E29.85722
