;FLAVOR:Marlin
;TIME:1360
;Filament used: 1.05018m
;Layer height: 0.24
;MINX:89
;MINY:89
;MINZ:0.24
;MAXX:131
;MAXY:131
;MAXZ:20.12
;Generated with Cura_SteamEngine 4.13.1
M82 ;absolute extrusion mode
START_PRINT BED_TEMP=60 EXTRUDER_TEMP=205
G92 E0
G92 E0
G1 F1500 E-6
;LAYER_COUNT:83
;LAYER:0
M107
G1 F300 Z0.44
G0 F6000 X92.198 Y92.264 Z0.44
;TYPE:SKIRT
G1 F300 Z0.24
G1 F1500 E0
G1 F1200 X92.886 Y91.627 E0.03742
G1 X93.626 Y91.051 E0.07485
G1 X94.412 Y90.539 E0.11229
G1 X95.239 Y90.097 E0.14972
G1 X96.101 Y89.727 E0.18715
G1 X96.991 Y89.431 E0.22459
G1 X97.903 Y89.213 E0.26202
G1 X98.83 Y89.072 E0.29944
G1 X99.701 Y89.013 E0.33428
G1 X100.022 Y89.004 E0.3471
G1 X100.33 Y89 E0.35939
G1 X119.293 Y89 E1.11625
G1 X120.149 Y89.011 E1.15042
G1 X121.085 Y89.065 E1.18784
G1 X122.013 Y89.197 E1.22525
G1 X122.927 Y89.409 E1.26269
G1 X123.819 Y89.698 E1.30012
G1 X124.684 Y90.061 E1.33756
G1 X125.514 Y90.497 E1.37498
G1 X126.305 Y91.002 E1.41243
G1 X127.049 Y91.573 E1.44987
G1 X127.742 Y92.205 E1.4873
G1 X128.379 Y92.893 E1.52472
G1 X128.954 Y93.634 E1.56216
G1 X129.465 Y94.42 E1.59958
G1 X129.907 Y95.248 E1.63704
G1 X130.276 Y96.11 E1.67446
G1 X130.571 Y97 E1.71188
G1 X130.789 Y97.912 E1.74931
G1 X130.929 Y98.84 E1.78677
G1 X130.987 Y99.701 E1.82121
G1 X130.996 Y100.021 E1.83398
G1 X131 Y100.33 E1.84632
G1 X130.999 Y119.4 E2.60744
G1 X130.99 Y120.127 E2.63646
G1 X130.939 Y121.064 E2.67391
G1 X130.807 Y121.992 E2.71133
G1 X130.598 Y122.906 E2.74875
G1 X130.311 Y123.799 E2.78618
G1 X129.949 Y124.665 E2.82365
G1 X129.515 Y125.496 E2.86106
G1 X129.011 Y126.287 E2.8985
G1 X128.442 Y127.032 E2.93591
G1 X127.811 Y127.727 E2.97338
G1 X127.124 Y128.365 E3.0108
G1 X126.385 Y128.942 E3.04822
G1 X125.599 Y129.454 E3.08566
G1 X124.773 Y129.897 E3.12307
G1 X123.911 Y130.269 E3.16054
G1 X123.022 Y130.565 E3.19794
G1 X122.11 Y130.785 E3.23538
G1 X121.183 Y130.926 E3.27281
G1 X120.299 Y130.987 E3.30817
G1 X119.978 Y130.996 E3.32099
G1 X119.67 Y131 E3.33328
G1 X100.565 Y130.999 E4.09581
G1 X99.867 Y130.99 E4.12367
G1 X98.931 Y130.938 E4.16108
G1 X98.002 Y130.806 E4.19853
G1 X97.088 Y130.596 E4.23596
G1 X96.195 Y130.309 E4.2734
G1 X95.33 Y129.946 E4.31084
G1 X94.499 Y129.512 E4.34826
G1 X93.708 Y129.008 E4.38569
G1 X92.963 Y128.438 E4.42313
G1 X92.269 Y127.807 E4.46057
G1 X91.632 Y127.12 E4.49796
G1 X91.055 Y126.38 E4.53541
G1 X90.543 Y125.594 E4.57285
G1 X90.1 Y124.767 E4.6103
G1 X89.729 Y123.906 E4.64772
G1 X89.433 Y123.016 E4.68515
G1 X89.214 Y122.104 E4.72259
G1 X89.073 Y121.177 E4.76001
G1 X89.013 Y120.288 E4.79557
G1 X89.004 Y119.955 E4.80887
G1 X89 Y119.658 E4.82072
G1 X89.001 Y100.525 E5.58436
G1 X89.01 Y99.86 E5.61091
G1 X89.063 Y98.924 E5.64833
G1 X89.195 Y97.995 E5.68578
G1 X89.406 Y97.081 E5.72322
G1 X89.694 Y96.189 E5.76063
G1 X90.057 Y95.324 E5.79807
G1 X90.492 Y94.493 E5.8355
G1 X90.996 Y93.703 E5.8729
G1 X91.566 Y92.958 E5.91034
G1 X91.75 Y92.756 E5.92125
G0 F1080 X92.198 Y92.264
G0 F6000 X92.589 Y92.439
G1 F1200 X93.274 Y91.823 E5.95802
G1 X94.01 Y91.27 E5.99476
G1 X94.791 Y90.782 E6.03152
G1 X95.611 Y90.364 E6.06825
G1 X96.465 Y90.019 E6.10501
G1 X97.345 Y89.749 E6.14175
G1 X98.245 Y89.557 E6.17848
G1 X99.159 Y89.443 E6.21524
G1 X99.712 Y89.413 E6.23735
G1 X100.033 Y89.404 E6.25016
G1 X100.33 Y89.4 E6.26202
G1 X119.293 Y89.4 E7.01887
G1 X120.143 Y89.411 E7.0528
G1 X121.062 Y89.464 E7.08954
G1 X121.973 Y89.597 E7.12629
G1 X122.869 Y89.808 E7.16303
G1 X123.743 Y90.096 E7.19976
G1 X124.59 Y90.459 E7.23653
G1 X125.401 Y90.894 E7.27327
G1 X126.171 Y91.398 E7.31
G1 X126.895 Y91.967 E7.34675
G1 X127.567 Y92.597 E7.38351
G1 X128.182 Y93.282 E7.42026
G1 X128.735 Y94.018 E7.457
G1 X129.222 Y94.799 E7.49373
G1 X129.639 Y95.62 E7.53049
G1 X129.984 Y96.474 E7.56725
G1 X130.253 Y97.354 E7.60397
G1 X130.445 Y98.255 E7.64074
G1 X130.558 Y99.168 E7.67746
G1 X130.587 Y99.712 E7.6992
G1 X130.596 Y100.032 E7.71198
G1 X130.6 Y100.33 E7.72387
G1 X130.599 Y119.395 E8.4848
G1 X130.59 Y120.122 E8.51382
G1 X130.539 Y121.041 E8.55055
G1 X130.408 Y121.953 E8.58733
G1 X130.198 Y122.849 E8.62406
G1 X129.912 Y123.724 E8.6608
G1 X129.551 Y124.571 E8.69755
G1 X129.117 Y125.383 E8.73429
G1 X128.615 Y126.155 E8.77105
G1 X128.047 Y126.88 E8.80781
G1 X127.419 Y127.553 E8.84455
G1 X126.735 Y128.169 E8.88129
G1 X126 Y128.723 E8.91802
G1 X125.22 Y129.212 E8.95476
G1 X124.4 Y129.631 E8.99152
G1 X123.547 Y129.977 E9.02826
G1 X122.667 Y130.248 E9.06501
G1 X121.767 Y130.441 E9.10174
G1 X120.853 Y130.556 E9.13851
G1 X120.288 Y130.587 E9.1611
G1 X119.967 Y130.596 E9.17391
G1 X119.67 Y130.6 E9.18577
G1 X100.57 Y130.599 E9.94809
G1 X99.872 Y130.59 E9.97595
G1 X98.953 Y130.538 E10.01269
G1 X98.042 Y130.407 E10.04942
G1 X97.146 Y130.197 E10.08615
G1 X96.271 Y129.91 E10.12291
G1 X95.424 Y129.548 E10.15967
G1 X94.612 Y129.114 E10.19642
G1 X93.841 Y128.612 E10.23314
G1 X93.116 Y128.044 E10.2699
G1 X92.443 Y127.415 E10.30666
G1 X91.828 Y126.731 E10.34338
G1 X91.274 Y125.996 E10.38011
G1 X90.786 Y125.215 E10.41687
G1 X90.367 Y124.395 E10.45362
G1 X90.021 Y123.542 E10.49036
G1 X89.751 Y122.662 E10.5271
G1 X89.558 Y121.761 E10.56388
G1 X89.444 Y120.848 E10.6006
G1 X89.413 Y120.277 E10.62342
G1 X89.404 Y119.944 E10.63672
G1 X89.4 Y119.658 E10.64813
G1 X89.401 Y100.531 E11.41153
G1 X89.41 Y99.866 E11.43808
G1 X89.462 Y98.946 E11.47486
G1 X89.594 Y98.035 E11.51159
G1 X89.805 Y97.139 E11.54833
G1 X90.092 Y96.264 E11.58509
G1 X90.455 Y95.418 E11.62183
G1 X90.889 Y94.606 E11.65858
G1 X91.392 Y93.835 E11.69532
G1 X91.961 Y93.111 E11.73207
G1 X92.135 Y92.925 E11.74224
G0 F1080 X92.589 Y92.439
G0 F6000 X92.981 Y92.617
G1 F1200 X93.662 Y92.024 E11.77828
G1 X94.394 Y91.494 E11.81435
G1 X95.169 Y91.031 E11.85038
G1 X95.982 Y90.638 E11.88642
G1 X96.827 Y90.318 E11.92248
G1 X97.696 Y90.075 E11.9585
G1 X98.584 Y89.909 E11.99455
G1 X99.723 Y89.813 E12.04018
G1 X100.044 Y89.804 E12.05299
G1 X100.33 Y89.8 E12.06441
G1 X119.293 Y89.8 E12.82126
G1 X120.137 Y89.811 E12.85495
G1 X121.039 Y89.864 E12.89101
G1 X121.932 Y89.996 E12.92704
G1 X122.81 Y90.207 E12.96308
G1 X123.666 Y90.495 E12.99913
G1 X124.493 Y90.857 E13.03516
G1 X125.285 Y91.292 E13.07123
G1 X126.036 Y91.794 E13.10728
G1 X126.739 Y92.361 E13.14333
G1 X127.389 Y92.988 E13.17937
G1 X127.981 Y93.67 E13.21542
G1 X128.511 Y94.401 E13.25145
G1 X128.973 Y95.177 E13.2875
G1 X129.366 Y95.99 E13.32354
G1 X129.684 Y96.835 E13.35958
G1 X129.927 Y97.705 E13.39563
G1 X130.092 Y98.593 E13.43168
G1 X130.187 Y99.723 E13.47694
G1 X130.196 Y100.043 E13.48971
G1 X130.2 Y100.33 E13.50117
G1 X130.199 Y119.39 E14.2619
G1 X130.19 Y120.117 E14.29091
G1 X130.139 Y121.019 E14.32697
G1 X130.008 Y121.913 E14.36303
G1 X129.799 Y122.791 E14.39906
G1 X129.513 Y123.648 E14.43512
G1 X129.152 Y124.476 E14.47117
G1 X128.72 Y125.268 E14.50717
G1 X128.219 Y126.02 E14.54324
G1 X127.653 Y126.724 E14.57929
G1 X127.028 Y127.375 E14.61531
G1 X126.347 Y127.969 E14.65138
G1 X125.616 Y128.5 E14.68744
G1 X124.842 Y128.964 E14.72346
G1 X124.029 Y129.358 E14.75952
G1 X123.185 Y129.678 E14.79554
G1 X122.315 Y129.923 E14.83162
G1 X121.428 Y130.089 E14.86763
G1 X120.277 Y130.187 E14.91374
G1 X119.956 Y130.196 E14.92655
G1 X119.67 Y130.2 E14.93797
G1 X100.575 Y130.199 E15.70009
G1 X99.877 Y130.19 E15.72795
G1 X98.976 Y130.139 E15.76397
G1 X98.082 Y130.007 E15.80004
G1 X97.204 Y129.798 E15.83606
G1 X96.347 Y129.511 E15.87213
G1 X95.52 Y129.15 E15.90815
G1 X94.727 Y128.717 E15.94421
G1 X93.976 Y128.216 E15.98024
G1 X93.272 Y127.65 E16.0163
G1 X92.621 Y127.024 E16.05234
G1 X92.028 Y126.343 E16.08838
G1 X91.498 Y125.612 E16.12442
G1 X91.034 Y124.837 E16.16047
G1 X90.64 Y124.024 E16.19653
G1 X90.32 Y123.18 E16.23256
G1 X90.076 Y122.31 E16.26862
G1 X89.91 Y121.422 E16.30468
G1 X89.813 Y120.267 E16.35094
G1 X89.804 Y119.934 E16.36423
G1 X89.8 Y119.658 E16.37525
G1 X89.801 Y100.536 E17.13845
G1 X89.81 Y99.871 E17.16499
G1 X89.862 Y98.969 E17.20105
G1 X89.994 Y98.076 E17.23708
G1 X90.204 Y97.198 E17.27311
G1 X90.491 Y96.341 E17.30919
G1 X90.853 Y95.514 E17.34522
G1 X91.286 Y94.722 E17.38124
G1 X91.788 Y93.971 E17.4173
G1 X92.355 Y93.267 E17.45337
G1 X92.52 Y93.096 E17.46286
G0 F1080 X92.981 Y92.617
G1 F1500 E11.46286
G1 F300 Z0.44
;MESH:CalibrationCube
G0 F6000 X119.4 Y119.4 Z0.44
;TYPE:WALL-INNER
G1 F300 Z0.24
G1 F1500 E17.46286
G1 F1200 X100.6 Y119.4 E18.21321
G1 X100.6 Y100.6 E18.96356
G1 X119.4 Y100.6 E19.7139
G1 X119.4 Y118.735 E20.43771
G0 F1080 X119.4 Y119.4
G0 F6000 X119.8 Y119.8
;TYPE:WALL-OUTER
G1 F1200 X100.2 Y119.8 E21.21999
G1 X100.2 Y100.2 E22.00227
G1 X119.8 Y100.2 E22.78455
G1 X119.8 Y119.135 E23.54028
G0 F1080 X119.8 Y119.8
G0 F6000 X119.01 Y119.01
;TYPE:SKIN
G1 F1200 X100.99 Y119.01 E24.2595
G1 X100.99 Y100.99 E24.97872
G1 X119.01 Y100.99 E25.69794
G1 X119.01 Y118.345 E26.39061
G0 F1080 X119.01 Y119.01
G1 F1500 E20.39061
G1 F300 Z0.44
G0 F6000 X118.849 Y101.313 Z0.44
G1 F300 Z0.24
G1 F1500 E26.39061
G1 F1200 X118.686 Y101.15 E26.39981
G0 F6000 X118.12 Y101.15
G1 F1200 X118.849 Y101.879 E26.44096
G0 F6000 X118.849 Y102.444
G1 F1200 X117.555 Y101.15 E26.514
G0 F6000 X116.989 Y101.15
G1 F1200 X118.849 Y103.01 E26.61898
G0 F6000 X118.849 Y103.576
G1 F1200 X116.423 Y101.15 E26.75592
G0 F6000 X115.858 Y101.15
G1 F1200 X118.849 Y104.141 E26.92474
G0 F6000 X118.849 Y104.707
G1 F1200 X115.292 Y101.15 E27.12552
G0 F6000 X114.726 Y101.15
G1 F1200 X118.849 Y105.273 E27.35824
G0 F6000 X118.849 Y105.839
G1 F1200 X114.16 Y101.15 E27.6229
G0 F6000 X113.595 Y101.15
G1 F1200 X118.849 Y106.404 E27.91946
G0 F6000 X118.849 Y106.97
G1 F1200 X113.029 Y101.15 E28.24797
G0 F6000 X112.463 Y101.15
G1 F1200 X118.849 Y107.536 E28.60842
G0 F6000 X118.849 Y108.101
G1 F1200 X111.898 Y101.15 E29.00077
G0 F6000 X111.332 Y101.15
G1 F1200 X118.849 Y108.667 E29.42506
G0 F6000 X118.849 Y109.233
G1 F1200 X110.766 Y101.15 E29.8813
G0 F6000 X110.201 Y101.15
G1 F1200 X118.849 Y109.798 E30.36943
G0 F6000 X118.849 Y110.364
G1 F1200 X109.635 Y101.15 E30.88951
G0 F6000 X109.069 Y101.15
G1 F1200 X118.849 Y110.93 E31.44153
G0 F6000 X118.849 Y111.495
G1 F1200 X108.504 Y101.15 E32.02545
G0 F6000 X107.938 Y101.15
G1 F1200 X118.849 Y112.061 E32.64131
G0 F6000 X118.849 Y112.627
G1 F1200 X107.372 Y101.15 E33.28912
G0 F6000 X106.807 Y101.15
G1 F1200 X118.849 Y113.192 E33.96883
G0 F6000 X118.849 Y113.758
G1 F1200 X106.241 Y101.15 E34.68048
G0 F6000 X105.675 Y101.15
G1 F1200 X118.849 Y114.324 E35.42407
G0 F6000 X118.849 Y114.89
G1 F1200 X105.11 Y101.15 E36.19959
G0 F6000 X104.544 Y101.15
G1 F1200 X118.849 Y115.455 E37.00703
G0 F6000 X118.849 Y116.021
G1 F1200 X103.978 Y101.15 E37.84641
G0 F6000 X103.412 Y101.15
G1 F1200 X118.849 Y116.587 E38.71774
G0 F6000 X118.849 Y117.152
G1 F1200 X102.847 Y101.15 E39.62096
G0 F6000 X102.281 Y101.15
G1 F1200 X118.849 Y117.718 E40.55613
G0 F6000 X118.849 Y118.284
G1 F1200 X101.715 Y101.15 E41.52325
G0 F6000 X101.149 Y101.149
G1 F1200 X118.849 Y118.849 E42.52231
G0 F6000 X118.283 Y118.849
G1 F1200 X101.149 Y101.715 E43.48943
G0 F6000 X101.149 Y102.28
G1 F1200 X117.717 Y118.849 E44.42463
G0 F6000 X117.152 Y118.849
G1 F1200 X101.149 Y102.846 E45.32791
G0 F6000 X101.149 Y103.412
G1 F1200 X116.586 Y118.849 E46.19924
G0 F6000 X116.02 Y118.849
G1 F1200 X101.149 Y103.977 E47.03865
G0 F6000 X101.149 Y104.543
G1 F1200 X115.454 Y118.849 E47.84611
G0 F6000 X114.889 Y118.849
G1 F1200 X101.149 Y105.109 E48.62166
G0 F6000 X101.149 Y105.674
G1 F1200 X114.323 Y118.849 E49.36528
G0 F6000 X113.757 Y118.849
G1 F1200 X101.149 Y106.24 E50.07696
G0 F6000 X101.149 Y106.806
G1 F1200 X113.192 Y118.849 E50.75672
G0 F6000 X112.626 Y118.849
G1 F1200 X101.149 Y107.372 E51.40453
G0 F6000 X101.149 Y107.937
G1 F1200 X112.06 Y118.849 E52.02042
G0 F6000 X111.495 Y118.849
G1 F1200 X101.149 Y108.503 E52.6044
G0 F6000 X101.149 Y109.069
G1 F1200 X110.929 Y118.849 E53.15642
G0 F6000 X110.363 Y118.849
G1 F1200 X101.149 Y109.634 E53.67653
G0 F6000 X101.149 Y110.2
G1 F1200 X109.798 Y118.849 E54.16472
G0 F6000 X109.232 Y118.849
G1 F1200 X101.149 Y110.766 E54.62096
G0 F6000 X101.149 Y111.331
G1 F1200 X108.666 Y118.849 E55.04528
G0 F6000 X108.101 Y118.849
G1 F1200 X101.149 Y111.897 E55.43768
G0 F6000 X101.149 Y112.463
G1 F1200 X107.535 Y118.849 E55.79813
G0 F6000 X106.969 Y118.849
G1 F1200 X101.149 Y113.028 E56.12666
G0 F6000 X101.149 Y113.594
G1 F1200 X106.404 Y118.849 E56.42328
G0 F6000 X105.838 Y118.849
G1 F1200 X101.149 Y114.16 E56.68795
G0 F6000 X101.149 Y114.725
G1 F1200 X105.272 Y118.849 E56.92069
G0 F6000 X104.706 Y118.849
G1 F1200 X101.149 Y115.291 E57.1215
G0 F6000 X101.149 Y115.857
G1 F1200 X104.141 Y118.849 E57.29038
G0 F6000 X103.575 Y118.849
G1 F1200 X101.149 Y116.423 E57.42731
G0 F6000 X101.149 Y116.988
G1 F1200 X103.009 Y118.849 E57.53233
G0 F6000 X102.444 Y118.849
G1 F1200 X101.149 Y117.554 E57.60542
G0 F6000 X101.149 Y118.12
G1 F1200 X101.878 Y118.849 E57.64657
G0 F6000 X101.312 Y118.849
M104 S205
G1 F1200 X101.149 Y118.685 E57.6558
G1 F1500 E51.6558
G1 F300 Z0.44
;MESH:NONMESH
G0 F6000 X119.4 Y119.4 Z0.44
;TIME_ELAPSED:83.943035
;LAYER:1
M106 S25.5
;MESH:CalibrationCube
G0 F10500 X119.4 Y119.4 Z0.68
;TYPE:WALL-INNER
G1 F300 Z0.48
G1 F1500 E57.6558
G1 F2100 X100.6 Y119.4 E58.40615
G1 X100.6 Y100.6 E59.15649
G1 X119.4 Y100.6 E59.90684
G1 X119.4 Y118.735 E60.63065
G0 F1890 X119.4 Y119.4
G0 F10500 X119.8 Y119.8
;TYPE:WALL-OUTER
G1 F2100 X100.2 Y119.8 E61.41293
G1 X100.2 Y100.2 E62.19521
G1 X119.8 Y100.2 E62.97749
G1 X119.8 Y119.135 E63.73322
G0 F1890 X119.8 Y119.8
G0 F10500 X119.01 Y119.01
;TYPE:SKIN
G1 F2100 X100.99 Y119.01 E64.45244
G1 X100.99 Y100.99 E65.17166
G1 X119.01 Y100.99 E65.89087
G1 X119.01 Y118.345 E66.58355
G0 F1890 X119.01 Y119.01
G0 F10500 X118.738 Y118.849
G1 F2100 X118.849 Y118.738 E66.58981
G0 F10500 X118.849 Y118.173
G1 F2100 X118.172 Y118.849 E66.628
G0 F10500 X117.606 Y118.849
G1 F2100 X118.849 Y117.607 E66.69813
G0 F10500 X118.849 Y117.041
G1 F2100 X117.041 Y118.849 E66.80018
G0 F10500 X116.475 Y118.849
G1 F2100 X118.849 Y116.476 E66.93415
G0 F10500 X118.849 Y115.91
G1 F2100 X115.909 Y118.849 E67.10007
G0 F10500 X115.343 Y118.849
G1 F2100 X118.849 Y115.344 E67.29794
G0 F10500 X118.849 Y114.778
G1 F2100 X114.778 Y118.849 E67.52772
G0 F10500 X114.212 Y118.849
G1 F2100 X118.849 Y114.213 E67.78943
G0 F10500 X118.849 Y113.647
G1 F2100 X113.646 Y118.849 E68.08308
G0 F10500 X113.081 Y118.849
G1 F2100 X118.849 Y113.081 E68.40865
G0 F10500 X118.849 Y112.516
G1 F2100 X112.515 Y118.849 E68.76614
G0 F10500 X111.949 Y118.849
G1 F2100 X118.849 Y111.95 E69.15558
G0 F10500 X118.849 Y111.384
G1 F2100 X111.384 Y118.849 E69.57693
G0 F10500 X110.818 Y118.849
G1 F2100 X118.849 Y110.819 E70.03021
G0 F10500 X118.849 Y110.253
G1 F2100 X110.252 Y118.849 E70.51543
G0 F10500 X109.687 Y118.849
G1 F2100 X118.849 Y109.687 E71.03258
G0 F10500 X118.849 Y109.122
G1 F2100 X109.121 Y118.849 E71.58164
G0 F10500 X108.555 Y118.849
G1 F2100 X118.849 Y108.556 E72.16265
G0 F10500 X118.849 Y107.99
G1 F2100 X107.99 Y118.849 E72.77558
G0 F10500 X107.424 Y118.849
G1 F2100 X118.849 Y107.425 E73.42042
G0 F10500 X118.849 Y106.859
G1 F2100 X106.858 Y118.849 E74.09722
G0 F10500 X106.292 Y118.849
G1 F2100 X118.849 Y106.293 E74.80596
G0 F10500 X118.849 Y105.728
G1 F2100 X105.727 Y118.849 E75.5466
G0 F10500 X105.161 Y118.849
G1 F2100 X118.849 Y105.162 E76.31918
G0 F10500 X118.849 Y104.596
G1 F2100 X104.595 Y118.849 E77.12371
G0 F10500 X104.03 Y118.849
G1 F2100 X118.849 Y104.03 E77.96016
G0 F10500 X118.849 Y103.465
G1 F2100 X103.464 Y118.849 E78.82852
G0 F10500 X102.898 Y118.849
G1 F2100 X118.849 Y102.899 E79.72884
G0 F10500 X118.849 Y102.333
G1 F2100 X102.333 Y118.849 E80.66107
G0 F10500 X101.767 Y118.849
G1 F2100 X118.849 Y101.768 E81.62523
G0 F10500 X118.849 Y101.202
G1 F2100 X101.201 Y118.849 E82.62133
G0 F10500 X101.15 Y118.335
G1 F2100 X118.336 Y101.149 E83.59138
G0 F10500 X117.77 Y101.149
G1 F2100 X101.15 Y117.77 E84.52951
G0 F10500 X101.15 Y117.204
G1 F2100 X117.205 Y101.149 E85.43573
G0 F10500 X116.639 Y101.149
G1 F2100 X101.15 Y116.638 E86.30999
G0 F10500 X101.15 Y116.072
G1 F2100 X116.073 Y101.149 E87.15231
G0 F10500 X115.508 Y101.149
G1 F2100 X101.15 Y115.507 E87.96274
G0 F10500 X101.15 Y114.941
