;FLAVOR:Marlin
;TIME:4255
;Filament used: 4.39706m
;Layer height: 0.2
;MINX:66.015
;MINY:66.033
;MINZ:0.2
;MAXX:153.985
;MAXY:153.967
;MAXZ:50.2
;Generated with Cura_SteamEngine 4.13.1
M82 ;absolute extrusion mode
START_PRINT BED_TEMP=75 EXTRUDER_TEMP=242
G92 E0
G92 E0
G1 F2400 E-6
;LAYER_COUNT:250
;LAYER:0
M107
G1 F300 Z0.4
G0 F6000 X70.528 Y70.883 Z0.4
;TYPE:SKIRT
G1 F300 Z0.2
G1 F2400 E0
G1 F1200 X71.192 Y70.221 E0.03119
G1 X71.975 Y69.569 E0.06507
G1 X72.621 Y69.08 E0.09202
G1 X72.943 Y68.846 E0.10526
G1 X73.144 Y68.705 E0.11343
G1 X73.934 Y68.199 E0.14463
G1 X74.798 Y67.747 E0.17706
G1 X75.503 Y67.417 E0.20295
G1 X75.803 Y67.282 E0.21389
G1 X76.046 Y67.177 E0.2227
G1 X76.922 Y66.842 E0.25389
G1 X77.907 Y66.563 E0.28794
G1 X78.652 Y66.389 E0.31339
G1 X78.989 Y66.316 E0.32486
G1 X79.253 Y66.263 E0.33381
G1 X80.179 Y66.118 E0.36499
G1 X81.193 Y66.05 E0.39879
G1 X81.975 Y66.034 E0.4248
G1 X82.372 Y66.033 E0.43801
G1 X82.628 Y66.037 E0.44652
G1 X83.564 Y66.092 E0.47771
G1 X84.53 Y66.233 E0.51018
G1 X85.327 Y66.386 E0.53717
G1 X85.697 Y66.464 E0.54975
G1 X86.958 Y66.751 E0.59276
G1 X89.535 Y67.3 E0.6804
G1 X91.98 Y67.75 E0.76308
G1 X94.481 Y68.136 E0.84725
G1 X96.987 Y68.452 E0.93126
G1 X99.48 Y68.695 E1.01457
G1 X101.992 Y68.867 E1.09832
G1 X104.514 Y68.969 E1.18227
G1 X106.906 Y69 E1.26183
G1 X113.134 Y69 E1.46898
G1 X115.742 Y68.963 E1.55573
G1 X118.264 Y68.856 E1.63968
G1 X120.758 Y68.679 E1.72284
G1 X123.258 Y68.431 E1.8064
G1 X125.751 Y68.112 E1.89
G1 X128.244 Y67.721 E1.97393
G1 X130.736 Y67.257 E2.05824
G1 X133.543 Y66.649 E2.15376
G1 X134.649 Y66.39 E2.19154
G1 X135.028 Y66.308 E2.20444
G1 X135.297 Y66.255 E2.21356
G1 X136.224 Y66.114 E2.24475
G1 X137.197 Y66.05 E2.27718
G1 X137.974 Y66.034 E2.30303
G1 X138.372 Y66.033 E2.31626
G1 X138.628 Y66.037 E2.32478
G1 X139.564 Y66.092 E2.35597
G1 X140.527 Y66.233 E2.38834
G1 X141.325 Y66.386 E2.41536
G1 X141.701 Y66.465 E2.42814
G1 X141.942 Y66.52 E2.43636
G1 X142.847 Y66.767 E2.46756
G1 X143.781 Y67.113 E2.50069
G1 X144.457 Y67.399 E2.5251
G1 X144.739 Y67.523 E2.53535
G1 X145.015 Y67.649 E2.54544
G1 X145.851 Y68.075 E2.57665
G1 X146.749 Y68.641 E2.61195
G1 X147.397 Y69.094 E2.63825
G1 X147.688 Y69.303 E2.65017
G1 X147.879 Y69.446 E2.6581
G1 X148.605 Y70.04 E2.6893
G1 X149.298 Y70.715 E2.72148
G1 X149.854 Y71.306 E2.74847
G1 X150.159 Y71.644 E2.76361
G1 X150.32 Y71.83 E2.77179
G1 X150.903 Y72.565 E2.80299
G1 X151.414 Y73.334 E2.8337
G1 X151.814 Y73.995 E2.8594
G1 X152.003 Y74.319 E2.87188
G1 X152.13 Y74.546 E2.88053
G1 X152.552 Y75.383 E2.9117
G1 X152.922 Y76.312 E2.94496
G1 X153.177 Y77.047 E2.97084
G1 X153.288 Y77.383 E2.98261
G1 X153.368 Y77.64 E2.99156
G1 X153.608 Y78.546 E3.02273
G1 X153.781 Y79.552 E3.05668
G1 X153.875 Y80.308 E3.08202
G1 X153.912 Y80.652 E3.09353
G1 X153.938 Y80.933 E3.10292
G1 X153.985 Y81.869 E3.13409
G1 X153.945 Y82.884 E3.16787
G1 X153.879 Y83.655 E3.19361
G1 X153.843 Y84.01 E3.20548
G1 X153.805 Y84.331 E3.21623
G1 X153.587 Y85.564 E3.25787
G1 X153.394 Y86.382 E3.28583
G1 X152.843 Y88.871 E3.37062
G1 X152.358 Y91.399 E3.45623
G1 X151.957 Y93.873 E3.53959
G1 X151.631 Y96.318 E3.62163
G1 X151.362 Y98.873 E3.70708
G1 X151.172 Y101.365 E3.79021
G1 X151.052 Y103.867 E3.87352
G1 X151 Y106.953 E3.97617
G1 X151 Y113.044 E4.17876
G1 X151.037 Y115.652 E4.26551
G1 X151.144 Y118.174 E4.34947
G1 X151.321 Y120.668 E4.43263
G1 X151.569 Y123.166 E4.51612
G1 X151.887 Y125.655 E4.59958
G1 X152.281 Y128.164 E4.68405
G1 X152.739 Y130.627 E4.76738
G1 X153.275 Y133.121 E4.85222
G1 X153.554 Y134.285 E4.89203
G1 X153.772 Y135.486 E4.93263
G1 X153.874 Y136.303 E4.96001
G1 X153.912 Y136.649 E4.97159
G1 X153.938 Y136.929 E4.98095
G1 X153.985 Y137.866 E5.01215
G1 X153.946 Y138.875 E5.04573
G1 X153.882 Y139.63 E5.07093
G1 X153.845 Y139.989 E5.08294
G1 X153.812 Y140.269 E5.09232
G1 X153.663 Y141.194 E5.12348
G1 X153.416 Y142.167 E5.15687
G1 X153.186 Y142.927 E5.18328
G1 X153.066 Y143.301 E5.19634
G1 X152.987 Y143.532 E5.20446
G1 X152.646 Y144.405 E5.23563
G1 X152.216 Y145.275 E5.26791
G1 X151.849 Y145.942 E5.29323
G1 X151.661 Y146.271 E5.30583
G1 X151.512 Y146.521 E5.31551
G1 X150.998 Y147.305 E5.3467
G1 X150.384 Y148.084 E5.37969
G1 X149.879 Y148.668 E5.40536
G1 X149.654 Y148.92 E5.4166
G1 X149.482 Y149.107 E5.42505
G1 X148.818 Y149.769 E5.45624
G1 X148.025 Y150.431 E5.49059
G1 X147.379 Y150.92 E5.51754
G1 X147.078 Y151.139 E5.52992
G1 X146.878 Y151.28 E5.53806
G1 X146.089 Y151.788 E5.56927
G1 X145.203 Y152.253 E5.60255
G1 X144.5 Y152.582 E5.62837
G1 X144.205 Y152.715 E5.63913
G1 X143.96 Y152.821 E5.64801
G1 X143.084 Y153.156 E5.6792
G1 X142.091 Y153.437 E5.71353
G1 X141.345 Y153.611 E5.73901
G1 X141.011 Y153.684 E5.75038
G1 X140.747 Y153.737 E5.75933
G1 X139.821 Y153.882 E5.79051
G1 X138.807 Y153.95 E5.82431
G1 X138.025 Y153.966 E5.85032
G1 X137.628 Y153.967 E5.86353
G1 X137.372 Y153.963 E5.87204
G1 X136.436 Y153.908 E5.90323
G1 X135.47 Y153.767 E5.9357
G1 X134.673 Y153.614 E5.96269
G1 X134.303 Y153.536 E5.97527
G1 X133.042 Y153.249 E6.01828
G1 X130.465 Y152.7 E6.10592
G1 X128.02 Y152.25 E6.1886
G1 X125.519 Y151.864 E6.27277
G1 X123.013 Y151.548 E6.35678
G1 X120.52 Y151.305 E6.44009
G1 X118.008 Y151.133 E6.52384
G1 X115.486 Y151.031 E6.60779
G1 X113.094 Y151 E6.68735
G1 X106.866 Y151 E6.8945
G1 X104.258 Y151.037 E6.98125
G1 X101.736 Y151.144 E7.06521
G1 X99.242 Y151.321 E7.14837
G1 X96.742 Y151.569 E7.23192
G1 X94.249 Y151.888 E7.31552
G1 X91.756 Y152.279 E7.39945
G1 X89.264 Y152.743 E7.48376
G1 X86.457 Y153.351 E7.57928
G1 X85.351 Y153.61 E7.61706
G1 X84.972 Y153.692 E7.62996
G1 X84.703 Y153.745 E7.63908
G1 X83.776 Y153.886 E7.67027
G1 X82.803 Y153.95 E7.7027
G1 X82.026 Y153.966 E7.72855
G1 X81.628 Y153.967 E7.74179
G1 X81.372 Y153.963 E7.7503
G1 X80.436 Y153.908 E7.78149
G1 X79.473 Y153.767 E7.81386
G1 X78.675 Y153.614 E7.84088
G1 X78.299 Y153.535 E7.85366
G1 X78.058 Y153.48 E7.86188
G1 X77.153 Y153.233 E7.89308
G1 X76.219 Y152.887 E7.92621
G1 X75.543 Y152.601 E7.95063
G1 X75.261 Y152.477 E7.96087
G1 X74.985 Y152.351 E7.97096
G1 X74.149 Y151.925 E8.00217
G1 X73.251 Y151.359 E8.03748
G1 X72.603 Y150.906 E8.06377
G1 X72.312 Y150.697 E8.07569
G1 X72.121 Y150.554 E8.08362
G1 X71.395 Y149.96 E8.11482
G1 X70.702 Y149.285 E8.147
G1 X70.146 Y148.694 E8.17399
G1 X69.841 Y148.356 E8.18913
G1 X69.68 Y148.17 E8.19731
G1 X69.097 Y147.435 E8.22852
G1 X68.586 Y146.666 E8.25922
G1 X68.186 Y146.005 E8.28492
G1 X67.997 Y145.681 E8.2974
G1 X67.87 Y145.454 E8.30605
G1 X67.448 Y144.617 E8.33723
G1 X67.078 Y143.688 E8.37048
G1 X66.823 Y142.953 E8.39636
G1 X66.712 Y142.617 E8.40813
G1 X66.632 Y142.36 E8.41708
G1 X66.392 Y141.454 E8.44825
G1 X66.218 Y140.441 E8.48244
G1 X66.123 Y139.673 E8.50818
G1 X66.087 Y139.341 E8.51929
G1 X66.062 Y139.072 E8.52827
G1 X66.015 Y138.135 E8.55948
G1 X66.055 Y137.116 E8.59339
G1 X66.121 Y136.345 E8.61913
G1 X66.156 Y136.002 E8.6306
G1 X66.194 Y135.678 E8.64145
G1 X66.415 Y134.424 E8.6838
G1 X66.608 Y133.607 E8.71172
G1 X67.157 Y131.129 E8.79614
G1 X67.642 Y128.601 E8.88175
G1 X68.043 Y126.127 E8.96511
G1 X68.369 Y123.682 E9.04715
G1 X68.638 Y121.127 E9.1326
G1 X68.828 Y118.635 E9.21573
G1 X68.948 Y116.133 E9.29904
G1 X69 Y113.047 E9.4017
G1 X69 Y106.956 E9.60428
G1 X68.963 Y104.348 E9.69103
G1 X68.856 Y101.826 E9.77499
G1 X68.679 Y99.332 E9.85815
G1 X68.432 Y96.837 E9.94154
G1 X68.112 Y94.336 E10.0254
G1 X67.721 Y91.847 E10.1092
G1 X67.26 Y89.367 E10.1931
G1 X66.725 Y86.879 E10.27774
G1 X66.446 Y85.715 E10.31755
G1 X66.227 Y84.511 E10.35826
G1 X66.123 Y83.676 E10.38624
G1 X66.085 Y83.319 E10.39818
G1 X66.061 Y83.057 E10.40694
G1 X66.015 Y82.121 E10.4381
G1 X66.055 Y81.116 E10.47156
G1 X66.121 Y80.345 E10.49729
G1 X66.156 Y80.005 E10.50866
G1 X66.187 Y79.74 E10.51754
G1 X66.335 Y78.814 E10.54873
G1 X66.585 Y77.827 E10.58259
G1 X66.816 Y77.065 E10.60907
G1 X66.935 Y76.695 E10.622
G1 X67.013 Y76.467 E10.63002
G1 X67.354 Y75.594 E10.66119
G1 X67.786 Y74.722 E10.69356
G1 X68.166 Y74.032 E10.71976
G1 X68.365 Y73.685 E10.73306
G1 X68.501 Y73.458 E10.74186
G1 X69.017 Y72.674 E10.77308
G1 X69.616 Y71.916 E10.80521
G1 X70.127 Y71.325 E10.8312
G1 X70.362 Y71.063 E10.8429
G1 X70.528 Y70.883 E10.85105
G0 F6000 X70.822 Y71.154
G1 F1200 X71.475 Y70.505 E10.88167
G1 X72.216 Y69.888 E10.91374
G1 X72.862 Y69.399 E10.94069
G1 X73.173 Y69.173 E10.95347
G1 X73.374 Y69.032 E10.96164
G1 X74.15 Y68.537 E10.99225
G1 X74.967 Y68.11 E11.02291
G1 X75.672 Y67.78 E11.0488
G1 X75.961 Y67.65 E11.05934
G1 X76.204 Y67.545 E11.06815
G1 X77.065 Y67.216 E11.0988
G1 X77.998 Y66.953 E11.13105
G1 X78.743 Y66.779 E11.15649
G1 X79.068 Y66.708 E11.16756
G1 X79.332 Y66.655 E11.17651
G1 X80.241 Y66.514 E11.20711
G1 X81.201 Y66.45 E11.23911
G1 X81.983 Y66.434 E11.26512
G1 X82.366 Y66.433 E11.27786
G1 X82.622 Y66.437 E11.28638
G1 X83.541 Y66.492 E11.317
G1 X84.454 Y66.626 E11.34769
G1 X85.251 Y66.779 E11.37468
G1 X85.608 Y66.854 E11.38681
G1 X86.85 Y67.137 E11.42918
G1 X89.451 Y67.691 E11.51763
G1 X91.919 Y68.145 E11.6011
G1 X94.437 Y68.534 E11.68584
G1 X96.939 Y68.849 E11.76971
G1 X99.447 Y69.093 E11.85352
G1 X101.985 Y69.268 E11.93814
G1 X104.493 Y69.369 E12.02162
G1 X106.901 Y69.4 E12.10172
G1 X113.14 Y69.4 E12.30923
G1 X115.764 Y69.363 E12.39651
G1 X118.273 Y69.256 E12.48004
G1 X120.793 Y69.078 E12.56406
G1 X123.308 Y68.829 E12.64812
G1 X125.797 Y68.51 E12.73158
G1 X128.349 Y68.109 E12.8175
G1 X130.79 Y67.655 E12.90008
G1 X133.652 Y67.034 E12.99749
G1 X134.74 Y66.78 E13.03465
G1 X135.105 Y66.701 E13.04707
G1 X135.374 Y66.648 E13.05619
G1 X136.284 Y66.509 E13.08681
G1 X137.205 Y66.45 E13.1175
G1 X137.982 Y66.434 E13.14335
G1 X138.366 Y66.433 E13.15612
G1 X138.622 Y66.437 E13.16464
G1 X139.541 Y66.492 E13.19526
G1 X140.452 Y66.626 E13.22588
G1 X141.25 Y66.779 E13.25291
G1 X141.612 Y66.855 E13.26521
G1 X141.853 Y66.91 E13.27343
G1 X142.741 Y67.153 E13.30405
G1 X143.625 Y67.482 E13.33543
G1 X144.301 Y67.768 E13.35984
G1 X144.573 Y67.887 E13.36972
G1 X144.849 Y68.013 E13.37981
G1 X145.669 Y68.432 E13.41043
G1 X146.52 Y68.968 E13.44388
G1 X147.168 Y69.421 E13.47018
G1 X147.448 Y69.624 E13.48168
G1 X147.639 Y69.767 E13.48962
G1 X148.351 Y70.35 E13.52023
G1 X149.006 Y70.989 E13.55066
G1 X149.562 Y71.58 E13.57765
G1 X149.857 Y71.906 E13.59227
G1 X150.018 Y72.092 E13.60046
G1 X150.589 Y72.813 E13.63105
G1 X151.072 Y73.541 E13.6601
G1 X151.472 Y74.202 E13.6858
G1 X151.654 Y74.515 E13.69784
G1 X151.781 Y74.742 E13.70649
G1 X152.195 Y75.564 E13.73711
G1 X152.544 Y76.443 E13.76856
G1 X152.799 Y77.178 E13.79444
G1 X152.906 Y77.501 E13.80575
G1 X152.986 Y77.758 E13.81471
G1 X153.221 Y78.649 E13.84536
G1 X153.384 Y79.601 E13.87748
G1 X153.478 Y80.357 E13.90282
G1 X153.514 Y80.688 E13.91389
G1 X153.54 Y80.969 E13.92328
G1 X153.585 Y81.889 E13.95391
G1 X153.546 Y82.85 E13.9859
G1 X153.48 Y83.621 E14.01164
G1 X153.445 Y83.963 E14.02307
G1 X153.407 Y84.284 E14.03383
G1 X153.198 Y85.472 E14.07395
G1 X153.01 Y86.267 E14.10112
G1 X152.445 Y88.822 E14.18815
G1 X151.965 Y91.32 E14.27275
G1 X151.564 Y93.798 E14.35624
G1 X151.231 Y96.295 E14.44003
G1 X150.964 Y98.833 E14.52491
G1 X150.775 Y101.316 E14.60773
G1 X150.652 Y103.873 E14.69288
G1 X150.6 Y106.947 E14.79513
G1 X150.6 Y113.05 E14.99812
G1 X150.637 Y115.674 E15.0854
G1 X150.744 Y118.183 E15.16893
G1 X150.922 Y120.699 E15.25282
G1 X151.172 Y123.223 E15.33718
G1 X151.493 Y125.731 E15.42128
G1 X151.88 Y128.193 E15.50417
G1 X152.355 Y130.747 E15.59057
G1 X152.876 Y133.172 E15.67307
G1 X153.165 Y134.378 E15.71432
G1 X153.375 Y135.536 E15.75346
G1 X153.477 Y136.353 E15.78084
G1 X153.514 Y136.686 E15.79199
G1 X153.54 Y136.966 E15.80134
G1 X153.585 Y137.885 E15.83194
G1 X153.547 Y138.841 E15.86377
G1 X153.483 Y139.596 E15.88897
G1 X153.448 Y139.942 E15.90053
G1 X153.415 Y140.222 E15.90991
G1 X153.268 Y141.13 E15.9405
G1 X153.034 Y142.051 E15.97211
G1 X152.804 Y142.811 E15.99852
G1 X152.688 Y143.171 E16.0111
G1 X152.609 Y143.402 E16.01922
G1 X152.273 Y144.259 E16.04984
G1 X151.866 Y145.082 E16.08037
G1 X151.499 Y145.749 E16.10569
G1 X151.317 Y146.066 E16.11785
G1 X151.168 Y146.316 E16.12753
G1 X150.663 Y147.085 E16.15813
G1 X150.081 Y147.822 E16.18937
G1 X149.576 Y148.406 E16.21504
G1 X149.36 Y148.649 E16.22586
G1 X149.188 Y148.836 E16.23431
G1 X148.536 Y149.486 E16.26493
G1 X147.784 Y150.112 E16.29747
G1 X147.138 Y150.601 E16.32442
G1 X146.848 Y150.812 E16.33635
G1 X146.648 Y150.953 E16.34449
G1 X145.873 Y151.451 E16.37513
G1 X145.033 Y151.891 E16.40667
G1 X144.33 Y152.22 E16.43248
G1 X144.046 Y152.348 E16.44284
G1 X143.801 Y152.454 E16.45172
G1 X142.941 Y152.782 E16.48234
G1 X142 Y153.048 E16.51486
G1 X141.254 Y153.222 E16.54034
G1 X140.932 Y153.292 E16.5513
G1 X140.668 Y153.345 E16.56025
G1 X139.759 Y153.486 E16.59085
G1 X138.799 Y153.55 E16.62285
G1 X138.017 Y153.566 E16.64886
G1 X137.634 Y153.567 E16.6616
G1 X137.378 Y153.563 E16.67012
G1 X136.459 Y153.508 E16.70074
G1 X135.546 Y153.374 E16.73143
G1 X134.749 Y153.221 E16.75842
G1 X134.392 Y153.146 E16.77056
G1 X133.15 Y152.863 E16.81292
G1 X130.549 Y152.309 E16.90138
G1 X128.081 Y151.855 E16.98484
G1 X125.563 Y151.466 E17.06958
G1 X123.061 Y151.151 E17.15345
G1 X120.553 Y150.907 E17.23726
G1 X118.015 Y150.732 E17.32188
G1 X115.507 Y150.631 E17.40536
G1 X113.099 Y150.6 E17.48546
G1 X106.86 Y150.6 E17.69297
G1 X104.236 Y150.637 E17.78025
G1 X101.727 Y150.744 E17.86378
G1 X99.207 Y150.922 E17.9478
G1 X96.692 Y151.171 E18.03186
G1 X94.203 Y151.49 E18.11532
G1 X91.651 Y151.891 E18.20125
G1 X89.21 Y152.345 E18.28383
G1 X86.348 Y152.966 E18.38123
G1 X85.26 Y153.22 E18.41839
G1 X84.895 Y153.299 E18.43081
G1 X84.626 Y153.352 E18.43993
G1 X83.716 Y153.491 E18.47055
G1 X82.795 Y153.55 E18.50124
G1 X82.018 Y153.566 E18.52709
G1 X81.634 Y153.567 E18.53986
G1 X81.378 Y153.563 E18.54838
G1 X80.459 Y153.508 E18.579
G1 X79.548 Y153.374 E18.60963
G1 X78.75 Y153.221 E18.63665
G1 X78.388 Y153.145 E18.64895
G1 X78.147 Y153.09 E18.65718
G1 X77.259 Y152.847 E18.6878
G1 X76.375 Y152.518 E18.71917
G1 X75.699 Y152.232 E18.74358
G1 X75.427 Y152.113 E18.75346
G1 X75.151 Y151.987 E18.76355
G1 X74.331 Y151.568 E18.79418
G1 X73.48 Y151.032 E18.82763
G1 X72.832 Y150.579 E18.85392
G1 X72.552 Y150.376 E18.86543
G1 X72.361 Y150.233 E18.87336
G1 X71.649 Y149.65 E18.90397
G1 X70.994 Y149.011 E18.9344
G1 X70.438 Y148.42 E18.96139
G1 X70.143 Y148.094 E18.97602
G1 X69.982 Y147.908 E18.9842
G1 X69.411 Y147.187 E19.01479
G1 X68.928 Y146.459 E19.04385
G1 X68.528 Y145.798 E19.06954
G1 X68.346 Y145.485 E19.08159
G1 X68.219 Y145.258 E19.09024
G1 X67.805 Y144.436 E19.12085
G1 X67.456 Y143.557 E19.1523
G1 X67.201 Y142.822 E19.17818
G1 X67.094 Y142.499 E19.1895
G1 X67.014 Y142.242 E19.19845
G1 X66.779 Y141.351 E19.2291
G1 X66.615 Y140.392 E19.26146
G1 X66.52 Y139.624 E19.2872
G1 X66.485 Y139.304 E19.2979
G1 X66.46 Y139.035 E19.30689
G1 X66.415 Y138.115 E19.33752
G1 X66.454 Y137.15 E19.36965
G1 X66.52 Y136.379 E19.39538
G1 X66.553 Y136.048 E19.40645
G1 X66.591 Y135.724 E19.4173
G1 X66.804 Y134.517 E19.45806
G1 X66.989 Y133.735 E19.48479
G1 X67.555 Y131.178 E19.57189
G1 X68.035 Y128.68 E19.6565
G1 X68.436 Y126.202 E19.73999
G1 X68.769 Y123.705 E19.82378
G1 X69.036 Y121.167 E19.90866
G1 X69.225 Y118.684 E19.99148
G1 X69.348 Y116.127 E20.07662
G1 X69.4 Y113.053 E20.17888
G1 X69.4 Y106.95 E20.38187
G1 X69.363 Y104.326 E20.46915
G1 X69.256 Y101.817 E20.55268
G1 X69.078 Y99.297 E20.6367
G1 X68.829 Y96.783 E20.72072
G1 X68.51 Y94.294 E20.80419
G1 X68.109 Y91.742 E20.89011
G1 X67.653 Y89.288 E20.97313
G1 X67.124 Y86.828 E21.05682
G1 X66.835 Y85.622 E21.09806
G1 X66.624 Y84.461 E21.13731
G1 X66.52 Y83.626 E21.1653
G1 X66.483 Y83.283 E21.17677
G1 X66.459 Y83.021 E21.18552
G1 X66.415 Y82.101 E21.21616
G1 X66.454 Y81.15 E21.24781
G1 X66.52 Y80.379 E21.27355
G1 X66.553 Y80.051 E21.28452
G1 X66.584 Y79.786 E21.29339
G1 X66.73 Y78.877 E21.32401
G1 X66.968 Y77.943 E21.35607
G1 X67.199 Y77.181 E21.38255
G1 X67.314 Y76.825 E21.39499
G1 X67.392 Y76.597 E21.40301
G1 X67.727 Y75.74 E21.43361
G1 X68.136 Y74.914 E21.46427
G1 X68.516 Y74.224 E21.49047
G1 X68.708 Y73.89 E21.50328
G1 X68.844 Y73.663 E21.51208
G1 X69.351 Y72.895 E21.54269
G1 X69.919 Y72.178 E21.57312
