;FLAVOR:Marlin
;TIME:3940
;Filament used: 4.51618m
;Layer height: 0.24
;MINX:66.015
;MINY:66.033
;MINZ:0.24
;MAXX:153.985
;MAXY:153.967
;MAXZ:49.92
;Generated with Cura_SteamEngine 4.13.1
M82 ;absolute extrusion mode
START_PRINT BED_TEMP=75 EXTRUDER_TEMP=242
G92 E0
G92 E0
G1 F2400 E-6
;LAYER_COUNT:208
;LAYER:0
M107
G0 F7500 X70.528 Y70.883 Z0.24
;TYPE:SKIRT
G1 F2400 E0
G1 F1500 X71.192 Y70.221 E0.03742
G1 X71.975 Y69.569 E0.07809
G1 X72.621 Y69.08 E0.11043
G1 X72.943 Y68.846 E0.12631
G1 X73.144 Y68.705 E0.13611
G1 X73.934 Y68.199 E0.17356
G1 X74.798 Y67.747 E0.21247
G1 X75.503 Y67.417 E0.24354
G1 X75.803 Y67.282 E0.25667
G1 X76.046 Y67.177 E0.26724
G1 X76.922 Y66.842 E0.30467
G1 X77.907 Y66.563 E0.34553
G1 X78.652 Y66.389 E0.37607
G1 X78.989 Y66.316 E0.38983
G1 X79.253 Y66.263 E0.40058
G1 X80.179 Y66.118 E0.43798
G1 X81.193 Y66.05 E0.47855
G1 X81.975 Y66.034 E0.50976
G1 X82.372 Y66.033 E0.52561
G1 X82.628 Y66.037 E0.53583
G1 X83.564 Y66.092 E0.57325
G1 X84.53 Y66.233 E0.61221
G1 X85.327 Y66.386 E0.6446
G1 X85.697 Y66.464 E0.6597
G1 X86.958 Y66.751 E0.71131
G1 X89.535 Y67.3 E0.81647
G1 X91.98 Y67.75 E0.9157
G1 X94.481 Y68.136 E1.0167
G1 X96.987 Y68.452 E1.11751
G1 X99.48 Y68.695 E1.21749
G1 X101.992 Y68.867 E1.31798
G1 X104.514 Y68.969 E1.41872
G1 X106.906 Y69 E1.5142
G1 X113.134 Y69 E1.76277
G1 X115.742 Y68.963 E1.86687
G1 X118.264 Y68.856 E1.96762
G1 X120.758 Y68.679 E2.06741
G1 X123.258 Y68.431 E2.16768
G1 X125.751 Y68.112 E2.268
G1 X128.244 Y67.721 E2.36871
G1 X130.736 Y67.257 E2.46988
G1 X133.543 Y66.649 E2.58452
G1 X134.649 Y66.39 E2.62985
G1 X135.028 Y66.308 E2.64533
G1 X135.297 Y66.255 E2.65627
G1 X136.224 Y66.114 E2.6937
G1 X137.197 Y66.05 E2.73261
G1 X137.974 Y66.034 E2.76363
G1 X138.372 Y66.033 E2.77952
G1 X138.628 Y66.037 E2.78974
G1 X139.564 Y66.092 E2.82716
G1 X140.527 Y66.233 E2.866
G1 X141.325 Y66.386 E2.89843
G1 X141.701 Y66.465 E2.91377
G1 X141.942 Y66.52 E2.92363
G1 X142.847 Y66.767 E2.96108
G1 X143.781 Y67.113 E3.00083
G1 X144.457 Y67.399 E3.03013
G1 X144.739 Y67.523 E3.04242
G1 X145.015 Y67.649 E3.05453
G1 X145.851 Y68.075 E3.09198
G1 X146.749 Y68.641 E3.13435
G1 X147.397 Y69.094 E3.1659
G1 X147.688 Y69.303 E3.1802
G1 X147.879 Y69.446 E3.18972
G1 X148.605 Y70.04 E3.22716
G1 X149.298 Y70.715 E3.26577
G1 X149.854 Y71.306 E3.29816
G1 X150.159 Y71.644 E3.31633
G1 X150.32 Y71.83 E3.32615
G1 X150.903 Y72.565 E3.36359
G1 X151.414 Y73.334 E3.40044
G1 X151.814 Y73.995 E3.43128
G1 X152.003 Y74.319 E3.44625
G1 X152.13 Y74.546 E3.45663
G1 X152.552 Y75.383 E3.49405
G1 X152.922 Y76.312 E3.53396
G1 X153.177 Y77.047 E3.56501
G1 X153.288 Y77.383 E3.57913
G1 X153.368 Y77.64 E3.58987
G1 X153.608 Y78.546 E3.62728
G1 X153.781 Y79.552 E3.66802
G1 X153.875 Y80.308 E3.69843
G1 X153.912 Y80.652 E3.71224
G1 X153.938 Y80.933 E3.7235
G1 X153.985 Y81.869 E3.7609
G1 X153.945 Y82.884 E3.80145
G1 X153.879 Y83.655 E3.83233
G1 X153.843 Y84.01 E3.84657
G1 X153.805 Y84.331 E3.85947
G1 X153.587 Y85.564 E3.90945
G1 X153.394 Y86.382 E3.94299
G1 X152.843 Y88.871 E4.04474
G1 X152.358 Y91.399 E4.14748
G1 X151.957 Y93.873 E4.24751
G1 X151.631 Y96.318 E4.34596
G1 X151.362 Y98.873 E4.4485
G1 X151.172 Y101.365 E4.54825
G1 X151.052 Y103.867 E4.64822
G1 X151 Y106.953 E4.77141
G1 X151 Y113.044 E5.01451
G1 X151.037 Y115.652 E5.11862
G1 X151.144 Y118.174 E5.21936
G1 X151.321 Y120.668 E5.31916
G1 X151.569 Y123.166 E5.41935
G1 X151.887 Y125.655 E5.5195
G1 X152.281 Y128.164 E5.62086
G1 X152.739 Y130.627 E5.72085
G1 X153.275 Y133.121 E5.82267
G1 X153.554 Y134.285 E5.87044
G1 X153.772 Y135.486 E5.91916
G1 X153.874 Y136.303 E5.95202
G1 X153.912 Y136.649 E5.96591
G1 X153.938 Y136.929 E5.97713
G1 X153.985 Y137.866 E6.01458
G1 X153.946 Y138.875 E6.05488
G1 X153.882 Y139.63 E6.08512
G1 X153.845 Y139.989 E6.09953
G1 X153.812 Y140.269 E6.11078
G1 X153.663 Y141.194 E6.14817
G1 X153.416 Y142.167 E6.18824
G1 X153.186 Y142.927 E6.21993
G1 X153.066 Y143.301 E6.23561
G1 X152.987 Y143.532 E6.24535
G1 X152.646 Y144.405 E6.28276
G1 X152.216 Y145.275 E6.32149
G1 X151.849 Y145.942 E6.35188
G1 X151.661 Y146.271 E6.367
G1 X151.512 Y146.521 E6.37862
G1 X150.998 Y147.305 E6.41603
G1 X150.384 Y148.084 E6.45562
G1 X149.879 Y148.668 E6.48644
G1 X149.654 Y148.92 E6.49992
G1 X149.482 Y149.107 E6.51006
G1 X148.818 Y149.769 E6.54748
G1 X148.025 Y150.431 E6.58871
G1 X147.379 Y150.92 E6.62105
G1 X147.078 Y151.139 E6.63591
G1 X146.878 Y151.28 E6.64567
G1 X146.089 Y151.788 E6.68313
G1 X145.203 Y152.253 E6.72306
G1 X144.5 Y152.582 E6.75404
G1 X144.205 Y152.715 E6.76696
G1 X143.96 Y152.821 E6.77761
G1 X143.084 Y153.156 E6.81505
G1 X142.091 Y153.437 E6.85623
G1 X141.345 Y153.611 E6.88681
G1 X141.011 Y153.684 E6.90045
G1 X140.747 Y153.737 E6.9112
G1 X139.821 Y153.882 E6.94861
G1 X138.807 Y153.95 E6.98917
G1 X138.025 Y153.966 E7.02039
G1 X137.628 Y153.967 E7.03623
G1 X137.372 Y153.963 E7.04645
G1 X136.436 Y153.908 E7.08388
G1 X135.47 Y153.767 E7.12284
G1 X134.673 Y153.614 E7.15523
G1 X134.303 Y153.536 E7.17032
G1 X133.042 Y153.249 E7.22194
G1 X130.465 Y152.7 E7.3271
G1 X128.02 Y152.25 E7.42632
G1 X125.519 Y151.864 E7.52733
G1 X123.013 Y151.548 E7.62814
G1 X120.52 Y151.305 E7.72811
G1 X118.008 Y151.133 E7.8286
G1 X115.486 Y151.031 E7.92935
G1 X113.094 Y151 E8.02482
G1 X106.866 Y151 E8.2734
G1 X104.258 Y151.037 E8.3775
G1 X101.736 Y151.144 E8.47825
G1 X99.242 Y151.321 E8.57804
G1 X96.742 Y151.569 E8.67831
G1 X94.249 Y151.888 E8.77862
G1 X91.756 Y152.279 E8.87934
G1 X89.264 Y152.743 E8.98051
G1 X86.457 Y153.351 E9.09514
G1 X85.351 Y153.61 E9.14048
G1 X84.972 Y153.692 E9.15595
G1 X84.703 Y153.745 E9.1669
G1 X83.776 Y153.886 E9.20432
G1 X82.803 Y153.95 E9.24324
G1 X82.026 Y153.966 E9.27426
G1 X81.628 Y153.967 E9.29014
G1 X81.372 Y153.963 E9.30036
G1 X80.436 Y153.908 E9.33778
G1 X79.473 Y153.767 E9.37663
G1 X78.675 Y153.614 E9.40906
G1 X78.299 Y153.535 E9.42439
G1 X78.058 Y153.48 E9.43426
G1 X77.153 Y153.233 E9.4717
G1 X76.219 Y152.887 E9.51145
G1 X75.543 Y152.601 E9.54075
G1 X75.261 Y152.477 E9.55305
G1 X74.985 Y152.351 E9.56516
G1 X74.149 Y151.925 E9.6026
G1 X73.251 Y151.359 E9.64497
G1 X72.603 Y150.906 E9.67653
G1 X72.312 Y150.697 E9.69083
G1 X72.121 Y150.554 E9.70035
G1 X71.395 Y149.96 E9.73779
G1 X70.702 Y149.285 E9.7764
G1 X70.146 Y148.694 E9.80879
G1 X69.841 Y148.356 E9.82696
G1 X69.68 Y148.17 E9.83677
G1 X69.097 Y147.435 E9.87422
G1 X68.586 Y146.666 E9.91107
G1 X68.186 Y146.005 E9.94191
G1 X67.997 Y145.681 E9.95688
G1 X67.87 Y145.454 E9.96726
G1 X67.448 Y144.617 E10.00467
G1 X67.078 Y143.688 E10.04458
G1 X66.823 Y142.953 E10.07563
G1 X66.712 Y142.617 E10.08976
G1 X66.632 Y142.36 E10.1005
G1 X66.392 Y141.454 E10.13791
G1 X66.218 Y140.441 E10.17893
G1 X66.123 Y139.673 E10.20982
G1 X66.087 Y139.341 E10.22314
G1 X66.062 Y139.072 E10.23393
G1 X66.015 Y138.135 E10.27137
G1 X66.055 Y137.116 E10.31207
G1 X66.121 Y136.345 E10.34296
G1 X66.156 Y136.002 E10.35672
G1 X66.194 Y135.678 E10.36974
G1 X66.415 Y134.424 E10.42056
G1 X66.608 Y133.607 E10.45407
G1 X67.157 Y131.129 E10.55537
G1 X67.642 Y128.601 E10.6581
G1 X68.043 Y126.127 E10.75814
G1 X68.369 Y123.682 E10.85658
G1 X68.638 Y121.127 E10.95912
G1 X68.828 Y118.635 E11.05887
G1 X68.948 Y116.133 E11.15885
G1 X69 Y113.047 E11.28203
G1 X69 Y106.956 E11.52514
G1 X68.963 Y104.348 E11.62924
G1 X68.856 Y101.826 E11.72999
G1 X68.679 Y99.332 E11.82978
G1 X68.432 Y96.837 E11.92985
G1 X68.112 Y94.336 E12.03048
G1 X67.721 Y91.847 E12.13104
G1 X67.26 Y89.367 E12.23172
G1 X66.725 Y86.879 E12.33329
G1 X66.446 Y85.715 E12.38107
G1 X66.227 Y84.511 E12.42991
G1 X66.123 Y83.676 E12.46349
G1 X66.085 Y83.319 E12.47782
G1 X66.061 Y83.057 E12.48832
G1 X66.015 Y82.121 E12.52573
G1 X66.055 Y81.116 E12.56587
G1 X66.121 Y80.345 E12.59675
G1 X66.156 Y80.005 E12.6104
G1 X66.187 Y79.74 E12.62104
G1 X66.335 Y78.814 E12.65847
G1 X66.585 Y77.827 E12.69911
G1 X66.816 Y77.065 E12.73089
G1 X66.935 Y76.695 E12.7464
G1 X67.013 Y76.467 E12.75602
G1 X67.354 Y75.594 E12.79343
G1 X67.786 Y74.722 E12.83227
G1 X68.166 Y74.032 E12.86371
G1 X68.365 Y73.685 E12.87967
G1 X68.501 Y73.458 E12.89023
G1 X69.017 Y72.674 E12.92769
G1 X69.616 Y71.916 E12.96625
G1 X70.127 Y71.325 E12.99744
G1 X70.362 Y71.063 E13.01148
G1 X70.528 Y70.883 E13.02126
G0 F7500 X70.822 Y71.154
G1 F1500 X71.475 Y70.505 E13.058
G1 X72.216 Y69.888 E13.09649
G1 X72.862 Y69.399 E13.12882
G1 X73.173 Y69.173 E13.14417
G1 X73.374 Y69.032 E13.15397
G1 X74.15 Y68.537 E13.1907
G1 X74.967 Y68.11 E13.2275
G1 X75.672 Y67.78 E13.25856
G1 X75.961 Y67.65 E13.27121
G1 X76.204 Y67.545 E13.28178
G1 X77.065 Y67.216 E13.31857
G1 X77.998 Y66.953 E13.35725
G1 X78.743 Y66.779 E13.38779
G1 X79.068 Y66.708 E13.40107
G1 X79.332 Y66.655 E13.41181
G1 X80.241 Y66.514 E13.44853
G1 X81.201 Y66.45 E13.48693
G1 X81.983 Y66.434 E13.51815
G1 X82.366 Y66.433 E13.53343
G1 X82.622 Y66.437 E13.54365
G1 X83.541 Y66.492 E13.5804
G1 X84.454 Y66.626 E13.61723
G1 X85.251 Y66.779 E13.64962
G1 X85.608 Y66.854 E13.66418
G1 X86.85 Y67.137 E13.71502
G1 X89.451 Y67.691 E13.82116
G1 X91.919 Y68.145 E13.92132
G1 X94.437 Y68.534 E14.02301
G1 X96.939 Y68.849 E14.12365
G1 X99.447 Y69.093 E14.22423
G1 X101.985 Y69.268 E14.32576
G1 X104.493 Y69.369 E14.42595
G1 X106.901 Y69.4 E14.52206
G1 X113.14 Y69.4 E14.77107
G1 X115.764 Y69.363 E14.87581
G1 X118.273 Y69.256 E14.97604
G1 X120.793 Y69.078 E15.07687
G1 X123.308 Y68.829 E15.17774
G1 X125.797 Y68.51 E15.2779
G1 X128.349 Y68.109 E15.381
G1 X130.79 Y67.655 E15.4801
G1 X133.652 Y67.034 E15.59699
G1 X134.74 Y66.78 E15.64158
G1 X135.105 Y66.701 E15.65648
G1 X135.374 Y66.648 E15.66743
G1 X136.284 Y66.509 E15.70417
G1 X137.205 Y66.45 E15.741
G1 X137.982 Y66.434 E15.77202
G1 X138.366 Y66.433 E15.78735
G1 X138.622 Y66.437 E15.79757
G1 X139.541 Y66.492 E15.83431
G1 X140.452 Y66.626 E15.87106
G1 X141.25 Y66.779 E15.90349
G1 X141.612 Y66.855 E15.91825
G1 X141.853 Y66.91 E15.92812
G1 X142.741 Y67.153 E15.96487
G1 X143.625 Y67.482 E16.00251
G1 X144.301 Y67.768 E16.03181
G1 X144.573 Y67.887 E16.04366
G1 X144.849 Y68.013 E16.05577
G1 X145.669 Y68.432 E16.09252
G1 X146.52 Y68.968 E16.13266
G1 X147.168 Y69.421 E16.16422
G1 X147.448 Y69.624 E16.17802
G1 X147.639 Y69.767 E16.18754
G1 X148.351 Y70.35 E16.22427
G1 X149.006 Y70.989 E16.26079
G1 X149.562 Y71.58 E16.29318
G1 X149.857 Y71.906 E16.31073
G1 X150.018 Y72.092 E16.32055
G1 X150.589 Y72.813 E16.35725
G1 X151.072 Y73.541 E16.39212
G1 X151.472 Y74.202 E16.42296
G1 X151.654 Y74.515 E16.43741
G1 X151.781 Y74.742 E16.44779
G1 X152.195 Y75.564 E16.48453
G1 X152.544 Y76.443 E16.52227
G1 X152.799 Y77.178 E16.55332
G1 X152.906 Y77.501 E16.56691
G1 X152.986 Y77.758 E16.57765
G1 X153.221 Y78.649 E16.61443
G1 X153.384 Y79.601 E16.65298
G1 X153.478 Y80.357 E16.68338
G1 X153.514 Y80.688 E16.69667
G1 X153.54 Y80.969 E16.70793
G1 X153.585 Y81.889 E16.7447
G1 X153.546 Y82.85 E16.78308
G1 X153.48 Y83.621 E16.81397
G1 X153.445 Y83.963 E16.82769
G1 X153.407 Y84.284 E16.84059
G1 X153.198 Y85.472 E16.88874
G1 X153.01 Y86.267 E16.92134
G1 X152.445 Y88.822 E17.02578
G1 X151.965 Y91.32 E17.1273
G1 X151.564 Y93.798 E17.22749
G1 X151.231 Y96.295 E17.32804
G1 X150.964 Y98.833 E17.42989
G1 X150.775 Y101.316 E17.52928
G1 X150.652 Y103.873 E17.63145
G1 X150.6 Y106.947 E17.75416
G1 X150.6 Y113.05 E17.99775
G1 X150.637 Y115.674 E18.10249
G1 X150.744 Y118.183 E18.20272
G1 X150.922 Y120.699 E18.30339
G1 X151.172 Y123.223 E18.40462
G1 X151.493 Y125.731 E18.50553
G1 X151.88 Y128.193 E18.605
G1 X152.355 Y130.747 E18.70869
G1 X152.876 Y133.172 E18.80768
G1 X153.165 Y134.378 E18.85718
G1 X153.375 Y135.536 E18.90415
G1 X153.477 Y136.353 E18.93701
G1 X153.514 Y136.686 E18.95039
G1 X153.54 Y136.966 E18.96161
G1 X153.585 Y137.885 E18.99833
G1 X153.547 Y138.841 E19.03652
G1 X153.483 Y139.596 E19.06676
G1 X153.448 Y139.942 E19.08064
G1 X153.415 Y140.222 E19.09189
G1 X153.268 Y141.13 E19.12861
G1 X153.034 Y142.051 E19.16653
G1 X152.804 Y142.811 E19.19822
G1 X152.688 Y143.171 E19.21332
G1 X152.609 Y143.402 E19.22306
G1 X152.273 Y144.259 E19.2598
G1 X151.866 Y145.082 E19.29645
G1 X151.499 Y145.749 E19.32683
G1 X151.317 Y146.066 E19.34142
G1 X151.168 Y146.316 E19.35304
G1 X150.663 Y147.085 E19.38976
G1 X150.081 Y147.822 E19.42724
G1 X149.576 Y148.406 E19.45805
G1 X149.36 Y148.649 E19.47103
G1 X149.188 Y148.836 E19.48117
G1 X148.536 Y149.486 E19.51792
G1 X147.784 Y150.112 E19.55697
G1 X147.138 Y150.601 E19.58931
G1 X146.848 Y150.812 E19.60362
G1 X146.648 Y150.953 E19.61339
G1 X145.873 Y151.451 E19.65015
G1 X145.033 Y151.891 E19.688
G1 X144.33 Y152.22 E19.71898
G1 X144.046 Y152.348 E19.73141
G1 X143.801 Y152.454 E19.74207
G1 X142.941 Y152.782 E19.7788
G1 X142 Y153.048 E19.81783
G1 X141.254 Y153.222 E19.84841
G1 X140.932 Y153.292 E19.86156
G1 X140.668 Y153.345 E19.87231
G1 X139.759 Y153.486 E19.90902
G1 X138.799 Y153.55 E19.94742
G1 X138.017 Y153.566 E19.97864
G1 X137.634 Y153.567 E19.99392
G1 X137.378 Y153.563 E20.00414
G1 X136.459 Y153.508 E20.04089
G1 X135.546 Y153.374 E20.07772
G1 X134.749 Y153.221 E20.11011
G1 X134.392 Y153.146 E20.12467
G1 X133.15 Y152.863 E20.17551
G1 X130.549 Y152.309 E20.28165
G1 X128.081 Y151.855 E20.38181
G1 X125.563 Y151.466 E20.4835
G1 X123.061 Y151.151 E20.58415
G1 X120.553 Y150.907 E20.68472
G1 X118.015 Y150.732 E20.78626
G1 X115.507 Y150.631 E20.88644
G1 X113.099 Y150.6 E20.98255
G1 X106.86 Y150.6 E21.23156
G1 X104.236 Y150.637 E21.3363
G1 X101.727 Y150.744 E21.43654
G1 X99.207 Y150.922 E21.53736
G1 X96.692 Y151.171 E21.63823
G1 X94.203 Y151.49 E21.73839
G1 X91.651 Y151.891 E21.84149
G1 X89.21 Y152.345 E21.94059
G1 X86.348 Y152.966 E22.05748
G1 X85.26 Y153.22 E22.10207
G1 X84.895 Y153.299 E22.11697
G1 X84.626 Y153.352 E22.12792
G1 X83.716 Y153.491 E22.16466
G1 X82.795 Y153.55 E22.20149
G1 X82.018 Y153.566 E22.23251
G1 X81.634 Y153.567 E22.24784
G1 X81.378 Y153.563 E22.25806
G1 X80.459 Y153.508 E22.2948
G1 X79.548 Y153.374 E22.33155
G1 X78.75 Y153.221 E22.36398
G1 X78.388 Y153.145 E22.37875
G1 X78.147 Y153.09 E22.38861
G1 X77.259 Y152.847 E22.42536
G1 X76.375 Y152.518 E22.463
G1 X75.699 Y152.232 E22.4923
G1 X75.427 Y152.113 E22.50415
G1 X75.151 Y151.987 E22.51626
G1 X74.331 Y151.568 E22.55301
G1 X73.48 Y151.032 E22.59315
G1 X72.832 Y150.579 E22.62471
G1 X72.552 Y150.376 E22.63851
G1 X72.361 Y150.233 E22.64804
G1 X71.649 Y149.65 E22.68476
G1 X70.994 Y149.011 E22.72129
G1 X70.438 Y148.42 E22.75367
G1 X70.143 Y148.094 E22.77122
G1 X69.982 Y147.908 E22.78104
G1 X69.411 Y147.187 E22.81775
G1 X68.928 Y146.459 E22.85262
G1 X68.528 Y145.798 E22.88345
G1 X68.346 Y145.485 E22.8979
G1 X68.219 Y145.258 E22.90828
G1 X67.805 Y144.436 E22.94502
G1 X67.456 Y143.557 E22.98277
G1 X67.201 Y142.822 E23.01382
G1 X67.094 Y142.499 E23.0274
G1 X67.014 Y142.242 E23.03814
G1 X66.779 Y141.351 E23.07492
G1 X66.615 Y140.392 E23.11375
G1 X66.52 Y139.624 E23.14463
G1 X66.485 Y139.304 E23.15748
G1 X66.46 Y139.035 E23.16827
G1 X66.415 Y138.115 E23.20503
G1 X66.454 Y137.15 E23.24358
G1 X66.52 Y136.379 E23.27446
G1 X66.553 Y136.048 E23.28774
G1 X66.591 Y135.724 E23.30076
G1 X66.804 Y134.517 E23.34968
G1 X66.989 Y133.735 E23.38175
G1 X67.555 Y131.178 E23.48627
G1 X68.035 Y128.68 E23.5878
G1 X68.436 Y126.202 E23.68799
G1 X68.769 Y123.705 E23.78853
G1 X69.036 Y121.167 E23.89039
G1 X69.225 Y118.684 E23.98977
G1 X69.348 Y116.127 E24.09195
G1 X69.4 Y113.053 E24.21466
G1 X69.4 Y106.95 E24.45824
G1 X69.363 Y104.326 E24.56298
G1 X69.256 Y101.817 E24.66321
G1 X69.078 Y99.297 E24.76404
G1 X68.829 Y96.783 E24.86487
G1 X68.51 Y94.294 E24.96502
G1 X68.109 Y91.742 E25.06813
G1 X67.653 Y89.288 E25.16775
G1 X67.124 Y86.828 E25.26818
G1 X66.835 Y85.622 E25.31768
G1 X66.624 Y84.461 E25.36477
G1 X66.52 Y83.626 E25.39836
G1 X66.483 Y83.283 E25.41213
G1 X66.459 Y83.021 E25.42263
G1 X66.415 Y82.101 E25.45939
G1 X66.454 Y81.15 E25.49738
G1 X66.52 Y80.379 E25.52826
G1 X66.553 Y80.051 E25.54142
G1 X66.584 Y79.786 E25.55207
G1 X66.73 Y78.877 E25.58881
G1 X66.968 Y77.943 E25.62728
G1 X67.199 Y77.181 E25.65906
G1 X67.314 Y76.825 E25.67399
G1 X67.392 Y76.597 E25.68361
G1 X67.727 Y75.74 E25.72034
G1 X68.136 Y74.914 E25.75712
G1 X68.516 Y74.224 E25.78856
G1 X68.708 Y73.89 E25.80394
G1 X68.844 Y73.663 E25.8145
G1 X69.351 Y72.895 E25.85123
