;FLAVOR:Marlin
;TIME:3384
;Filament used: 4.65243m
;Layer height: 0.28
;MINX:66.015
;MINY:66.033
;MINZ:0.28
;MAXX:153.985
;MAXY:153.967
;MAXZ:50.32
;Generated with Cura_SteamEngine 4.13.1
M82 ;absolute extrusion mode
START_PRINT BED_TEMP=60 EXTRUDER_TEMP=205
G92 E0
G92 E0
G1 F1500 E-6
;LAYER_COUNT:179
;LAYER:0
M107
G1 F300 Z0.48
G0 F6000 X70.528 Y70.883 Z0.48
;TYPE:SKIRT
G1 F300 Z0.28
G1 F1500 E0
G1 F1200 X71.192 Y70.221 E0.04366
G1 X71.975 Y69.569 E0.0911
G1 X72.621 Y69.08 E0.12883
G1 X72.943 Y68.846 E0.14737
G1 X73.144 Y68.705 E0.1588
G1 X73.934 Y68.199 E0.20248
G1 X74.798 Y67.747 E0.24789
G1 X75.503 Y67.417 E0.28413
G1 X75.803 Y67.282 E0.29945
G1 X76.046 Y67.177 E0.31178
G1 X76.922 Y66.842 E0.35545
G1 X77.907 Y66.563 E0.40312
G1 X78.652 Y66.389 E0.43874
G1 X78.989 Y66.316 E0.4548
G1 X79.253 Y66.263 E0.46734
G1 X80.179 Y66.118 E0.51098
G1 X81.193 Y66.05 E0.5583
G1 X81.975 Y66.034 E0.59472
G1 X82.372 Y66.033 E0.61321
G1 X82.628 Y66.037 E0.62513
G1 X83.564 Y66.092 E0.66879
G1 X84.53 Y66.233 E0.71425
G1 X85.327 Y66.386 E0.75204
G1 X85.697 Y66.464 E0.76965
G1 X86.958 Y66.751 E0.82987
G1 X89.535 Y67.3 E0.95255
G1 X91.98 Y67.75 E1.06832
G1 X94.481 Y68.136 E1.18615
G1 X96.987 Y68.452 E1.30377
G1 X99.48 Y68.695 E1.4204
G1 X101.992 Y68.867 E1.53764
G1 X104.514 Y68.969 E1.65517
G1 X106.906 Y69 E1.76657
G1 X113.134 Y69 E2.05657
G1 X115.742 Y68.963 E2.17802
G1 X118.264 Y68.856 E2.29556
G1 X120.758 Y68.679 E2.41198
G1 X123.258 Y68.431 E2.52896
G1 X125.751 Y68.112 E2.64599
G1 X128.244 Y67.721 E2.7635
G1 X130.736 Y67.257 E2.88153
G1 X133.543 Y66.649 E3.01527
G1 X134.649 Y66.39 E3.06816
G1 X135.028 Y66.308 E3.08622
G1 X135.297 Y66.255 E3.09898
G1 X136.224 Y66.114 E3.14264
G1 X137.197 Y66.05 E3.18805
G1 X137.974 Y66.034 E3.22424
G1 X138.372 Y66.033 E3.24277
G1 X138.628 Y66.037 E3.25469
G1 X139.564 Y66.092 E3.29835
G1 X140.527 Y66.233 E3.34367
G1 X141.325 Y66.386 E3.38151
G1 X141.701 Y66.465 E3.3994
G1 X141.942 Y66.52 E3.41091
G1 X142.847 Y66.767 E3.45459
G1 X143.781 Y67.113 E3.50097
G1 X144.457 Y67.399 E3.53515
G1 X144.739 Y67.523 E3.54949
G1 X145.015 Y67.649 E3.56362
G1 X145.851 Y68.075 E3.60731
G1 X146.749 Y68.641 E3.65674
G1 X147.397 Y69.094 E3.69355
G1 X147.688 Y69.303 E3.71023
G1 X147.879 Y69.446 E3.72135
G1 X148.605 Y70.04 E3.76502
G1 X149.298 Y70.715 E3.81007
G1 X149.854 Y71.306 E3.84785
G1 X150.159 Y71.644 E3.86905
G1 X150.32 Y71.83 E3.88051
G1 X150.903 Y72.565 E3.92419
G1 X151.414 Y73.334 E3.96718
G1 X151.814 Y73.995 E4.00316
G1 X152.003 Y74.319 E4.02063
G1 X152.13 Y74.546 E4.03274
G1 X152.552 Y75.383 E4.07639
G1 X152.922 Y76.312 E4.12295
G1 X153.177 Y77.047 E4.15917
G1 X153.288 Y77.383 E4.17565
G1 X153.368 Y77.64 E4.18819
G1 X153.608 Y78.546 E4.23183
G1 X153.781 Y79.552 E4.27936
G1 X153.875 Y80.308 E4.31483
G1 X153.912 Y80.652 E4.33094
G1 X153.938 Y80.933 E4.34408
G1 X153.985 Y81.869 E4.38772
G1 X153.945 Y82.884 E4.43502
G1 X153.879 Y83.655 E4.47105
G1 X153.843 Y84.01 E4.48767
G1 X153.805 Y84.331 E4.50272
G1 X153.587 Y85.564 E4.56102
G1 X153.394 Y86.382 E4.60016
G1 X152.843 Y88.871 E4.71886
G1 X152.358 Y91.399 E4.83873
G1 X151.957 Y93.873 E4.95543
G1 X151.631 Y96.318 E5.07029
G1 X151.362 Y98.873 E5.18991
G1 X151.172 Y101.365 E5.30629
G1 X151.052 Y103.867 E5.42293
G1 X151 Y106.953 E5.56664
G1 X151 Y113.044 E5.85027
G1 X151.037 Y115.652 E5.97172
G1 X151.144 Y118.174 E6.08926
G1 X151.321 Y120.668 E6.20568
G1 X151.569 Y123.166 E6.32257
G1 X151.887 Y125.655 E6.43941
G1 X152.281 Y128.164 E6.55767
G1 X152.739 Y130.627 E6.67433
G1 X153.275 Y133.121 E6.79311
G1 X153.554 Y134.285 E6.84885
G1 X153.772 Y135.486 E6.90568
G1 X153.874 Y136.303 E6.94402
G1 X153.912 Y136.649 E6.96023
G1 X153.938 Y136.929 E6.97332
G1 X153.985 Y137.866 E7.01701
G1 X153.946 Y138.875 E7.06403
G1 X153.882 Y139.63 E7.09931
G1 X153.845 Y139.989 E7.11611
G1 X153.812 Y140.269 E7.12924
G1 X153.663 Y141.194 E7.17287
G1 X153.416 Y142.167 E7.21961
G1 X153.186 Y142.927 E7.25659
G1 X153.066 Y143.301 E7.27488
G1 X152.987 Y143.532 E7.28624
G1 X152.646 Y144.405 E7.32989
G1 X152.216 Y145.275 E7.37508
G1 X151.849 Y145.942 E7.41052
G1 X151.661 Y146.271 E7.42817
G1 X151.512 Y146.521 E7.44172
G1 X150.998 Y147.305 E7.48537
G1 X150.384 Y148.084 E7.53156
G1 X149.879 Y148.668 E7.56751
G1 X149.654 Y148.92 E7.58324
G1 X149.482 Y149.107 E7.59507
G1 X148.818 Y149.769 E7.63873
G1 X148.025 Y150.431 E7.68683
G1 X147.379 Y150.92 E7.72456
G1 X147.078 Y151.139 E7.74189
G1 X146.878 Y151.28 E7.75329
G1 X146.089 Y151.788 E7.79698
G1 X145.203 Y152.253 E7.84357
G1 X144.5 Y152.582 E7.87972
G1 X144.205 Y152.715 E7.89478
G1 X143.96 Y152.821 E7.90721
G1 X143.084 Y153.156 E7.95089
G1 X142.091 Y153.437 E7.99894
G1 X141.345 Y153.611 E8.03461
G1 X141.011 Y153.684 E8.05053
G1 X140.747 Y153.737 E8.06307
G1 X139.821 Y153.882 E8.10671
G1 X138.807 Y153.95 E8.15403
G1 X138.025 Y153.966 E8.19045
G1 X137.628 Y153.967 E8.20894
G1 X137.372 Y153.963 E8.22086
G1 X136.436 Y153.908 E8.26452
G1 X135.47 Y153.767 E8.30998
G1 X134.673 Y153.614 E8.34777
G1 X134.303 Y153.536 E8.36538
G1 X133.042 Y153.249 E8.42559
G1 X130.465 Y152.7 E8.54828
G1 X128.02 Y152.25 E8.66404
G1 X125.519 Y151.864 E8.78188
G1 X123.013 Y151.548 E8.89949
G1 X120.52 Y151.305 E9.01613
G1 X118.008 Y151.133 E9.13337
G1 X115.486 Y151.031 E9.2509
G1 X113.094 Y151 E9.36229
G1 X106.866 Y151 E9.6523
G1 X104.258 Y151.037 E9.77375
G1 X101.736 Y151.144 E9.89129
G1 X99.242 Y151.321 E10.00771
G1 X96.742 Y151.569 E10.12469
G1 X94.249 Y151.888 E10.24172
G1 X91.756 Y152.279 E10.35923
G1 X89.264 Y152.743 E10.47726
G1 X86.457 Y153.351 E10.611
G1 X85.351 Y153.61 E10.66389
G1 X84.972 Y153.692 E10.68195
G1 X84.703 Y153.745 E10.69471
G1 X83.776 Y153.886 E10.73837
G1 X82.803 Y153.95 E10.78378
G1 X82.026 Y153.966 E10.81997
G1 X81.628 Y153.967 E10.8385
G1 X81.372 Y153.963 E10.85042
G1 X80.436 Y153.908 E10.89408
G1 X79.473 Y153.767 E10.9394
G1 X78.675 Y153.614 E10.97724
G1 X78.299 Y153.535 E10.99513
G1 X78.058 Y153.48 E11.00664
G1 X77.153 Y153.233 E11.05032
G1 X76.219 Y152.887 E11.0967
G1 X75.543 Y152.601 E11.13088
G1 X75.261 Y152.477 E11.14522
G1 X74.985 Y152.351 E11.15935
G1 X74.149 Y151.925 E11.20304
G1 X73.251 Y151.359 E11.25247
G1 X72.603 Y150.906 E11.28928
G1 X72.312 Y150.697 E11.30596
G1 X72.121 Y150.554 E11.31707
G1 X71.395 Y149.96 E11.36075
G1 X70.702 Y149.285 E11.4058
G1 X70.146 Y148.694 E11.44358
G1 X69.841 Y148.356 E11.46478
G1 X69.68 Y148.17 E11.47624
G1 X69.097 Y147.435 E11.51992
G1 X68.586 Y146.666 E11.56291
G1 X68.186 Y146.005 E11.59889
G1 X67.997 Y145.681 E11.61636
G1 X67.87 Y145.454 E11.62847
G1 X67.448 Y144.617 E11.67212
G1 X67.078 Y143.688 E11.71868
G1 X66.823 Y142.953 E11.7549
G1 X66.712 Y142.617 E11.77138
G1 X66.632 Y142.36 E11.78391
G1 X66.392 Y141.454 E11.82756
G1 X66.218 Y140.441 E11.87542
G1 X66.123 Y139.673 E11.91145
G1 X66.087 Y139.341 E11.927
G1 X66.062 Y139.072 E11.93958
G1 X66.015 Y138.135 E11.98327
G1 X66.055 Y137.116 E12.03075
G1 X66.121 Y136.345 E12.06678
G1 X66.156 Y136.002 E12.08284
G1 X66.194 Y135.678 E12.09803
G1 X66.415 Y134.424 E12.15732
G1 X66.608 Y133.607 E12.19641
G1 X67.157 Y131.129 E12.31459
G1 X67.642 Y128.601 E12.43445
G1 X68.043 Y126.127 E12.55116
G1 X68.369 Y123.682 E12.66602
G1 X68.638 Y121.127 E12.78564
G1 X68.828 Y118.635 E12.90202
G1 X68.948 Y116.133 E13.01866
G1 X69 Y113.047 E13.16237
G1 X69 Y106.956 E13.446
G1 X68.963 Y104.348 E13.56745
G1 X68.856 Y101.826 E13.68499
G1 X68.679 Y99.332 E13.80141
G1 X68.432 Y96.837 E13.91816
G1 X68.112 Y94.336 E14.03556
G1 X67.721 Y91.847 E14.15288
G1 X67.26 Y89.367 E14.27034
G1 X66.725 Y86.879 E14.38884
G1 X66.446 Y85.715 E14.44458
G1 X66.227 Y84.511 E14.50156
G1 X66.123 Y83.676 E14.54074
G1 X66.085 Y83.319 E14.55746
G1 X66.061 Y83.057 E14.56971
G1 X66.015 Y82.121 E14.61335
G1 X66.055 Y81.116 E14.66018
G1 X66.121 Y80.345 E14.69621
G1 X66.156 Y80.005 E14.71213
G1 X66.187 Y79.74 E14.72455
G1 X66.335 Y78.814 E14.76822
G1 X66.585 Y77.827 E14.81563
G1 X66.816 Y77.065 E14.8527
G1 X66.935 Y76.695 E14.8708
G1 X67.013 Y76.467 E14.88202
G1 X67.354 Y75.594 E14.92566
G1 X67.786 Y74.722 E14.97098
G1 X68.166 Y74.032 E15.00766
G1 X68.365 Y73.685 E15.02628
G1 X68.501 Y73.458 E15.03861
G1 X69.017 Y72.674 E15.08231
G1 X69.616 Y71.916 E15.1273
G1 X70.127 Y71.325 E15.16367
G1 X70.362 Y71.063 E15.18006
G1 X70.528 Y70.883 E15.19146
G0 F6000 X70.822 Y71.154
G1 F1200 X71.475 Y70.505 E15.23433
G1 X72.216 Y69.888 E15.27923
G1 X72.862 Y69.399 E15.31696
G1 X73.173 Y69.173 E15.33486
G1 X73.374 Y69.032 E15.34629
G1 X74.15 Y68.537 E15.38915
G1 X74.967 Y68.11 E15.43208
G1 X75.672 Y67.78 E15.46833
G1 X75.961 Y67.65 E15.48308
G1 X76.204 Y67.545 E15.49541
G1 X77.065 Y67.216 E15.53833
G1 X77.998 Y66.953 E15.58346
G1 X78.743 Y66.779 E15.61909
G1 X79.068 Y66.708 E15.63458
G1 X79.332 Y66.655 E15.64712
G1 X80.241 Y66.514 E15.68995
G1 X81.201 Y66.45 E15.73475
G1 X81.983 Y66.434 E15.77117
G1 X82.366 Y66.433 E15.78901
G1 X82.622 Y66.437 E15.80093
G1 X83.541 Y66.492 E15.8438
G1 X84.454 Y66.626 E15.88676
G1 X85.251 Y66.779 E15.92455
G1 X85.608 Y66.854 E15.94154
G1 X86.85 Y67.137 E16.00086
G1 X89.451 Y67.691 E16.12469
G1 X91.919 Y68.145 E16.24153
G1 X94.437 Y68.534 E16.36017
G1 X96.939 Y68.849 E16.4776
G1 X99.447 Y69.093 E16.59493
G1 X101.985 Y69.268 E16.71339
G1 X104.493 Y69.369 E16.83027
G1 X106.901 Y69.4 E16.94241
G1 X113.14 Y69.4 E17.23292
G1 X115.764 Y69.363 E17.35512
G1 X118.273 Y69.256 E17.47205
G1 X120.793 Y69.078 E17.58969
G1 X123.308 Y68.829 E17.70737
G1 X125.797 Y68.51 E17.82421
G1 X128.349 Y68.109 E17.9445
G1 X130.79 Y67.655 E18.06012
G1 X133.652 Y67.034 E18.19648
G1 X134.74 Y66.78 E18.24851
G1 X135.105 Y66.701 E18.2659
G1 X135.374 Y66.648 E18.27866
G1 X136.284 Y66.509 E18.32153
G1 X137.205 Y66.45 E18.3645
G1 X137.982 Y66.434 E18.40069
G1 X138.366 Y66.433 E18.41857
G1 X138.622 Y66.437 E18.43049
G1 X139.541 Y66.492 E18.47336
G1 X140.452 Y66.626 E18.51624
G1 X141.25 Y66.779 E18.55407
G1 X141.612 Y66.855 E18.5713
G1 X141.853 Y66.91 E18.58281
G1 X142.741 Y67.153 E18.62568
G1 X143.625 Y67.482 E18.6696
G1 X144.301 Y67.768 E18.70378
G1 X144.573 Y67.887 E18.7176
G1 X144.849 Y68.013 E18.73173
G1 X145.669 Y68.432 E18.77461
G1 X146.52 Y68.968 E18.82144
G1 X147.168 Y69.421 E18.85825
G1 X147.448 Y69.624 E18.87436
G1 X147.639 Y69.767 E18.88547
G1 X148.351 Y70.35 E18.92832
G1 X149.006 Y70.989 E18.97093
G1 X149.562 Y71.58 E19.00871
G1 X149.857 Y71.906 E19.02918
G1 X150.018 Y72.092 E19.04064
G1 X150.589 Y72.813 E19.08346
G1 X151.072 Y73.541 E19.12415
G1 X151.472 Y74.202 E19.16012
G1 X151.654 Y74.515 E19.17698
G1 X151.781 Y74.742 E19.18909
G1 X152.195 Y75.564 E19.23195
G1 X152.544 Y76.443 E19.27599
G1 X152.799 Y77.178 E19.31221
G1 X152.906 Y77.501 E19.32806
G1 X152.986 Y77.758 E19.34059
G1 X153.221 Y78.649 E19.3835
G1 X153.384 Y79.601 E19.42847
G1 X153.478 Y80.357 E19.46395
G1 X153.514 Y80.688 E19.47945
G1 X153.54 Y80.969 E19.49259
G1 X153.585 Y81.889 E19.53548
G1 X153.546 Y82.85 E19.58026
G1 X153.48 Y83.621 E19.6163
G1 X153.445 Y83.963 E19.6323
G1 X153.407 Y84.284 E19.64736
G1 X153.198 Y85.472 E19.70352
G1 X153.01 Y86.267 E19.74156
G1 X152.445 Y88.822 E19.86341
G1 X151.965 Y91.32 E19.98185
G1 X151.564 Y93.798 E20.09874
G1 X151.231 Y96.295 E20.21604
G1 X150.964 Y98.833 E20.33487
G1 X150.775 Y101.316 E20.45083
G1 X150.652 Y103.873 E20.57003
G1 X150.6 Y106.947 E20.71319
G1 X150.6 Y113.05 E20.99737
G1 X150.637 Y115.674 E21.11957
G1 X150.744 Y118.183 E21.2365
G1 X150.922 Y120.699 E21.35395
G1 X151.172 Y123.223 E21.47205
G1 X151.493 Y125.731 E21.58979
G1 X151.88 Y128.193 E21.70584
G1 X152.355 Y130.747 E21.8268
G1 X152.876 Y133.172 E21.9423
G1 X153.165 Y134.378 E22.00004
G1 X153.375 Y135.536 E22.05484
G1 X153.477 Y136.353 E22.09318
G1 X153.514 Y136.686 E22.10878
G1 X153.54 Y136.966 E22.12188
G1 X153.585 Y137.885 E22.16472
G1 X153.547 Y138.841 E22.20927
G1 X153.483 Y139.596 E22.24455
G1 X153.448 Y139.942 E22.26075
G1 X153.415 Y140.222 E22.27388
G1 X153.268 Y141.13 E22.31671
G1 X153.034 Y142.051 E22.36095
G1 X152.804 Y142.811 E22.39793
G1 X152.688 Y143.171 E22.41554
G1 X152.609 Y143.402 E22.42691
G1 X152.273 Y144.259 E22.46977
G1 X151.866 Y145.082 E22.51252
G1 X151.499 Y145.749 E22.54797
G1 X151.317 Y146.066 E22.56499
G1 X151.168 Y146.316 E22.57855
G1 X150.663 Y147.085 E22.62138
G1 X150.081 Y147.822 E22.66511
G1 X149.576 Y148.406 E22.70106
G1 X149.36 Y148.649 E22.7162
G1 X149.188 Y148.836 E22.72803
G1 X148.536 Y149.486 E22.7709
G1 X147.784 Y150.112 E22.81646
G1 X147.138 Y150.601 E22.85419
G1 X146.848 Y150.812 E22.87089
G1 X146.648 Y150.953 E22.88228
G1 X145.873 Y151.451 E22.92518
G1 X145.033 Y151.891 E22.96933
G1 X144.33 Y152.22 E23.00548
G1 X144.046 Y152.348 E23.01998
G1 X143.801 Y152.454 E23.03241
G1 X142.941 Y152.782 E23.07527
G1 X142 Y153.048 E23.1208
G1 X141.254 Y153.222 E23.15647
G1 X140.932 Y153.292 E23.17182
G1 X140.668 Y153.345 E23.18436
G1 X139.759 Y153.486 E23.22719
G1 X138.799 Y153.55 E23.27199
G1 X138.017 Y153.566 E23.30841
G1 X137.634 Y153.567 E23.32624
G1 X137.378 Y153.563 E23.33817
G1 X136.459 Y153.508 E23.38104
G1 X135.546 Y153.374 E23.424
G1 X134.749 Y153.221 E23.46179
G1 X134.392 Y153.146 E23.47878
G1 X133.15 Y152.863 E23.53809
G1 X130.549 Y152.309 E23.66193
G1 X128.081 Y151.855 E23.77877
G1 X125.563 Y151.466 E23.89741
G1 X123.061 Y151.151 E24.01484
G1 X120.553 Y150.907 E24.13217
G1 X118.015 Y150.732 E24.25063
G1 X115.507 Y150.631 E24.36751
G1 X113.099 Y150.6 E24.47964
G1 X106.86 Y150.6 E24.77016
G1 X104.236 Y150.637 E24.89236
G1 X101.727 Y150.744 E25.00929
G1 X99.207 Y150.922 E25.12693
G1 X96.692 Y151.171 E25.24461
G1 X94.203 Y151.49 E25.36145
G1 X91.651 Y151.891 E25.48174
G1 X89.21 Y152.345 E25.59736
G1 X86.348 Y152.966 E25.73372
G1 X85.26 Y153.22 E25.78575
G1 X84.895 Y153.299 E25.80314
G1 X84.626 Y153.352 E25.8159
G1 X83.716 Y153.491 E25.85877
G1 X82.795 Y153.55 E25.90174
G1 X82.018 Y153.566 E25.93793
G1 X81.634 Y153.567 E25.95581
G1 X81.378 Y153.563 E25.96773
G1 X80.459 Y153.508 E26.0106
G1 X79.548 Y153.374 E26.05348
G1 X78.75 Y153.221 E26.09131
G1 X78.388 Y153.145 E26.10854
G1 X78.147 Y153.09 E26.12005
G1 X77.259 Y152.847 E26.16292
G1 X76.375 Y152.518 E26.20684
G1 X75.699 Y152.232 E26.24102
G1 X75.427 Y152.113 E26.25484
G1 X75.151 Y151.987 E26.26897
G1 X74.331 Y151.568 E26.31185
G1 X73.48 Y151.032 E26.35868
G1 X72.832 Y150.579 E26.39549
G1 X72.552 Y150.376 E26.4116
G1 X72.361 Y150.233 E26.42271
G1 X71.649 Y149.65 E26.46556
G1 X70.994 Y149.011 E26.50817
G1 X70.438 Y148.42 E26.54595
G1 X70.143 Y148.094 E26.56642
G1 X69.982 Y147.908 E26.57788
G1 X69.411 Y147.187 E26.6207
G1 X68.928 Y146.459 E26.66138
G1 X68.528 Y145.798 E26.69736
G1 X68.346 Y145.485 E26.71422
G1 X68.219 Y145.258 E26.72633
G1 X67.805 Y144.436 E26.76919
G1 X67.456 Y143.557 E26.81323
G1 X67.201 Y142.822 E26.84945
G1 X67.094 Y142.499 E26.8653
G1 X67.014 Y142.242 E26.87783
G1 X66.779 Y141.351 E26.92074
G1 X66.615 Y140.392 E26.96604
G1 X66.52 Y139.624 E27.00207
G1 X66.485 Y139.304 E27.01706
G1 X66.46 Y139.035 E27.02964
G1 X66.415 Y138.115 E27.07253
G1 X66.454 Y137.15 E27.1175
G1 X66.52 Y136.379 E27.15354
G1 X66.553 Y136.048 E27.16903
G1 X66.591 Y135.724 E27.18422
G1 X66.804 Y134.517 E27.24129
G1 X66.989 Y133.735 E27.27871
G1 X67.555 Y131.178 E27.40065
G1 X68.035 Y128.68 E27.5191
G1 X68.436 Y126.202 E27.63599
G1 X68.769 Y123.705 E27.75329
G1 X69.036 Y121.167 E27.87212
G1 X69.225 Y118.684 E27.98807
G1 X69.348 Y116.127 E28.10727
G1 X69.4 Y113.053 E28.25043
G1 X69.4 Y106.95 E28.53461
G1 X69.363 Y104.326 E28.65681
G1 X69.256 Y101.817 E28.77375
G1 X69.078 Y99.297 E28.89138
G1 X68.829 Y96.783 E29.00901
G1 X68.51 Y94.294 E29.12586
G1 X68.109 Y91.742 E29.24615
G1 X67.653 Y89.288 E29.36238
G1 X67.124 Y86.828 E29.47954
G1 X66.835 Y85.622 E29.53729
G1 X66.624 Y84.461 E29.59223
G1 X66.52 Y83.626 E29.63142
G1 X66.483 Y83.283 E29.64748
G1 X66.459 Y83.021 E29.65973
G1 X66.415 Y82.101 E29.70262
G1 X66.454 Y81.15 E29.74694
G1 X66.52 Y80.379 E29.78297
G1 X66.553 Y80.051 E29.79832
G1 X66.584 Y79.786 E29.81075
G1 X66.73 Y78.877 E29.85361
G1 X66.968 Y77.943 E29.8985
G1 X67.199 Y77.181 E29.93557
G1 X67.314 Y76.825 E29.95299
G1 X67.392 Y76.597 E29.96421
G1 X67.727 Y75.74 E30.00706
G1 X68.136 Y74.914 E30.04998
G1 X68.516 Y74.224 E30.08666
G1 X68.708 Y73.89 E30.1046
