;FLAVOR:Marlin
;TIME:11043
;Filament used: 6.73794m
;Layer height: 0.2
;MINX:91.5
;MINY:67.5
;MINZ:0.2
;MAXX:128.5
;MAXY:128.5
;MAXZ:88.2
;POSTPROCESSED
;Generated with Cura_SteamEngine 4.13.1
M82 ;absolute extrusion mode
START_PRINT BED_TEMP=80 EXTRUDER_TEMP=245
G92 E0
G92 E0
G1 F1500 E-6
;LAYER_COUNT:440
;LAYER:0
;TYPE:CUSTOM LAYER
M221 S110
M117 Flow S110
M107
G1 F300 Z0.4
G0 F6000 X94.068 Y72.867 Z0.4
;TYPE:SKIRT
G1 F300 Z0.2
G1 F1500 E0
G1 F1200 X94.445 Y72.438 E0.019
G1 X94.586 Y72.286 E0.02589
G1 X94.788 Y72.074 E0.03563
G1 X95.047 Y71.81 E0.04793
G1 X95.647 Y71.209 E0.07618
G1 X96.272 Y70.603 E0.10513
G1 X96.973 Y69.98 E0.13632
G1 X97.725 Y69.42 E0.16751
G1 X98.522 Y68.925 E0.19871
G1 X99.358 Y68.5 E0.22991
G1 X100.227 Y68.148 E0.26109
G1 X101.123 Y67.871 E0.29228
G1 X102.04 Y67.672 E0.32349
G1 X102.97 Y67.551 E0.35469
G1 X103.548 Y67.516 E0.37394
G1 X103.933 Y67.506 E0.38675
G1 X104.476 Y67.5 E0.40482
G1 X115.379 Y67.5 E0.76745
G1 X116.238 Y67.511 E0.79602
G1 X117.174 Y67.564 E0.8272
G1 X118.102 Y67.697 E0.85839
G1 X119.016 Y67.909 E0.88959
G1 X119.909 Y68.197 E0.9208
G1 X120.773 Y68.561 E0.95198
G1 X121.604 Y68.997 E0.9832
G1 X122.394 Y69.502 E1.01438
G1 X123.138 Y70.072 E1.04555
G1 X123.553 Y70.438 E1.06396
G1 X123.701 Y70.575 E1.07067
G1 X123.913 Y70.776 E1.08038
G1 X124.169 Y71.027 E1.09231
G1 X124.913 Y71.772 E1.12733
G1 X125.371 Y72.244 E1.1492
G1 X125.995 Y72.944 E1.18039
G1 X126.557 Y73.695 E1.21159
G1 X127.053 Y74.491 E1.24278
G1 X127.479 Y75.326 E1.27396
G1 X127.833 Y76.195 E1.30517
G1 X128.111 Y77.091 E1.33637
G1 X128.312 Y78.007 E1.36756
G1 X128.411 Y78.697 E1.39075
G1 X128.429 Y78.86 E1.3962
G1 X128.494 Y79.943 E1.43229
G1 X128.498 Y80.298 E1.4441
G1 X128.498 Y80.573 E1.45324
G1 X128.489 Y81.228 E1.47503
G1 X128.437 Y82.152 E1.50581
G1 X128.289 Y83.656 E1.55608
G1 X128.268 Y83.844 E1.56237
G1 X128.056 Y86.373 E1.64678
G1 X127.919 Y88.855 E1.72945
G1 X127.85 Y91.384 E1.8136
G1 X127.854 Y93.903 E1.89738
G1 X127.928 Y96.401 E1.9805
G1 X128.075 Y98.951 E2.06546
G1 X128.289 Y101.433 E2.14832
G1 X128.409 Y102.533 E2.18512
G1 X128.441 Y102.872 E2.19644
G1 X128.485 Y103.565 E2.21954
G1 X128.494 Y103.933 E2.23178
G1 X128.5 Y104.476 E2.24984
G1 X128.499 Y115.536 E2.6177
G1 X128.489 Y116.238 E2.64105
G1 X128.436 Y117.174 E2.67223
G1 X128.303 Y118.102 E2.70341
G1 X128.091 Y119.016 E2.73462
G1 X127.803 Y119.909 E2.76583
G1 X127.439 Y120.773 E2.79701
G1 X127.003 Y121.604 E2.82822
G1 X126.498 Y122.394 E2.85941
G1 X125.928 Y123.138 E2.89058
G1 X125.555 Y123.562 E2.90937
G1 X125.414 Y123.714 E2.91626
G1 X125.212 Y123.926 E2.926
G1 X124.953 Y124.19 E2.9383
G1 X124.361 Y124.783 E2.96617
G1 X123.73 Y125.395 E2.99541
G1 X123.029 Y126.018 E3.0266
G1 X122.278 Y126.579 E3.05778
G1 X121.481 Y127.073 E3.08897
G1 X120.645 Y127.499 E3.12017
G1 X119.776 Y127.851 E3.15136
G1 X118.88 Y128.128 E3.18255
G1 X117.963 Y128.328 E3.21377
G1 X117.033 Y128.449 E3.24496
G1 X116.452 Y128.484 E3.26432
G1 X116.067 Y128.494 E3.27713
G1 X115.524 Y128.5 E3.29519
G1 X104.449 Y128.499 E3.66354
G1 X103.745 Y128.488 E3.68696
G1 X102.809 Y128.433 E3.71815
G1 X101.881 Y128.299 E3.74933
G1 X100.967 Y128.086 E3.78055
G1 X100.075 Y127.796 E3.81174
G1 X99.211 Y127.432 E3.84293
G1 X98.381 Y126.995 E3.87413
G1 X97.592 Y126.489 E3.9053
G1 X96.848 Y125.917 E3.93651
G1 X96.404 Y125.524 E3.95624
G1 X96.063 Y125.201 E3.97186
G1 X95.862 Y125.004 E3.98122
G1 X95.073 Y124.213 E4.01838
G1 X94.609 Y123.734 E4.04056
G1 X93.986 Y123.034 E4.07173
G1 X93.425 Y122.282 E4.10293
G1 X92.929 Y121.486 E4.13413
G1 X92.504 Y120.65 E4.16532
G1 X92.151 Y119.781 E4.19651
G1 X91.873 Y118.885 E4.22772
G1 X91.673 Y117.969 E4.2589
G1 X91.552 Y117.039 E4.29009
G1 X91.516 Y116.452 E4.30965
G1 X91.506 Y116.067 E4.32246
G1 X91.5 Y115.524 E4.34052
G1 X91.501 Y104.463 E4.70841
G1 X91.511 Y103.765 E4.73163
G1 X91.563 Y102.845 E4.76228
G1 X91.72 Y101.266 E4.81506
G1 X91.731 Y101.171 E4.81824
G1 X91.944 Y98.627 E4.90315
G1 X92.081 Y96.145 E4.98583
G1 X92.15 Y93.616 E5.06997
G1 X92.146 Y91.097 E5.15375
G1 X92.072 Y88.599 E5.23687
G1 X91.925 Y86.049 E5.32183
G1 X91.709 Y83.548 E5.40532
G1 X91.588 Y82.443 E5.44229
G1 X91.556 Y82.096 E5.45388
G1 X91.518 Y81.501 E5.47371
G1 X91.504 Y81.022 E5.48965
G1 X91.501 Y80.673 E5.50126
G1 X91.502 Y80.428 E5.50941
G1 X91.511 Y79.769 E5.53133
G1 X91.564 Y78.832 E5.56254
G1 X91.696 Y77.904 E5.59372
G1 X91.907 Y76.99 E5.62492
G1 X92.195 Y76.098 E5.6561
G1 X92.558 Y75.233 E5.6873
G1 X92.994 Y74.402 E5.71851
G1 X93.498 Y73.611 E5.7497
G1 X93.582 Y73.502 E5.75428
G0 F1080 X94.068 Y72.867
G0 F6000 X94.739 Y72.71
G1 F1200 X94.88 Y72.558 E5.76118
G1 X95.074 Y72.354 E5.77054
G1 X95.33 Y72.093 E5.7827
G1 X95.93 Y71.492 E5.81095
G1 X96.55 Y70.891 E5.83967
G1 X97.239 Y70.28 E5.87029
G1 X97.978 Y69.731 E5.90091
G1 X98.762 Y69.249 E5.93152
G1 X99.585 Y68.836 E5.96215
G1 X100.441 Y68.497 E5.99277
G1 X101.323 Y68.233 E6.02339
G1 X102.225 Y68.046 E6.05403
G1 X103.561 Y67.916 E6.09868
G1 X103.937 Y67.906 E6.11119
G1 X104.476 Y67.9 E6.12912
G1 X115.379 Y67.9 E6.49175
G1 X116.232 Y67.911 E6.52013
G1 X117.151 Y67.964 E6.55074
G1 X118.062 Y68.097 E6.58136
G1 X118.958 Y68.308 E6.61198
G1 X119.833 Y68.596 E6.64262
G1 X120.679 Y68.959 E6.67324
G1 X121.49 Y69.394 E6.70385
G1 X122.261 Y69.898 E6.73448
G1 X123.282 Y70.731 E6.77831
G1 X123.43 Y70.868 E6.78502
G1 X123.801 Y71.226 E6.80216
G1 X124.626 Y72.05 E6.84095
G1 X125.084 Y72.522 E6.86282
G1 X125.696 Y73.21 E6.89345
G1 X126.246 Y73.949 E6.92409
G1 X126.73 Y74.732 E6.9547
G1 X127.144 Y75.554 E6.98532
G1 X127.484 Y76.41 E7.01595
G1 X127.75 Y77.291 E7.04656
G1 X127.938 Y78.192 E7.07717
G1 X128.013 Y78.741 E7.0956
G1 X128.031 Y78.904 E7.10105
G1 X128.094 Y79.948 E7.13584
G1 X128.098 Y80.303 E7.14765
G1 X128.098 Y80.568 E7.15646
G1 X128.089 Y81.223 E7.17825
G1 X128.039 Y82.113 E7.2079
G1 X127.891 Y83.612 E7.258
G1 X127.869 Y83.805 E7.26446
G1 X127.659 Y86.316 E7.34827
G1 X127.519 Y88.857 E7.43291
G1 X127.45 Y91.374 E7.51666
G1 X127.454 Y93.916 E7.6012
G1 X127.529 Y96.436 E7.68506
G1 X127.673 Y98.937 E7.76838
G1 X127.894 Y101.494 E7.85374
G1 X127.994 Y102.401 E7.88409
G1 X128.043 Y102.91 E7.9011
G1 X128.085 Y103.577 E7.92333
G1 X128.094 Y103.937 E7.9353
G1 X128.1 Y104.476 E7.95323
G1 X128.099 Y115.53 E8.32089
G1 X128.089 Y116.232 E8.34424
G1 X128.036 Y117.151 E8.37486
G1 X127.903 Y118.062 E8.40548
G1 X127.692 Y118.958 E8.4361
G1 X127.404 Y119.833 E8.46673
G1 X127.041 Y120.679 E8.49735
G1 X126.606 Y121.49 E8.52796
G1 X126.102 Y122.261 E8.5586
G1 X125.261 Y123.29 E8.6028
G1 X125.12 Y123.442 E8.6097
G1 X124.926 Y123.646 E8.61906
G1 X124.67 Y123.907 E8.63122
G1 X124.078 Y124.5 E8.65909
G1 X123.452 Y125.107 E8.68809
G1 X122.763 Y125.718 E8.71872
G1 X122.024 Y126.267 E8.74934
G1 X121.24 Y126.75 E8.77997
G1 X120.417 Y127.162 E8.81058
G1 X119.562 Y127.502 E8.84118
G1 X118.68 Y127.767 E8.87181
G1 X117.778 Y127.953 E8.90244
G1 X116.439 Y128.084 E8.94719
G1 X116.063 Y128.094 E8.9597
G1 X115.524 Y128.1 E8.97763
G1 X104.455 Y128.099 E9.34579
G1 X103.751 Y128.088 E9.3692
G1 X102.832 Y128.033 E9.39982
G1 X101.921 Y127.899 E9.43045
G1 X101.026 Y127.687 E9.46104
G1 X100.152 Y127.398 E9.49166
G1 X99.306 Y127.034 E9.52229
G1 X98.495 Y126.598 E9.55292
G1 X97.725 Y126.093 E9.58354
G1 X96.677 Y125.231 E9.62868
G1 X96.343 Y124.915 E9.64397
G1 X96.142 Y124.718 E9.65333
G1 X95.36 Y123.935 E9.69014
G1 X94.896 Y123.456 E9.71232
G1 X94.285 Y122.768 E9.74292
G1 X93.736 Y122.029 E9.77354
G1 X93.253 Y121.245 E9.80417
G1 X92.84 Y120.422 E9.83479
G1 X92.5 Y119.567 E9.8654
G1 X92.235 Y118.685 E9.89603
G1 X92.048 Y117.784 E9.92663
G1 X91.916 Y116.439 E9.97158
G1 X91.906 Y116.063 E9.98409
G1 X91.9 Y115.524 E10.00202
G1 X91.901 Y104.469 E10.36971
G1 X91.911 Y103.771 E10.39293
G1 X91.961 Y102.885 E10.42245
G1 X92.117 Y101.312 E10.47502
G1 X92.132 Y101.184 E10.47931
G1 X92.341 Y98.684 E10.56275
G1 X92.481 Y96.143 E10.64739
G1 X92.55 Y93.626 E10.73114
G1 X92.546 Y91.084 E10.81569
G1 X92.471 Y88.564 E10.89954
G1 X92.327 Y86.06 E10.98296
G1 X92.107 Y83.513 E11.06799
G1 X92.006 Y82.6 E11.09854
G1 X91.955 Y82.059 E11.11661
G1 X91.918 Y81.486 E11.13571
G1 X91.904 Y81.018 E11.15128
G1 X91.901 Y80.669 E11.16289
G1 X91.902 Y80.433 E11.17074
G1 X91.911 Y79.774 E11.19266
G1 X91.964 Y78.855 E11.22328
G1 X92.096 Y77.944 E11.2539
G1 X92.306 Y77.048 E11.2845
G1 X92.594 Y76.173 E11.31514
G1 X92.956 Y75.327 E11.34575
G1 X93.391 Y74.515 E11.37639
G1 X93.894 Y73.744 E11.407
G1 X94.233 Y73.329 E11.42483
G0 F1080 X94.739 Y72.71
G0 F6000 X95.032 Y72.982
G1 F1200 X95.173 Y72.83 E11.43172
G1 X95.36 Y72.634 E11.44073
G1 X95.614 Y72.376 E11.45278
G1 X96.341 Y71.649 E11.48697
G1 X96.828 Y71.178 E11.50951
G1 X97.504 Y70.58 E11.53952
G1 X98.231 Y70.043 E11.56959
G1 X99.002 Y69.573 E11.59962
G1 X99.812 Y69.173 E11.62966
G1 X100.654 Y68.847 E11.6597
G1 X101.521 Y68.596 E11.68972
G1 X102.408 Y68.423 E11.71977
G1 X103.575 Y68.316 E11.75875
G1 X103.942 Y68.306 E11.77096
G1 X104.476 Y68.3 E11.78872
G1 X115.379 Y68.3 E12.15136
G1 X116.226 Y68.311 E12.17953
G1 X117.128 Y68.364 E12.20959
G1 X118.021 Y68.496 E12.23961
G1 X118.899 Y68.707 E12.26964
G1 X119.755 Y68.995 E12.29968
G1 X120.583 Y69.357 E12.32974
G1 X121.375 Y69.791 E12.35978
G1 X122.125 Y70.294 E12.38981
G1 X123.01 Y71.025 E12.42799
G1 X123.158 Y71.162 E12.4347
G1 X123.354 Y71.348 E12.44368
G1 X123.604 Y71.593 E12.45533
G1 X124.339 Y72.329 E12.48992
G1 X124.797 Y72.801 E12.5118
G1 X125.397 Y73.476 E12.54184
G1 X125.934 Y74.202 E12.57187
G1 X126.406 Y74.972 E12.60191
G1 X126.807 Y75.781 E12.63194
G1 X127.135 Y76.623 E12.662
G1 X127.387 Y77.49 E12.69203
G1 X127.615 Y78.784 E12.73573
G1 X127.633 Y78.947 E12.74118
G1 X127.694 Y79.952 E12.77467
G1 X127.698 Y80.307 E12.78648
G1 X127.698 Y80.562 E12.79496
G1 X127.689 Y81.217 E12.81675
G1 X127.641 Y82.074 E12.84529
G1 X127.494 Y83.567 E12.89519
G1 X127.468 Y83.795 E12.90282
G1 X127.259 Y86.296 E12.9863
G1 X127.119 Y88.825 E13.07054
G1 X127.05 Y91.364 E13.15502
G1 X127.054 Y93.893 E13.23914
G1 X127.13 Y96.471 E13.32492
G1 X127.276 Y98.996 E13.40904
G1 X127.493 Y101.512 E13.49303
G1 X127.613 Y102.608 E13.5297
G1 X127.645 Y102.947 E13.54103
G1 X127.685 Y103.589 E13.56242
G1 X127.694 Y103.942 E13.57417
G1 X127.7 Y104.476 E13.59193
G1 X127.699 Y115.524 E13.95939
G1 X127.689 Y116.226 E13.98274
G1 X127.636 Y117.128 E14.01279
G1 X127.504 Y118.021 E14.04282
G1 X127.293 Y118.899 E14.07285
G1 X127.005 Y119.755 E14.10289
G1 X126.643 Y120.583 E14.13294
G1 X126.209 Y121.375 E14.16298
G1 X125.706 Y122.125 E14.19302
G1 X124.968 Y123.018 E14.23155
G1 X124.827 Y123.17 E14.23844
G1 X124.64 Y123.366 E14.24745
G1 X124.387 Y123.624 E14.25947
G1 X123.669 Y124.341 E14.29322
G1 X123.174 Y124.82 E14.31613
G1 X122.498 Y125.419 E14.34617
G1 X121.771 Y125.955 E14.37621
G1 X121 Y126.425 E14.40625
G1 X120.191 Y126.825 E14.43626
G1 X119.349 Y127.152 E14.46631
G1 X118.481 Y127.404 E14.49637
G1 X117.595 Y127.577 E14.52639
G1 X116.425 Y127.684 E14.56547
G1 X116.058 Y127.694 E14.57768
G1 X115.524 Y127.7 E14.59544
G1 X104.462 Y127.699 E14.96337
G1 X103.758 Y127.688 E14.98679
G1 X102.856 Y127.634 E15.01684
G1 X101.963 Y127.5 E15.04687
G1 X101.085 Y127.288 E15.07692
G1 X100.229 Y126.999 E15.10696
G1 X99.403 Y126.636 E15.13697
G1 X98.611 Y126.201 E15.16703
G1 X97.862 Y125.697 E15.19705
G1 X96.95 Y124.939 E15.2365
G1 X96.623 Y124.63 E15.25146
G1 X96.35 Y124.36 E15.26423
G1 X95.648 Y123.657 E15.29727
G1 X95.184 Y123.178 E15.31946
G1 X94.585 Y122.502 E15.3495
G1 X94.048 Y121.776 E15.37953
G1 X93.577 Y121.005 E15.40958
G1 X93.177 Y120.196 E15.4396
G1 X92.849 Y119.354 E15.46965
G1 X92.598 Y118.487 E15.49967
G1 X92.424 Y117.6 E15.52974
G1 X92.316 Y116.425 E15.56898
G1 X92.306 Y116.058 E15.58119
G1 X92.3 Y115.524 E15.59896
G1 X92.301 Y104.475 E15.96645
G1 X92.311 Y103.777 E15.98966
G1 X92.359 Y102.924 E16.01808
G1 X92.498 Y101.512 E16.06527
G1 X92.53 Y101.23 E16.07471
G1 X92.741 Y98.704 E16.15902
G1 X92.881 Y96.175 E16.24326
G1 X92.95 Y93.636 E16.32774
G1 X92.946 Y91.107 E16.41185
G1 X92.87 Y88.529 E16.49764
G1 X92.724 Y86.004 E16.58176
G1 X92.506 Y83.475 E16.66619
G1 X92.385 Y82.37 E16.70316
G1 X92.353 Y82.023 E16.71475
G1 X92.317 Y81.471 E16.73315
G1 X92.311 Y81.312 E16.73844
G1 X92.304 Y81.015 E16.74832
G1 X92.301 Y80.666 E16.75993
G1 X92.302 Y80.439 E16.76748
G1 X92.311 Y79.78 E16.7894
G1 X92.363 Y78.878 E16.81945
G1 X92.495 Y77.985 E16.84947
G1 X92.705 Y77.106 E16.87953
G1 X92.993 Y76.25 E16.90957
G1 X93.354 Y75.423 E16.93958
G1 X93.788 Y74.631 E16.96962
G1 X94.29 Y73.88 E16.99967
G1 X94.523 Y73.599 E17.01181
G0 F1080 X95.032 Y72.982
G1 F1500 E11.01181
G1 F300 Z0.4
;MESH:TowerFlow
G0 F6000 X115.672 Y81.5 Z0.4
;TYPE:WALL-INNER
G1 F300 Z0.2
G1 F1500 E17.01181
G1 F1200 X104.328 Y81.5 E17.38911
G1 X103.5 Y80.672 E17.42806
G1 X103.5 Y80.328 E17.4395
G1 X104.328 Y79.5 E17.47844
G1 X115.672 Y79.5 E17.85575
G1 X116.5 Y80.328 E17.89469
G1 X116.5 Y80.672 E17.90614
G1 X116.238 Y80.934 E17.91846
G0 F1080 X115.672 Y81.5
G0 F6000 X115.838 Y81.9
G1 F1200 X104.162 Y81.9 E18.3068
G1 X103.1 Y80.838 E18.35676
G1 X103.1 Y80.162 E18.37924
G1 X104.162 Y79.1 E18.42919
G1 X115.838 Y79.1 E18.81754
G1 X116.9 Y80.162 E18.86749
G1 X116.9 Y80.838 E18.88998
G1 X116.404 Y81.334 E18.91331
G0 F1080 X115.838 Y81.9
G0 F6000 X116.004 Y82.3
;TYPE:WALL-OUTER
G1 F1200 X103.996 Y82.3 E19.3127
G1 X102.7 Y81.004 E19.37365
G1 X102.7 Y79.996 E19.40718
G1 X103.996 Y78.7 E19.46814
G1 X116.004 Y78.7 E19.86753
G1 X117.3 Y79.996 E19.92849
G1 X117.3 Y81.004 E19.96201
G1 X116.569 Y81.735 E19.9964
G0 F1080 X116.004 Y82.3
G0 F6000 X115.836 Y81.894
G0 X115.512 Y81.11
;TYPE:SKIN
G1 F1200 X104.488 Y81.11 E20.36306
G1 X103.89 Y80.512 E20.39119
G1 X103.89 Y80.488 E20.39198
G1 X104.488 Y79.89 E20.42011
G1 X115.512 Y79.89 E20.78677
G1 X116.11 Y80.488 E20.8149
G1 X116.11 Y80.512 E20.8157
G1 X116.078 Y80.544 E20.8172
G0 F1080 X115.512 Y81.11
G0 F6000 X115.122 Y80.05
G1 F1200 X115.734 Y80.661 E20.84597
G0 F6000 X115.451 Y80.944
G1 F1200 X114.556 Y80.05 E20.88804
G0 F6000 X113.991 Y80.05
G1 F1200 X114.89 Y80.949 E20.93033
G0 F6000 X114.325 Y80.949
G1 F1200 X113.425 Y80.05 E20.97264
G0 F6000 X112.859 Y80.05
G1 F1200 X113.759 Y80.949 E21.01495
G0 F6000 X113.193 Y80.949
G1 F1200 X112.294 Y80.05 E21.05723
G0 F6000 X111.728 Y80.05
G1 F1200 X112.627 Y80.949 E21.09952
G0 F6000 X112.062 Y80.949
G1 F1200 X111.162 Y80.05 E21.14183
G0 F6000 X110.597 Y80.05
G1 F1200 X111.496 Y80.949 E21.18412
G0 F6000 X110.93 Y80.949
G1 F1200 X110.031 Y80.05 E21.2264
G0 F6000 X109.465 Y80.05
G1 F1200 X110.365 Y80.949 E21.26871
G0 F6000 X109.799 Y80.949
G1 F1200 X108.9 Y80.05 E21.311
G0 F6000 X108.334 Y80.05
G1 F1200 X109.233 Y80.949 E21.35328
G0 F6000 X108.668 Y80.949
G1 F1200 X107.768 Y80.05 E21.39559
G0 F6000 X107.203 Y80.05
G1 F1200 X108.102 Y80.949 E21.43788
G0 F6000 X107.536 Y80.949
G1 F1200 X106.637 Y80.05 E21.48017
G0 F6000 X106.071 Y80.05
G1 F1200 X106.971 Y80.949 E21.52248
G0 F6000 X106.405 Y80.949
G1 F1200 X105.505 Y80.05 E21.56479
G0 F6000 X104.94 Y80.05
G1 F1200 X105.839 Y80.949 E21.60707
G0 F6000 X105.274 Y80.949
G1 F1200 X104.463 Y80.139 E21.6452
G0 F6000 X104.18 Y80.422
G1 F1200 X104.708 Y80.949 E21.67001
G1 F1500 E15.67001
G1 F300 Z0.4
G0 F6000 X111.45 Y97.3 Z0.4
;TYPE:WALL-INNER
G1 F300 Z0.2
G1 F1500 E21.67001
G1 F1200 X108.55 Y97.3 E21.76646
G1 X108.55 Y84.3 E22.19884
G1 X111.45 Y84.3 E22.2953
G1 X111.45 Y96.5 E22.70107
G0 F1080 X111.45 Y97.3
G0 F6000 X111.85 Y97.7
G1 F1200 X108.15 Y97.7 E22.82413
G1 X108.15 Y83.9 E23.28312
G1 X111.85 Y83.9 E23.40619
G1 X111.85 Y96.9 E23.83857
G0 F1080 X111.85 Y97.7
G0 F6000 X112.25 Y98.1
;TYPE:WALL-OUTER
G1 F1200 X107.75 Y98.1 E23.98824
G1 X107.75 Y83.5 E24.47384
G1 X112.25 Y83.5 E24.62351
G1 X112.25 Y97.3 E25.0825
G0 F1080 X112.25 Y98.1
G1 F1500 E19.0825
G1 F300 Z0.4
G0 F6000 X111.06 Y96.91 Z0.4
;TYPE:SKIN
G1 F300 Z0.2
G1 F1500 E25.0825
G1 F1200 X108.94 Y96.91 E25.15301
G1 X108.94 Y84.69 E25.55945
G1 X111.06 Y84.69 E25.62996
G1 X111.06 Y96.11 E26.00979
G0 F1080 X111.06 Y96.91
G1 F1500 E20.00979
G1 F300 Z0.4
G0 F6000 X109.194 Y96.749 Z0.4
G1 F300 Z0.2
G1 F1500 E26.00979
G1 F1200 X109.098 Y96.653 E26.01431
G0 F6000 X109.098 Y96.088
