;FLAVOR:Marlin
;TIME:3595
;Filament used: 3.23339m
;Layer height: 0.24
;MINX:65.661
;MINY:65.671
;MINZ:0.24
;MAXX:154.339
;MAXY:154.329
;MAXZ:10.28
;Generated with Cura_SteamEngine 4.13.1
M82 ;absolute extrusion mode
START_PRINT BED_TEMP=60 EXTRUDER_TEMP=205
G92 E0
G92 E0
G1 F1500 E-6
;LAYER_COUNT:42
;LAYER:0
M107
G1 F300 Z0.44
G0 F6000 X81.874 Y69.39 Z0.44
;TYPE:SKIRT
G1 F300 Z0.24
G1 F1500 E0
G1 F1200 X82.525 Y68.715 E0.03743
G1 X83.231 Y68.098 E0.07485
G1 X83.987 Y67.543 E0.11228
G1 X84.788 Y67.055 E0.14972
G1 X85.627 Y66.636 E0.18715
G1 X86.499 Y66.291 E0.22458
G1 X87.398 Y66.021 E0.26204
G1 X88.316 Y65.829 E0.29947
G1 X89.247 Y65.715 E0.33691
G1 X89.831 Y65.685 E0.36025
G1 X90.224 Y65.675 E0.37594
G1 X90.504 Y65.671 E0.38712
G1 X103.849 Y65.671 E0.91974
G1 X104.726 Y65.683 E0.95475
G1 X105.663 Y65.738 E0.99221
G1 X106.591 Y65.872 E1.02963
G1 X107.504 Y66.085 E1.06705
G1 X108.651 Y66.473 E1.11538
G1 X109.938 Y66.99 E1.17074
G1 X110.326 Y67.151 E1.1875
G1 X112.672 Y68.052 E1.2878
G1 X115.05 Y68.889 E1.38842
G1 X117.443 Y69.656 E1.48872
G1 X119.855 Y70.355 E1.58895
G1 X120.574 Y70.553 E1.61871
G1 X121.467 Y70.84 E1.65615
G1 X122.59 Y71.328 E1.70502
G1 X122.959 Y71.513 E1.7215
G1 X125.358 Y72.68 E1.82797
G1 X127.63 Y73.705 E1.92745
G1 X129.965 Y74.682 E2.02848
G1 X132.333 Y75.595 E2.12977
G1 X134.679 Y76.422 E2.22905
G1 X137.076 Y77.192 E2.32954
G1 X139.507 Y77.899 E2.43058
G1 X141.934 Y78.53 E2.53067
G1 X144.467 Y79.113 E2.63441
G1 X145.643 Y79.366 E2.68242
G1 X146.55 Y79.602 E2.71983
G1 X147.434 Y79.914 E2.75724
G1 X148.289 Y80.301 E2.7947
G1 X149.107 Y80.759 E2.83212
G1 X149.884 Y81.285 E2.86957
G1 X150.612 Y81.876 E2.90699
G1 X151.288 Y82.526 E2.94442
G1 X151.906 Y83.232 E2.98187
G1 X152.462 Y83.987 E3.0193
G1 X152.951 Y84.787 E3.05672
G1 X153.37 Y85.626 E3.09415
G1 X153.717 Y86.498 E3.1316
G1 X153.987 Y87.396 E3.16903
G1 X154.181 Y88.314 E3.20648
G1 X154.295 Y89.244 E3.24388
G1 X154.325 Y89.796 E3.26594
G1 X154.334 Y90.101 E3.27812
G1 X154.339 Y90.425 E3.29105
G1 X154.338 Y103.99 E3.83246
G1 X154.327 Y104.7 E3.8608
G1 X154.272 Y105.637 E3.89826
G1 X154.138 Y106.565 E3.93569
G1 X153.926 Y107.478 E3.97309
G1 X153.539 Y108.621 E4.02126
G1 X153.156 Y109.577 E4.06236
G1 X152.996 Y109.961 E4.07897
G1 X152.077 Y112.332 E4.18046
G1 X151.234 Y114.705 E4.28097
G1 X150.474 Y117.053 E4.37947
G1 X149.678 Y119.782 E4.49293
G1 X149.459 Y120.579 E4.52592
G1 X149.172 Y121.472 E4.56335
G1 X148.678 Y122.611 E4.61291
G1 X148.463 Y123.038 E4.63199
G1 X147.311 Y125.407 E4.73712
G1 X146.289 Y127.672 E4.8363
G1 X145.307 Y130.018 E4.93781
G1 X144.402 Y132.375 E5.03858
G1 X143.574 Y134.72 E5.13783
G1 X142.799 Y137.13 E5.23887
G1 X142.102 Y139.528 E5.33854
G1 X141.459 Y142 E5.44049
G1 X140.894 Y144.457 E5.54111
G1 X140.641 Y145.633 E5.58912
G1 X140.405 Y146.54 E5.62653
G1 X140.092 Y147.424 E5.66396
G1 X139.705 Y148.279 E5.70142
G1 X139.247 Y149.097 E5.73883
G1 X138.721 Y149.873 E5.77625
G1 X138.131 Y150.602 E5.81368
G1 X137.48 Y151.278 E5.85114
G1 X136.775 Y151.896 E5.88856
G1 X136.019 Y152.451 E5.92599
G1 X135.219 Y152.94 E5.96341
G1 X134.38 Y153.36 E6.00086
G1 X133.508 Y153.706 E6.0383
G1 X132.61 Y153.977 E6.07574
G1 X131.692 Y154.17 E6.11318
G1 X130.762 Y154.284 E6.15058
G1 X130.173 Y154.315 E6.17412
G1 X129.789 Y154.325 E6.18945
G1 X129.503 Y154.329 E6.20086
G1 X116.029 Y154.328 E6.73864
G1 X115.325 Y154.318 E6.76674
G1 X114.388 Y154.265 E6.8042
G1 X113.46 Y154.132 E6.84162
G1 X112.546 Y153.92 E6.87906
G1 X111.654 Y153.632 E6.91648
G1 X111.097 Y153.408 E6.94044
G1 X110.378 Y153.094 E6.97175
G1 X109.142 Y152.536 E7.02588
G1 X106.84 Y151.572 E7.12549
G1 X104.421 Y150.636 E7.22901
G1 X102.132 Y149.831 E7.32585
G1 X99.563 Y149.004 E7.43357
G1 X99.11 Y148.865 E7.45248
G1 X98.226 Y148.552 E7.48991
G1 X97.661 Y148.306 E7.5145
G1 X96.35 Y147.69 E7.57232
G1 X96.098 Y147.568 E7.58349
G1 X93.808 Y146.536 E7.68374
G1 X91.467 Y145.559 E7.78499
G1 X89.146 Y144.67 E7.88419
G1 X86.762 Y143.831 E7.98506
G1 X84.383 Y143.069 E8.08476
G1 X81.949 Y142.364 E8.1859
G1 X79.495 Y141.727 E8.28709
G1 X77.035 Y141.163 E8.38782
G1 X74.549 Y140.667 E8.489
G1 X74.247 Y140.603 E8.50132
G1 X73.342 Y140.357 E8.53875
G1 X72.461 Y140.036 E8.57618
G1 X71.611 Y139.64 E8.6136
G1 X70.797 Y139.174 E8.65104
G1 X70.026 Y138.64 E8.68847
G1 X69.303 Y138.042 E8.72592
G1 X68.634 Y137.385 E8.76334
G1 X68.024 Y136.673 E8.80076
G1 X67.476 Y135.912 E8.83819
G1 X66.995 Y135.107 E8.87562
G1 X66.584 Y134.263 E8.91309
G1 X66.247 Y133.388 E8.95051
G1 X65.985 Y132.488 E8.98792
G1 X65.801 Y131.568 E9.02537
G1 X65.674 Y130.171 E9.08136
G1 X65.665 Y129.839 E9.09461
G1 X65.661 Y129.541 E9.10651
G1 X65.662 Y115.978 E9.64784
G1 X65.673 Y115.285 E9.6755
G1 X65.728 Y114.349 E9.71292
G1 X65.863 Y113.421 E9.75035
G1 X66.076 Y112.508 E9.78777
G1 X66.468 Y111.352 E9.83649
G1 X66.833 Y110.447 E9.87543
G1 X67.249 Y109.45 E9.91855
G1 X68.154 Y107.097 E10.01917
G1 X68.992 Y104.718 E10.11984
G1 X69.756 Y102.338 E10.21961
G1 X70.478 Y99.854 E10.32285
G1 X70.542 Y99.621 E10.3325
G1 X70.828 Y98.728 E10.36992
G1 X71.321 Y97.594 E10.41927
G1 X71.474 Y97.291 E10.43282
G1 X72.609 Y94.954 E10.53651
G1 X73.665 Y92.611 E10.63909
G1 X74.62 Y90.326 E10.73793
G1 X75.526 Y87.969 E10.83871
G1 X76.364 Y85.593 E10.93927
G1 X77.133 Y83.201 E11.03955
G1 X77.836 Y80.778 E11.14025
G1 X78.469 Y78.343 E11.24066
G1 X79.038 Y75.872 E11.34187
G1 X79.112 Y75.501 E11.35697
G1 X79.359 Y74.358 E11.40364
G1 X79.596 Y73.45 E11.44109
G1 X79.91 Y72.566 E11.47854
G1 X80.297 Y71.712 E11.51596
G1 X80.756 Y70.894 E11.5534
G1 X81.283 Y70.118 E11.59083
G1 X81.874 Y69.39 E11.62826
G0 F6000 X82.241 Y69.58
G1 F1200 X82.887 Y68.924 E11.66501
G1 X83.588 Y68.326 E11.70178
G1 X84.337 Y67.792 E11.7385
G1 X85.13 Y67.324 E11.77525
G1 X85.961 Y66.927 E11.812
G1 X86.823 Y66.604 E11.84874
G1 X87.71 Y66.357 E11.88549
G1 X88.615 Y66.187 E11.92225
G1 X89.841 Y66.084 E11.97135
G1 X90.234 Y66.074 E11.98704
G1 X90.504 Y66.071 E11.99782
G1 X103.849 Y66.071 E12.53045
G1 X104.72 Y66.083 E12.56521
G1 X105.639 Y66.138 E12.60196
G1 X106.55 Y66.271 E12.6387
G1 X107.446 Y66.484 E12.67546
G1 X108.502 Y66.844 E12.71999
G1 X109.784 Y67.36 E12.77515
G1 X110.146 Y67.51 E12.79079
G1 X112.532 Y68.427 E12.89281
G1 X114.932 Y69.271 E12.99435
G1 X117.315 Y70.035 E13.09423
G1 X119.718 Y70.731 E13.19408
G1 X120.468 Y70.938 E13.22513
G1 X121.344 Y71.221 E13.26187
G1 X122.41 Y71.685 E13.30827
G1 X122.815 Y71.888 E13.32636
G1 X125.155 Y73.027 E13.43023
G1 X127.49 Y74.081 E13.53248
G1 X129.815 Y75.053 E13.63305
G1 X132.193 Y75.97 E13.73478
G1 X134.561 Y76.804 E13.83498
G1 X136.957 Y77.574 E13.93543
G1 X139.391 Y78.282 E14.0366
G1 X141.823 Y78.914 E14.13689
G1 X144.437 Y79.516 E14.24395
G1 X145.558 Y79.757 E14.28971
G1 X146.449 Y79.989 E14.32646
G1 X147.317 Y80.298 E14.36324
G1 X148.154 Y80.681 E14.39997
G1 X148.955 Y81.135 E14.43672
G1 X149.713 Y81.657 E14.47345
G1 X150.423 Y82.243 E14.5102
G1 X151.08 Y82.888 E14.54694
G1 X151.678 Y83.588 E14.58369
G1 X152.214 Y84.337 E14.62045
G1 X152.682 Y85.13 E14.6572
G1 X153.08 Y85.96 E14.69394
G1 X153.404 Y86.822 E14.73069
G1 X153.652 Y87.708 E14.76742
G1 X153.822 Y88.613 E14.80417
G1 X153.925 Y89.807 E14.852
G1 X153.934 Y90.112 E14.86418
G1 X153.939 Y90.425 E14.87667
G1 X153.938 Y103.984 E15.41784
G1 X153.927 Y104.694 E15.44618
G1 X153.873 Y105.613 E15.48293
G1 X153.739 Y106.524 E15.51968
G1 X153.526 Y107.42 E15.55643
G1 X153.168 Y108.472 E15.60079
G1 X152.785 Y109.428 E15.64189
G1 X152.63 Y109.798 E15.6579
G1 X151.699 Y112.202 E15.76079
G1 X150.863 Y114.553 E15.86038
G1 X150.086 Y116.954 E15.96111
G1 X149.292 Y119.675 E16.07424
G1 X149.073 Y120.474 E16.1073
G1 X148.791 Y121.35 E16.14403
G1 X148.321 Y122.431 E16.19108
G1 X148.089 Y122.892 E16.21168
G1 X146.958 Y125.218 E16.31491
G1 X145.913 Y127.532 E16.41624
G1 X144.929 Y129.886 E16.51807
G1 X144.047 Y132.179 E16.61613
G1 X143.192 Y134.602 E16.71868
G1 X142.417 Y137.011 E16.81968
G1 X141.72 Y139.412 E16.91947
G1 X141.077 Y141.882 E17.02134
G1 X140.48 Y144.478 E17.12765
G1 X140.25 Y145.548 E17.17133
G1 X140.017 Y146.439 E17.20809
G1 X139.708 Y147.306 E17.24483
G1 X139.325 Y148.144 E17.2816
G1 X138.871 Y148.944 E17.31832
G1 X138.349 Y149.703 E17.35508
G1 X137.763 Y150.413 E17.39182
G1 X137.118 Y151.07 E17.42857
G1 X136.418 Y151.668 E17.46532
G1 X135.669 Y152.203 E17.50205
G1 X134.876 Y152.671 E17.5388
G1 X134.046 Y153.069 E17.57554
G1 X133.184 Y153.393 E17.6123
G1 X132.298 Y153.641 E17.64902
G1 X131.393 Y153.811 E17.68577
G1 X130.163 Y153.915 E17.73504
G1 X129.779 Y153.925 E17.75037
G1 X129.503 Y153.929 E17.76139
G1 X116.034 Y153.928 E18.29896
G1 X115.33 Y153.918 E18.32707
G1 X114.411 Y153.865 E18.36381
G1 X113.5 Y153.732 E18.40055
G1 X112.604 Y153.521 E18.43729
G1 X111.73 Y153.233 E18.47402
G1 X111.256 Y153.041 E18.49443
G1 X110.543 Y152.73 E18.52548
G1 X109.296 Y152.166 E18.5801
G1 X106.947 Y151.183 E18.68173
G1 X104.611 Y150.28 E18.78169
G1 X102.227 Y149.441 E18.88256
G1 X99.722 Y148.634 E18.9876
G1 X99.228 Y148.483 E19.00822
G1 X98.36 Y148.175 E19.04498
G1 X97.831 Y147.944 E19.06802
G1 X96.525 Y147.33 E19.12562
G1 X96.259 Y147.201 E19.13742
G1 X93.991 Y146.179 E19.2367
G1 X91.627 Y145.193 E19.33893
G1 X89.274 Y144.291 E19.43951
G1 X86.88 Y143.449 E19.5408
G1 X84.479 Y142.679 E19.64143
G1 X82.088 Y141.987 E19.74078
G1 X79.605 Y141.343 E19.84316
G1 X77.105 Y140.769 E19.94554
G1 X74.627 Y140.275 E20.04639
G1 X74.335 Y140.213 E20.0583
G1 X73.447 Y139.971 E20.09504
G1 X72.583 Y139.653 E20.13178
G1 X71.75 Y139.262 E20.16851
G1 X70.953 Y138.799 E20.2053
G1 X70.2 Y138.27 E20.24203
G1 X69.496 Y137.677 E20.27876
G1 X68.846 Y137.025 E20.31551
G1 X68.255 Y136.319 E20.35226
G1 X67.727 Y135.564 E20.38903
G1 X67.267 Y134.767 E20.42576
G1 X66.878 Y133.933 E20.46249
G1 X66.563 Y133.068 E20.49923
G1 X66.324 Y132.179 E20.53597
G1 X66.163 Y131.272 E20.57274
G1 X66.074 Y130.16 E20.61726
G1 X66.065 Y129.828 E20.63051
G1 X66.061 Y129.541 E20.64197
G1 X66.062 Y115.985 E21.18302
G1 X66.073 Y115.292 E21.21068
G1 X66.128 Y114.373 E21.24743
G1 X66.262 Y113.462 E21.28418
G1 X66.475 Y112.566 E21.32094
G1 X66.839 Y111.502 E21.36582
G1 X67.202 Y110.601 E21.40459
G1 X67.62 Y109.599 E21.44792
G1 X68.529 Y107.237 E21.54893
G1 X69.375 Y104.836 E21.65054
G1 X70.135 Y102.467 E21.74984
G1 X70.855 Y99.988 E21.85287
G1 X70.927 Y99.727 E21.86367
G1 X71.21 Y98.851 E21.90042
G1 X71.678 Y97.774 E21.94728
G1 X71.848 Y97.436 E21.96238
G1 X72.976 Y95.115 E22.06538
G1 X74.022 Y92.794 E22.16699
G1 X75.012 Y90.425 E22.26947
G1 X75.902 Y88.109 E22.36849
G1 X76.736 Y85.743 E22.46862
G1 X77.522 Y83.297 E22.57116
G1 X78.212 Y80.917 E22.67006
G1 X78.862 Y78.42 E22.77305
G1 X79.424 Y75.978 E22.87306
G1 X79.503 Y75.585 E22.88906
G1 X79.75 Y74.442 E22.93573
G1 X79.984 Y73.551 E22.9725
G1 X80.293 Y72.684 E23.00924
G1 X80.677 Y71.848 E23.04595
G1 X81.132 Y71.047 E23.08272
G1 X81.655 Y70.289 E23.11948
G1 X82.241 Y69.58 E23.15619
G0 F6000 X82.608 Y69.771
G1 F1200 X83.248 Y69.135 E23.1922
G1 X83.943 Y68.557 E23.22828
G1 X84.686 Y68.044 E23.26432
G1 X85.471 Y67.598 E23.30035
G1 X86.292 Y67.223 E23.33637
G1 X87.144 Y66.922 E23.37244
G1 X88.019 Y66.698 E23.40849
G1 X88.91 Y66.552 E23.44452
G1 X89.852 Y66.484 E23.48222
G1 X90.245 Y66.474 E23.49791
G1 X90.504 Y66.471 E23.50825
G1 X103.849 Y66.471 E24.04088
G1 X104.714 Y66.483 E24.0754
G1 X105.615 Y66.537 E24.11143
G1 X106.509 Y66.671 E24.14751
G1 X107.386 Y66.883 E24.18352
G1 X108.353 Y67.215 E24.22433
G1 X109.631 Y67.729 E24.27931
G1 X110.029 Y67.895 E24.29652
G1 X112.404 Y68.806 E24.39804
G1 X114.783 Y69.644 E24.49871
G1 X117.187 Y70.414 E24.59946
G1 X119.65 Y71.128 E24.70181
G1 X120.362 Y71.324 E24.73129
G1 X121.221 Y71.602 E24.76732
G1 X122.231 Y72.043 E24.81131
G1 X122.639 Y72.248 E24.82953
G1 X124.994 Y73.393 E24.93405
G1 X127.32 Y74.443 E25.0359
G1 X129.672 Y75.427 E25.13766
G1 X132.034 Y76.338 E25.2387
G1 X134.443 Y77.186 E25.34063
G1 X136.838 Y77.956 E25.44104
G1 X139.284 Y78.667 E25.54271
G1 X141.738 Y79.305 E25.64391
G1 X144.328 Y79.902 E25.74999
G1 X145.474 Y80.148 E25.79677
G1 X146.348 Y80.377 E25.83283
G1 X147.198 Y80.682 E25.86888
G1 X148.018 Y81.061 E25.90493
G1 X148.801 Y81.511 E25.94098
G1 X149.541 Y82.029 E25.97703
G1 X150.232 Y82.61 E26.01306
G1 X150.869 Y83.25 E26.0491
G1 X151.447 Y83.944 E26.08515
G1 X151.962 Y84.686 E26.1212
G1 X152.409 Y85.471 E26.15725
G1 X152.784 Y86.292 E26.19328
G1 X153.086 Y87.143 E26.22932
G1 X153.311 Y88.018 E26.26538
G1 X153.458 Y88.909 E26.30142
G1 X153.526 Y89.819 E26.33784
G1 X153.535 Y90.124 E26.35002
G1 X153.539 Y90.425 E26.36203
G1 X153.538 Y103.978 E26.90296
G1 X153.527 Y104.688 E26.9313
G1 X153.473 Y105.59 E26.96737
G1 X153.339 Y106.483 E27.00341
G1 X153.127 Y107.361 E27.03946
G1 X152.796 Y108.323 E27.08006
G1 X152.347 Y109.442 E27.12819
G1 X152.248 Y109.677 E27.13836
G1 X151.325 Y112.06 E27.24036
G1 X150.481 Y114.433 E27.34088
G1 X149.707 Y116.825 E27.44123
G1 X148.902 Y119.583 E27.5559
G1 X148.687 Y120.368 E27.58838
G1 X148.41 Y121.227 E27.62441
G1 X147.963 Y122.251 E27.669
G1 X147.744 Y122.687 E27.68847
G1 X146.592 Y125.057 E27.79365
G1 X145.557 Y127.349 E27.89402
G1 X144.563 Y129.725 E27.99682
G1 X143.66 Y132.075 E28.0973
G1 X142.809 Y134.484 E28.19927
G1 X142.035 Y136.893 E28.30026
G1 X141.325 Y139.337 E28.40184
G1 X140.693 Y141.764 E28.50193
G1 X140.095 Y144.368 E28.60857
G1 X139.859 Y145.464 E28.65332
G1 X139.63 Y146.338 E28.68938
G1 X139.325 Y147.188 E28.72542
G1 X138.946 Y148.008 E28.76147
G1 X138.495 Y148.79 E28.7975
G1 X137.978 Y149.53 E28.83353
G1 X137.397 Y150.222 E28.8696
G1 X136.757 Y150.859 E28.90564
G1 X136.063 Y151.437 E28.94168
G1 X135.32 Y151.951 E28.97774
G1 X134.536 Y152.398 E29.01376
G1 X133.714 Y152.774 E29.04984
G1 X132.863 Y153.075 E29.08587
G1 X131.988 Y153.3 E29.12193
G1 X131.097 Y153.447 E29.15797
G1 X130.153 Y153.516 E29.19575
G1 X129.769 Y153.526 E29.21108
G1 X129.503 Y153.529 E29.2217
G1 X116.04 Y153.528 E29.75903
G1 X115.336 Y153.518 E29.78713
G1 X114.435 Y153.465 E29.82316
G1 X113.541 Y153.333 E29.85923
G1 X112.663 Y153.122 E29.89527
G1 X111.416 Y152.674 E29.94815
G1 X110.708 Y152.365 E29.97898
G1 X109.466 Y151.804 E30.03338
G1 X107.11 Y150.817 E30.13533
G1 X104.751 Y149.905 E30.23627
G1 X102.345 Y149.059 E30.33806
G1 X99.879 Y148.265 E30.44146
G1 X99.345 Y148.101 E30.46376
G1 X98.494 Y147.798 E30.49981
G1 X98.001 Y147.582 E30.5213
G1 X96.7 Y146.97 E30.57868
G1 X96.462 Y146.854 E30.58925
G1 X94.13 Y145.804 E30.69132
G1 X91.758 Y144.814 E30.79391
G1 X89.401 Y143.911 E30.89465
G1 X87.029 Y143.076 E30.99501
G1 X84.607 Y142.3 E31.09652
G1 X82.153 Y141.589 E31.19849
G1 X79.731 Y140.961 E31.29836
G1 X77.194 Y140.379 E31.40225
G1 X74.706 Y139.883 E31.5035
G1 X74.423 Y139.822 E31.51506
G1 X73.552 Y139.585 E31.55108
G1 X72.705 Y139.271 E31.58714
G1 X71.89 Y138.883 E31.62316
G1 X71.111 Y138.425 E31.65923
G1 X70.377 Y137.9 E31.69525
G1 X69.691 Y137.312 E31.73131
G1 X69.061 Y136.665 E31.76735
G1 X68.49 Y135.966 E31.80338
G1 X67.983 Y135.218 E31.83944
G1 X67.544 Y134.429 E31.87548
G1 X67.177 Y133.604 E31.91152
G1 X66.884 Y132.75 E31.94755
G1 X66.668 Y131.873 E31.9836
G1 X66.53 Y130.98 E32.01967
G1 X66.474 Y130.149 E32.05291
G1 X66.465 Y129.817 E32.06617
G1 X66.461 Y129.541 E32.07718
G1 X66.462 Y115.991 E32.61799
G1 X66.473 Y115.298 E32.64565
G1 X66.528 Y114.397 E32.68168
G1 X66.661 Y113.504 E32.71772
G1 X66.874 Y112.626 E32.75378
G1 X67.21 Y111.651 E32.79494
G1 X67.571 Y110.755 E32.83349
G1 X67.999 Y109.729 E32.87786
G1 X68.91 Y107.361 E32.97913
G1 X69.747 Y104.986 E33.07963
G1 X70.517 Y102.585 E33.18027
G1 X71.246 Y100.078 E33.28447
G1 X71.313 Y99.833 E33.29461
G1 X71.591 Y98.973 E33.33068
G1 X72.035 Y97.954 E33.37505
G1 X72.229 Y97.568 E33.39229
G1 X73.336 Y95.289 E33.49341
G1 X74.385 Y92.964 E33.59522
G1 X75.37 Y90.606 E33.69721
G1 X76.281 Y88.237 E33.79851
G1 X77.122 Y85.851 E33.89948
G1 X77.901 Y83.426 E34.00114
G1 X78.607 Y80.991 E34.10233
G1 X79.243 Y78.546 E34.20316
G1 X79.818 Y76.048 E34.30547
G1 X79.894 Y75.67 E34.32086
G1 X80.141 Y74.527 E34.36753
G1 X80.371 Y73.653 E34.4036
G1 X80.677 Y72.803 E34.43966
G1 X81.057 Y71.984 E34.4757
G1 X81.508 Y71.202 E34.51173
G1 X82.026 Y70.462 E34.54778
