;FLAVOR:Marlin
;TIME:4516
;Filament used: 3.94359m
;Layer height: 0.24
;MINX:65.425
;MINY:65.426
;MINZ:0.24
;MAXX:154.575
;MAXY:154.574
;MAXZ:7.92
;Generated with Cura_SteamEngine 4.13.1
M82 ;absolute extrusion mode
START_PRINT BED_TEMP=65 EXTRUDER_TEMP=205
G92 E0
G92 E0
G1 F1500 E-6
;LAYER_COUNT:33
;LAYER:0
M107
G0 F6000 X75.737 Y71.585 Z0.24
;TYPE:SKIRT
G1 F1500 E0
G1 F1200 X76.391 Y70.913 E0.03743
G1 X77.271 Y70.165 E0.08352
G1 X77.427 Y70.046 E0.09135
G1 X78.197 Y69.51 E0.1288
G1 X79.009 Y69.041 E0.16622
G1 X79.722 Y68.701 E0.19775
G1 X80.024 Y68.57 E0.21089
G1 X80.899 Y68.233 E0.24831
G1 X81.567 Y68.032 E0.27616
G1 X81.951 Y67.931 E0.292
G1 X84.036 Y67.405 E0.37783
G1 X86.467 Y66.718 E0.47865
G1 X88.274 Y66.16 E0.55414
G1 X88.824 Y66.005 E0.57694
G1 X89.449 Y65.847 E0.60267
G1 X89.896 Y65.744 E0.62098
G1 X91.157 Y65.55 E0.6719
G1 X91.755 Y65.493 E0.69588
G1 X92.128 Y65.463 E0.71081
G1 X92.259 Y65.455 E0.71605
G1 X92.572 Y65.441 E0.72856
G1 X92.787 Y65.434 E0.73714
G1 X93.343 Y65.426 E0.75934
G1 X94.431 Y65.427 E0.80276
G1 X95.068 Y65.436 E0.82819
G1 X95.408 Y65.446 E0.84176
G1 X95.63 Y65.456 E0.85063
G1 X96.098 Y65.487 E0.86935
G1 X96.462 Y65.519 E0.88394
G1 X97.623 Y65.684 E0.93074
G1 X100.17 Y66.185 E1.03434
G1 X102.651 Y66.6 E1.13474
G1 X105.138 Y66.946 E1.23496
G1 X107.629 Y67.22 E1.33498
G1 X110.14 Y67.424 E1.43553
G1 X112.649 Y67.557 E1.53581
G1 X116.225 Y67.626 E1.67856
G1 X124.836 Y67.627 E2.02225
G1 X125.532 Y67.637 E2.05003
G1 X126.76 Y67.724 E2.09916
G1 X127.004 Y67.755 E2.10898
G1 X127.929 Y67.912 E2.14643
G1 X128.837 Y68.148 E2.18387
G1 X129.687 Y68.447 E2.21983
G1 X130.742 Y68.867 E2.26516
G1 X131.566 Y69.21 E2.30078
G1 X133.894 Y70.105 E2.40032
G1 X136.291 Y70.949 E2.50175
G1 X138.683 Y71.717 E2.60202
G1 X141.056 Y72.405 E2.70063
G1 X142.115 Y72.677 E2.74427
G1 X143.462 Y73.04 E2.79995
G1 X144.618 Y73.421 E2.84853
G1 X144.855 Y73.514 E2.85869
G1 X145.713 Y73.894 E2.89615
G1 X146.535 Y74.345 E2.93357
G1 X147.437 Y74.954 E2.977
G1 X147.689 Y75.143 E2.98958
G1 X148.415 Y75.737 E3.02702
G1 X149.087 Y76.391 E3.06444
G1 X149.829 Y77.263 E3.11014
G1 X149.949 Y77.42 E3.11803
G1 X150.486 Y78.189 E3.15546
G1 X150.956 Y79.001 E3.19291
G1 X151.298 Y79.718 E3.22461
G1 X151.427 Y80.015 E3.23754
G1 X151.764 Y80.89 E3.27496
G1 X151.967 Y81.565 E3.30309
G1 X152.069 Y81.951 E3.31903
G1 X152.595 Y84.036 E3.40485
G1 X153.282 Y86.466 E3.50564
G1 X153.838 Y88.267 E3.58087
G1 X153.992 Y88.813 E3.60351
G1 X154.152 Y89.445 E3.62953
G1 X154.256 Y89.896 E3.64801
G1 X154.45 Y91.152 E3.69873
G1 X154.505 Y91.726 E3.72174
G1 X154.531 Y92.043 E3.73444
G1 X154.541 Y92.193 E3.74044
G1 X154.559 Y92.575 E3.7557
G1 X154.571 Y93.037 E3.77415
G1 X154.575 Y93.464 E3.79119
G1 X154.573 Y94.432 E3.82983
G1 X154.564 Y95.068 E3.85521
G1 X154.554 Y95.403 E3.86859
G1 X154.544 Y95.627 E3.87754
G1 X154.512 Y96.105 E3.89666
G1 X154.48 Y96.467 E3.91116
G1 X154.316 Y97.621 E3.95769
G1 X153.816 Y100.163 E4.06109
G1 X153.4 Y102.651 E4.16177
G1 X153.054 Y105.138 E4.26198
G1 X152.78 Y107.629 E4.36201
G1 X152.576 Y110.14 E4.46255
G1 X152.443 Y112.649 E4.56284
G1 X152.374 Y116.217 E4.70527
G1 X152.373 Y124.836 E5.04927
G1 X152.363 Y125.532 E5.07705
G1 X152.276 Y126.766 E5.12643
G1 X152.245 Y127.009 E5.1362
G1 X152.086 Y127.933 E5.17362
G1 X151.85 Y128.841 E5.21107
G1 X151.554 Y129.682 E5.24665
G1 X151.064 Y130.91 E5.29942
G1 X150.79 Y131.566 E5.3278
G1 X149.895 Y133.894 E5.42734
G1 X149.051 Y136.291 E5.52877
G1 X148.283 Y138.683 E5.62904
G1 X147.595 Y141.056 E5.72765
G1 X147.323 Y142.115 E5.77129
G1 X146.96 Y143.462 E5.82697
G1 X146.579 Y144.618 E5.87555
G1 X146.486 Y144.855 E5.88571
G1 X146.106 Y145.713 E5.92316
G1 X145.655 Y146.535 E5.96059
G1 X145.046 Y147.437 E6.00402
G1 X144.857 Y147.689 E6.0166
G1 X144.263 Y148.415 E6.05404
G1 X143.609 Y149.087 E6.09146
G1 X142.729 Y149.835 E6.13756
G1 X142.573 Y149.954 E6.14539
G1 X141.803 Y150.49 E6.18283
G1 X140.991 Y150.959 E6.22026
G1 X140.275 Y151.301 E6.25193
G1 X139.975 Y151.431 E6.26498
G1 X139.099 Y151.767 E6.30243
G1 X138.454 Y151.961 E6.32931
G1 X138.049 Y152.069 E6.34604
G1 X135.964 Y152.595 E6.43186
G1 X133.533 Y153.282 E6.53269
G1 X131.726 Y153.84 E6.60817
G1 X131.176 Y153.995 E6.63098
G1 X130.551 Y154.153 E6.65671
G1 X130.104 Y154.256 E6.67502
G1 X128.843 Y154.45 E6.72594
G1 X128.245 Y154.507 E6.74991
G1 X127.872 Y154.537 E6.76485
G1 X127.741 Y154.545 E6.77009
G1 X127.428 Y154.559 E6.78259
G1 X127.213 Y154.566 E6.79118
G1 X126.657 Y154.574 E6.81337
G1 X125.711 Y154.574 E6.85113
G1 X124.932 Y154.564 E6.88222
G1 X124.597 Y154.554 E6.8956
G1 X124.373 Y154.544 E6.90455
G1 X123.895 Y154.512 E6.92367
G1 X123.533 Y154.48 E6.93817
G1 X122.379 Y154.316 E6.98469
G1 X119.837 Y153.816 E7.08809
G1 X117.349 Y153.4 E7.18877
G1 X114.862 Y153.054 E7.28899
G1 X112.371 Y152.78 E7.38901
G1 X109.86 Y152.576 E7.48956
G1 X107.351 Y152.443 E7.58984
G1 X103.775 Y152.374 E7.7326
G1 X95.164 Y152.373 E8.07628
G1 X94.468 Y152.363 E8.10406
G1 X93.24 Y152.276 E8.1532
G1 X92.996 Y152.245 E8.16301
G1 X92.071 Y152.088 E8.20046
G1 X91.163 Y151.852 E8.2379
G1 X90.313 Y151.553 E8.27387
G1 X89.258 Y151.133 E8.31919
G1 X88.434 Y150.79 E8.35481
G1 X86.106 Y149.895 E8.45436
G1 X83.709 Y149.051 E8.55578
G1 X81.317 Y148.283 E8.65605
G1 X78.944 Y147.595 E8.75467
G1 X77.885 Y147.323 E8.7983
G1 X76.538 Y146.96 E8.85398
G1 X75.382 Y146.579 E8.90256
G1 X75.145 Y146.486 E8.91272
G1 X74.287 Y146.106 E8.95018
G1 X73.465 Y145.655 E8.9876
G1 X72.563 Y145.046 E9.03104
G1 X72.311 Y144.857 E9.04361
G1 X71.585 Y144.263 E9.08105
G1 X70.913 Y143.609 E9.11847
G1 X70.171 Y142.737 E9.16417
G1 X70.051 Y142.58 E9.17206
G1 X69.514 Y141.811 E9.20949
G1 X69.044 Y140.999 E9.24694
G1 X68.698 Y140.274 E9.279
G1 X68.568 Y139.974 E9.29205
G1 X68.232 Y139.098 E9.3295
G1 X68.029 Y138.423 E9.35763
G1 X67.931 Y138.049 E9.37306
G1 X67.405 Y135.964 E9.45889
G1 X66.718 Y133.533 E9.55971
G1 X66.16 Y131.726 E9.6352
G1 X66.005 Y131.176 E9.658
G1 X65.847 Y130.551 E9.68373
G1 X65.744 Y130.104 E9.70204
G1 X65.55 Y128.843 E9.75296
G1 X65.493 Y128.245 E9.77694
G1 X65.453 Y127.677 E9.79966
G1 X65.438 Y127.331 E9.81349
G1 X65.428 Y126.947 E9.82882
G1 X65.425 Y126.483 E9.84734
G1 X65.427 Y125.568 E9.88386
G1 X65.436 Y124.932 E9.90924
G1 X65.445 Y124.614 E9.92194
G1 X65.455 Y124.382 E9.93121
G1 X65.49 Y123.866 E9.95185
G1 X65.522 Y123.512 E9.96604
G1 X65.684 Y122.379 E10.01172
G1 X66.184 Y119.837 E10.11512
G1 X66.6 Y117.349 E10.2158
G1 X66.946 Y114.862 E10.31602
G1 X67.22 Y112.371 E10.41604
G1 X67.424 Y109.86 E10.51659
G1 X67.557 Y107.351 E10.61687
G1 X67.626 Y103.775 E10.75962
G1 X67.627 Y95.15 E11.10386
G1 X67.638 Y94.445 E11.132
G1 X67.726 Y93.218 E11.1811
G1 X67.756 Y92.984 E11.19052
G1 X67.915 Y92.06 E11.22794
G1 X68.152 Y91.152 E11.26539
G1 X68.446 Y90.318 E11.30069
G1 X68.936 Y89.09 E11.35346
G1 X69.21 Y88.434 E11.38183
G1 X70.105 Y86.106 E11.48138
G1 X70.949 Y83.709 E11.5828
G1 X71.717 Y81.317 E11.68307
G1 X72.405 Y78.944 E11.78169
G1 X72.678 Y77.881 E11.82549
G1 X73.042 Y76.532 E11.88126
G1 X73.419 Y75.388 E11.92933
G1 X73.511 Y75.153 E11.9394
G1 X73.89 Y74.295 E11.97684
G1 X74.34 Y73.472 E12.01428
G1 X74.954 Y72.563 E12.05806
G1 X75.143 Y72.311 E12.07063
G1 X75.316 Y72.099 E12.08155
G0 F1080 X75.737 Y71.585
G0 F6000 X76.047 Y71.839
G1 F1200 X76.69 Y71.181 E12.11827
G1 X77.514 Y70.483 E12.16137
G1 X77.67 Y70.364 E12.1692
G1 X78.426 Y69.838 E12.20596
G1 X79.224 Y69.38 E12.24269
G1 X79.881 Y69.067 E12.27173
G1 X80.183 Y68.936 E12.28487
G1 X81.042 Y68.607 E12.32158
G1 X81.67 Y68.419 E12.34775
G1 X82.048 Y68.319 E12.36335
G1 X84.146 Y67.79 E12.44971
G1 X86.567 Y67.105 E12.55013
G1 X88.392 Y66.542 E12.62636
G1 X88.922 Y66.393 E12.64833
G1 X89.547 Y66.235 E12.67406
G1 X89.98 Y66.135 E12.6918
G1 X91.195 Y65.948 E12.74086
G1 X91.793 Y65.891 E12.76484
G1 X92.153 Y65.863 E12.77925
G1 X92.585 Y65.841 E12.79651
G1 X93.041 Y65.829 E12.81472
G1 X93.464 Y65.825 E12.8316
G1 X94.426 Y65.827 E12.87
G1 X95.063 Y65.836 E12.89543
G1 X95.39 Y65.846 E12.90848
G1 X95.612 Y65.856 E12.91735
G1 X96.063 Y65.886 E12.93539
G1 X96.427 Y65.918 E12.94998
G1 X97.546 Y66.077 E12.99509
G1 X100.065 Y66.573 E13.09756
G1 X102.601 Y66.997 E13.20018
G1 X105.076 Y67.341 E13.29991
G1 X107.621 Y67.62 E13.4021
G1 X110.123 Y67.824 E13.50229
G1 X112.62 Y67.956 E13.60209
G1 X116.217 Y68.026 E13.74568
G1 X124.83 Y68.027 E14.08944
G1 X125.526 Y68.037 E14.11722
G1 X126.71 Y68.121 E14.1646
G1 X126.954 Y68.152 E14.17441
G1 X127.861 Y68.307 E14.21114
G1 X128.752 Y68.541 E14.24791
G1 X129.539 Y68.819 E14.28122
G1 X130.756 Y69.305 E14.33352
G1 X131.405 Y69.576 E14.36159
G1 X133.766 Y70.483 E14.46254
G1 X136.173 Y71.332 E14.56441
G1 X138.555 Y72.096 E14.66425
G1 X140.964 Y72.795 E14.76437
G1 X142.011 Y73.063 E14.8075
G1 X143.358 Y73.426 E14.86318
G1 X144.472 Y73.794 E14.91001
G1 X144.709 Y73.887 E14.92017
G1 X145.551 Y74.26 E14.95692
G1 X146.357 Y74.705 E14.99367
G1 X147.197 Y75.274 E15.03416
G1 X147.449 Y75.463 E15.04674
G1 X148.161 Y76.047 E15.08349
G1 X148.819 Y76.69 E15.12021
G1 X149.511 Y77.506 E15.16291
G1 X149.631 Y77.663 E15.1708
G1 X150.158 Y78.418 E15.20755
G1 X150.617 Y79.216 E15.24429
G1 X150.932 Y79.877 E15.27351
G1 X151.061 Y80.174 E15.28644
G1 X151.39 Y81.034 E15.32319
G1 X151.581 Y81.668 E15.34962
G1 X151.681 Y82.048 E15.3653
G1 X152.21 Y84.146 E15.45166
G1 X152.894 Y86.567 E15.55207
G1 X153.456 Y88.385 E15.62801
G1 X153.604 Y88.912 E15.64986
G1 X153.764 Y89.544 E15.67588
G1 X153.865 Y89.98 E15.69374
G1 X154.052 Y91.19 E15.74261
G1 X154.107 Y91.764 E15.76563
G1 X154.132 Y92.07 E15.77788
G1 X154.142 Y92.22 E15.78388
G1 X154.16 Y92.588 E15.79859
G1 X154.171 Y93.041 E15.81667
G1 X154.175 Y93.464 E15.83355
G1 X154.173 Y94.426 E15.87195
G1 X154.164 Y95.062 E15.89734
G1 X154.154 Y95.385 E15.91023
G1 X154.144 Y95.609 E15.91918
G1 X154.114 Y96.069 E15.93758
G1 X154.082 Y96.431 E15.95209
G1 X153.924 Y97.544 E15.99695
G1 X153.423 Y100.092 E16.1006
G1 X153.003 Y102.601 E16.20213
G1 X152.659 Y105.076 E16.30186
G1 X152.38 Y107.621 E16.40405
G1 X152.176 Y110.123 E16.50424
G1 X152.044 Y112.62 E16.60404
G1 X151.974 Y116.217 E16.74763
G1 X151.973 Y124.83 E17.09139
G1 X151.963 Y125.526 E17.11918
G1 X151.879 Y126.715 E17.16675
G1 X151.848 Y126.958 E17.17653
G1 X151.692 Y127.866 E17.2133
G1 X151.458 Y128.756 E17.25003
G1 X151.183 Y129.534 E17.28296
G1 X150.763 Y130.59 E17.32832
G1 X150.424 Y131.405 E17.36355
G1 X149.517 Y133.766 E17.4645
G1 X148.668 Y136.173 E17.56637
G1 X147.904 Y138.555 E17.66621
G1 X147.205 Y140.964 E17.76632
G1 X146.937 Y142.011 E17.80946
G1 X146.574 Y143.358 E17.86514
G1 X146.206 Y144.472 E17.91196
G1 X146.113 Y144.709 E17.92212
G1 X145.74 Y145.551 E17.95888
G1 X145.295 Y146.357 E17.99563
G1 X144.726 Y147.197 E18.03612
G1 X144.537 Y147.449 E18.04869
G1 X143.953 Y148.161 E18.08545
G1 X143.31 Y148.819 E18.12217
G1 X142.486 Y149.517 E18.16527
G1 X142.33 Y149.636 E18.1731
G1 X141.574 Y150.162 E18.20986
G1 X140.776 Y150.62 E18.24658
G1 X140.116 Y150.934 E18.27575
G1 X139.816 Y151.064 E18.2888
G1 X138.956 Y151.393 E18.32555
G1 X138.351 Y151.575 E18.35077
G1 X137.952 Y151.681 E18.36724
G1 X135.854 Y152.21 E18.4536
G1 X133.433 Y152.895 E18.55402
G1 X131.608 Y153.458 E18.63025
G1 X131.078 Y153.607 E18.65222
G1 X130.453 Y153.765 E18.67795
G1 X130.02 Y153.865 E18.69569
G1 X128.805 Y154.052 E18.74475
G1 X128.207 Y154.109 E18.76873
G1 X127.847 Y154.137 E18.78314
G1 X127.415 Y154.159 E18.8004
G1 X126.959 Y154.171 E18.81861
G1 X126.536 Y154.175 E18.83549
G1 X125.574 Y154.173 E18.87389
G1 X124.938 Y154.164 E18.89928
G1 X124.615 Y154.154 E18.91217
G1 X124.391 Y154.144 E18.92112
G1 X123.931 Y154.114 E18.93952
G1 X123.569 Y154.082 E18.95403
G1 X122.456 Y153.924 E18.99889
G1 X119.908 Y153.423 E19.10254
G1 X117.399 Y153.003 E19.20407
G1 X114.924 Y152.659 E19.3038
G1 X112.379 Y152.38 E19.40599
G1 X109.877 Y152.176 E19.50618
G1 X107.38 Y152.044 E19.60598
G1 X103.783 Y151.974 E19.74957
G1 X95.17 Y151.973 E20.09333
G1 X94.474 Y151.963 E20.12111
G1 X93.29 Y151.879 E20.16849
G1 X93.046 Y151.848 E20.17831
G1 X92.139 Y151.693 E20.21503
G1 X91.248 Y151.459 E20.2518
G1 X90.461 Y151.181 E20.28511
G1 X89.244 Y150.695 E20.33742
G1 X88.595 Y150.424 E20.36549
G1 X86.234 Y149.517 E20.46643
G1 X83.827 Y148.668 E20.5683
G1 X81.445 Y147.904 E20.66814
G1 X79.036 Y147.205 E20.76826
G1 X77.989 Y146.937 E20.81139
G1 X76.642 Y146.574 E20.86707
G1 X75.528 Y146.206 E20.9139
G1 X75.291 Y146.113 E20.92406
G1 X74.449 Y145.74 E20.96082
G1 X73.643 Y145.295 E20.99756
G1 X72.803 Y144.726 E21.03806
G1 X72.551 Y144.537 E21.05063
G1 X71.839 Y143.953 E21.08738
G1 X71.181 Y143.31 E21.1241
G1 X70.489 Y142.494 E21.1668
G1 X70.369 Y142.337 E21.17469
G1 X69.842 Y141.582 E21.21144
G1 X69.383 Y140.784 E21.24818
G1 X69.065 Y140.115 E21.27775
G1 X68.935 Y139.815 E21.2908
G1 X68.606 Y138.955 E21.32755
G1 X68.416 Y138.321 E21.35396
G1 X68.319 Y137.952 E21.36919
G1 X67.79 Y135.854 E21.45555
G1 X67.105 Y133.433 E21.55597
G1 X66.542 Y131.608 E21.63219
G1 X66.393 Y131.078 E21.65417
G1 X66.235 Y130.453 E21.6799
G1 X66.135 Y130.02 E21.69763
G1 X65.948 Y128.805 E21.7467
G1 X65.891 Y128.207 E21.77067
G1 X65.853 Y127.66 E21.79256
G1 X65.838 Y127.314 E21.80638
G1 X65.828 Y126.944 E21.82115
G1 X65.825 Y126.483 E21.83955
G1 X65.827 Y125.574 E21.87583
G1 X65.836 Y124.938 E21.90122
G1 X65.845 Y124.632 E21.91344
G1 X65.855 Y124.4 E21.92271
G1 X65.888 Y123.902 E21.94263
G1 X65.92 Y123.548 E21.95681
G1 X66.076 Y122.456 E22.00084
G1 X66.577 Y119.908 E22.10448
G1 X66.997 Y117.399 E22.20602
G1 X67.341 Y114.924 E22.30575
G1 X67.62 Y112.379 E22.40793
G1 X67.824 Y109.877 E22.50813
G1 X67.956 Y107.38 E22.60793
G1 X68.026 Y103.783 E22.75152
G1 X68.027 Y95.157 E23.0958
G1 X68.038 Y94.452 E23.12394
G1 X68.123 Y93.269 E23.17128
G1 X68.153 Y93.035 E23.18069
G1 X68.31 Y92.128 E23.21743
G1 X68.544 Y91.238 E23.25416
G1 X68.817 Y90.466 E23.28684
G1 X69.237 Y89.41 E23.3322
G1 X69.576 Y88.595 E23.36743
G1 X70.483 Y86.234 E23.46838
G1 X71.332 Y83.827 E23.57025
G1 X72.096 Y81.445 E23.67009
G1 X72.795 Y79.036 E23.7702
G1 X73.064 Y77.986 E23.81347
G1 X73.428 Y76.637 E23.86923
G1 X73.791 Y75.534 E23.91558
G1 X73.883 Y75.299 E23.92565
G1 X74.256 Y74.457 E23.96241
G1 X74.7 Y73.65 E23.99917
G1 X75.274 Y72.803 E24.04001
G1 X75.463 Y72.551 E24.05258
G1 X75.625 Y72.353 E24.06279
G0 F1080 X76.047 Y71.839
G0 F6000 X76.356 Y72.093
G1 F1200 X76.989 Y71.449 E24.09883
G1 X77.757 Y70.801 E24.13894
G1 X77.913 Y70.682 E24.14677
G1 X78.654 Y70.167 E24.18278
G1 X79.439 Y69.719 E24.21886
G1 X80.04 Y69.434 E24.24541
G1 X80.342 Y69.303 E24.25854
G1 X81.186 Y68.981 E24.2946
G1 X81.773 Y68.805 E24.31906
G1 X82.146 Y68.707 E24.33445
G1 X84.214 Y68.185 E24.41958
G1 X86.706 Y67.481 E24.52293
G1 X88.51 Y66.924 E24.59829
G1 X89.02 Y66.781 E24.61943
G1 X89.645 Y66.623 E24.64516
G1 X90.064 Y66.526 E24.66232
G1 X91.233 Y66.346 E24.70953
G1 X91.831 Y66.289 E24.7335
G1 X92.177 Y66.262 E24.74736
G1 X92.598 Y66.24 E24.76418
G1 X93.045 Y66.228 E24.78203
G1 X93.463 Y66.225 E24.79871
G1 X94.42 Y66.227 E24.83691
G1 X95.057 Y66.236 E24.86234
G1 X95.372 Y66.245 E24.87491
G1 X95.594 Y66.255 E24.88378
G1 X96.028 Y66.284 E24.90114
G1 X96.392 Y66.316 E24.91573
G1 X97.469 Y66.469 E24.95914
G1 X100.027 Y66.972 E25.06319
G1 X102.517 Y67.389 E25.16396
G1 X105.044 Y67.74 E25.26579
G1 X107.584 Y68.019 E25.36777
G1 X110.067 Y68.221 E25.4672
G1 X112.622 Y68.357 E25.56932
G1 X116.209 Y68.426 E25.71251
G1 X124.825 Y68.427 E26.0564
G1 X125.521 Y68.437 E26.08418
G1 X126.66 Y68.517 E26.12975
G1 X126.904 Y68.548 E26.13957
G1 X127.794 Y68.702 E26.17562
G1 X128.666 Y68.933 E26.21162
G1 X129.391 Y69.19 E26.24232
G1 X130.446 Y69.61 E26.28764
G1 X131.256 Y69.947 E26.32266
G1 X133.656 Y70.87 E26.42529
G1 X136.023 Y71.704 E26.52545
G1 X138.436 Y72.478 E26.62659
G1 X140.872 Y73.185 E26.72783
G1 X141.907 Y73.449 E26.77046
G1 X143.254 Y73.812 E26.82614
G1 X144.326 Y74.166 E26.8712
G1 X144.563 Y74.259 E26.88136
G1 X145.388 Y74.626 E26.9174
G1 X146.178 Y75.064 E26.95345
G1 X146.957 Y75.594 E26.99106
G1 X147.209 Y75.783 E27.00363
G1 X147.907 Y76.356 E27.03967
G1 X148.551 Y76.989 E27.07572
G1 X149.193 Y77.749 E27.11542
G1 X149.313 Y77.906 E27.12331
