;FLAVOR:Marlin
;TIME:2511
;Filament used: 3.39608m
;Layer height: 0.24
;MINX:85.616
;MINY:105.053
;MINZ:0.24
;MAXX:129.616
;MAXY:132.779
;MAXZ:40.08
;Generated with Cura_SteamEngine 4.13.1
M82 ;absolute extrusion mode
START_PRINT BED_TEMP=50 EXTRUDER_TEMP=205
G92 E0
G92 E0
G1 F2400 E-6
;LAYER_COUNT:167
;LAYER:0
M107
;MESH:External_Case.3mf
G0 F7500 X97.901 Y124.752 Z0.24
;TYPE:WALL-INNER
G1 F2400 E0
G1 F1200 X98.598 Y124.795 E0.02787
G1 X116.634 Y124.796 E0.74773
G1 X117.333 Y124.753 E0.77568
G1 X118.039 Y124.622 E0.80434
G1 X118.725 Y124.406 E0.83304
G1 X119.378 Y124.108 E0.86169
G1 X119.989 Y123.734 E0.89028
G1 X120.381 Y123.426 E0.91018
G1 X120.555 Y123.282 E0.91919
G1 X120.903 Y122.933 E0.93887
G1 X121.058 Y122.769 E0.94787
G1 X121.361 Y122.382 E0.96749
G1 X121.495 Y122.199 E0.97654
G1 X121.749 Y121.776 E0.99623
G1 X121.857 Y121.578 E1.00524
G1 X122.059 Y121.13 E1.02485
G1 X122.143 Y120.921 E1.03384
G1 X122.289 Y120.449 E1.05356
G1 X122.346 Y120.23 E1.06259
G1 X122.434 Y119.746 E1.08223
G1 X122.464 Y119.521 E1.09129
G1 X122.492 Y119.03 E1.11091
G1 X122.493 Y118.805 E1.11989
G1 X122.463 Y118.313 E1.13957
G1 X122.436 Y118.089 E1.14857
G1 X122.346 Y117.603 E1.1683
G1 X122.291 Y117.384 E1.17731
G1 X122.142 Y116.913 E1.19703
G1 X122.061 Y116.703 E1.20601
G1 X121.857 Y116.255 E1.22566
G1 X121.752 Y116.058 E1.23457
G1 X121.494 Y115.634 E1.25438
G1 X121.363 Y115.451 E1.26336
G1 X121.057 Y115.064 E1.28305
G1 X120.905 Y114.899 E1.29201
G1 X120.554 Y114.55 E1.31176
G1 X120.383 Y114.407 E1.32066
G1 X119.993 Y114.101 E1.34044
G1 X119.803 Y113.98 E1.34943
G1 X119.379 Y113.726 E1.36916
G1 X119.178 Y113.63 E1.37805
G1 X118.725 Y113.426 E1.39788
G1 X118.512 Y113.357 E1.40682
G1 X118.04 Y113.211 E1.42654
G1 X117.82 Y113.167 E1.43549
G1 X117.334 Y113.079 E1.4552
G1 X117.11 Y113.064 E1.46416
G1 X116.633 Y113.037 E1.48323
G1 X98.598 Y113.036 E2.20305
G1 X97.899 Y113.078 E2.231
G1 X97.193 Y113.209 E2.25966
G1 X96.507 Y113.425 E2.28836
G1 X95.855 Y113.723 E2.31697
G1 X95.243 Y114.096 E2.34558
G1 X94.85 Y114.405 E2.36553
G1 X94.677 Y114.549 E2.37452
G1 X94.329 Y114.898 E2.39419
G1 X94.174 Y115.062 E2.40319
G1 X93.871 Y115.449 E2.42281
G1 X93.737 Y115.632 E2.43186
G1 X93.483 Y116.055 E2.45156
G1 X93.375 Y116.253 E2.46056
G1 X93.173 Y116.701 E2.48017
G1 X93.089 Y116.91 E2.48916
G1 X92.943 Y117.382 E2.50888
G1 X92.886 Y117.601 E2.51791
G1 X92.798 Y118.085 E2.53755
G1 X92.768 Y118.31 E2.54661
G1 X92.74 Y118.802 E2.56628
G1 X92.739 Y119.027 E2.57526
G1 X92.769 Y119.518 E2.59489
G1 X92.796 Y119.742 E2.60389
G1 X92.886 Y120.228 E2.62362
G1 X92.941 Y120.447 E2.63263
G1 X93.09 Y120.918 E2.65235
G1 X93.171 Y121.128 E2.66133
G1 X93.375 Y121.576 E2.68098
G1 X93.48 Y121.773 E2.68989
G1 X93.738 Y122.197 E2.7097
G1 X93.869 Y122.38 E2.71868
G1 X94.175 Y122.767 E2.73837
G1 X94.327 Y122.932 E2.74733
G1 X94.678 Y123.281 E2.76708
G1 X94.849 Y123.424 E2.77598
G1 X95.239 Y123.73 E2.79577
G1 X95.43 Y123.851 E2.80479
G1 X95.854 Y124.105 E2.82452
G1 X96.055 Y124.201 E2.83341
G1 X96.506 Y124.405 E2.85316
G1 X96.72 Y124.474 E2.86214
G1 X97.192 Y124.62 E2.88186
G1 X97.412 Y124.664 E2.89081
G1 X97.901 Y124.752 E2.91064
G0 F7500 X97.949 Y124.354
;TYPE:WALL-OUTER
G1 F1200 X98.61 Y124.395 E2.93707
G1 X116.622 Y124.396 E3.65597
G1 X117.284 Y124.355 E3.68244
G1 X117.942 Y124.233 E3.70915
G1 X118.581 Y124.032 E3.73589
G1 X119.19 Y123.754 E3.76261
G1 X119.76 Y123.405 E3.78929
G1 X120.13 Y123.115 E3.80805
G1 X120.285 Y122.986 E3.8161
G1 X120.616 Y122.655 E3.83478
G1 X120.754 Y122.508 E3.84283
G1 X121.042 Y122.141 E3.86145
G1 X121.161 Y121.978 E3.8695
G1 X121.402 Y121.577 E3.88817
G1 X121.499 Y121.4 E3.89623
G1 X121.691 Y120.973 E3.91492
G1 X121.766 Y120.787 E3.92292
G1 X121.904 Y120.34 E3.94159
G1 X121.955 Y120.144 E3.94968
G1 X122.039 Y119.684 E3.96834
G1 X122.065 Y119.484 E3.97639
G1 X122.092 Y119.017 E3.99506
G1 X122.093 Y118.816 E4.00308
G1 X122.064 Y118.349 E4.02176
G1 X122.04 Y118.149 E4.0298
G1 X121.955 Y117.688 E4.04851
G1 X121.906 Y117.493 E4.05653
G1 X121.765 Y117.046 E4.07524
G1 X121.692 Y116.859 E4.08325
G1 X121.498 Y116.432 E4.10197
G1 X121.404 Y116.256 E4.10993
G1 X121.16 Y115.855 E4.12867
G1 X121.043 Y115.692 E4.13667
G1 X120.753 Y115.324 E4.15538
G1 X120.617 Y115.177 E4.16337
G1 X120.284 Y114.846 E4.18211
G1 X120.131 Y114.718 E4.19007
G1 X119.761 Y114.428 E4.20883
G1 X119.592 Y114.32 E4.21684
G1 X119.19 Y114.079 E4.23554
G1 X119.01 Y113.993 E4.24351
G1 X118.58 Y113.8 E4.26232
G1 X118.391 Y113.738 E4.27026
G1 X117.942 Y113.599 E4.28902
G1 X117.746 Y113.56 E4.29699
G1 X117.284 Y113.477 E4.31573
G1 X117.085 Y113.463 E4.32369
G1 X116.622 Y113.437 E4.3422
G1 X98.61 Y113.436 E5.0611
G1 X97.948 Y113.476 E5.08757
G1 X97.29 Y113.598 E5.11428
G1 X96.651 Y113.799 E5.14101
G1 X96.043 Y114.077 E5.16769
G1 X95.472 Y114.425 E5.19438
G1 X95.102 Y114.716 E5.21317
G1 X94.947 Y114.845 E5.22122
G1 X94.616 Y115.176 E5.2399
G1 X94.478 Y115.323 E5.24795
G1 X94.19 Y115.69 E5.26657
G1 X94.071 Y115.853 E5.27462
G1 X93.83 Y116.254 E5.2933
G1 X93.733 Y116.431 E5.30135
G1 X93.541 Y116.858 E5.32004
G1 X93.466 Y117.044 E5.32804
G1 X93.328 Y117.491 E5.34671
G1 X93.277 Y117.687 E5.3548
G1 X93.193 Y118.147 E5.37346
G1 X93.167 Y118.347 E5.38151
G1 X93.14 Y118.815 E5.40022
G1 X93.139 Y119.016 E5.40824
G1 X93.168 Y119.482 E5.42688
G1 X93.192 Y119.682 E5.43492
G1 X93.277 Y120.143 E5.45363
G1 X93.326 Y120.338 E5.46165
G1 X93.467 Y120.785 E5.48036
G1 X93.54 Y120.972 E5.48837
G1 X93.734 Y121.399 E5.50709
G1 X93.828 Y121.575 E5.51505
G1 X94.072 Y121.976 E5.53379
G1 X94.189 Y122.139 E5.5418
G1 X94.479 Y122.507 E5.5605
G1 X94.615 Y122.654 E5.56849
G1 X94.948 Y122.985 E5.58723
G1 X95.101 Y123.113 E5.59519
G1 X95.471 Y123.403 E5.61395
G1 X95.64 Y123.511 E5.62196
G1 X96.043 Y123.752 E5.6407
G1 X96.223 Y123.838 E5.64866
G1 X96.651 Y124.031 E5.6674
G1 X96.841 Y124.093 E5.67538
G1 X97.29 Y124.232 E5.69414
G1 X97.486 Y124.271 E5.70211
G1 X97.949 Y124.354 E5.72089
G0 F7500 X98.148 Y124.366
G0 X98.12 Y124.805
G1 F2400 E-0.27911
G0 F7500 X116.64 Y124.987
G0 X116.591 Y123.532
G0 X116.64 Y131.901
G0 X116.64 Y130.426
G0 X121.505 Y130.562
;TYPE:WALL-INNER
G1 F2400 E5.72089
G1 F1200 X121.239 Y130.635 E5.7319
G1 X94.015 Y130.636 E6.81847
G1 X93.841 Y130.609 E6.82549
G1 X93.593 Y130.468 E6.83688
G1 X90.334 Y127.208 E7.02086
G1 X89.705 Y126.529 E7.0578
G1 X89.13 Y125.8 E7.09486
G1 X88.623 Y125.04 E7.13132
G1 X88.496 Y124.809 E7.14184
G1 X88.177 Y124.244 E7.16774
G1 X87.785 Y123.394 E7.2051
G1 X87.699 Y123.154 E7.21528
G1 X87.467 Y122.533 E7.24173
G1 X87.217 Y121.65 E7.27836
G1 X87.042 Y120.76 E7.31456
G1 X86.933 Y119.836 E7.3517
G1 X86.896 Y118.915 E7.38849
G1 X86.908 Y118.654 E7.39892
G1 X86.933 Y117.996 E7.4252
G1 X87.041 Y117.077 E7.46213
G1 X87.222 Y116.166 E7.4992
G1 X87.471 Y115.287 E7.53566
G1 X87.783 Y114.442 E7.57161
G1 X88.178 Y113.585 E7.60928
G1 X88.619 Y112.796 E7.64535
G1 X89.134 Y112.026 E7.68232
G1 X89.7 Y111.308 E7.71882
G1 X90.332 Y110.622 E7.75604
G1 X93.585 Y107.372 E7.93957
G1 X93.855 Y107.214 E7.95206
G1 X94.006 Y107.196 E7.95813
G1 X121.21 Y107.196 E9.0439
G1 X121.396 Y107.223 E9.0514
G1 X121.626 Y107.353 E9.06194
G1 X124.898 Y110.623 E9.24657
G1 X125.532 Y111.308 E9.28383
G1 X126.098 Y112.026 E9.32032
G1 X126.609 Y112.791 E9.35703
G1 X126.736 Y113.022 E9.36756
G1 X127.055 Y113.587 E9.39345
G1 X127.447 Y114.437 E9.43081
G1 X127.533 Y114.677 E9.44099
G1 X127.767 Y115.304 E9.4677
G1 X128.013 Y116.176 E9.50386
G1 X128.191 Y117.071 E9.54028
G1 X128.299 Y117.995 E9.57741
G1 X128.336 Y118.912 E9.61404
G1 X128.299 Y119.836 E9.65095
G1 X128.192 Y120.749 E9.68764
G1 X128.011 Y121.66 E9.72471
G1 X127.763 Y122.538 E9.76112
G1 X127.449 Y123.389 E9.79732
G1 X127.054 Y124.246 E9.83499
G1 X126.615 Y125.031 E9.87089
G1 X126.102 Y125.8 E9.90778
G1 X125.527 Y126.529 E9.94484
G1 X124.9 Y127.209 E9.98175
G1 X121.656 Y130.451 E10.1648
G1 X121.505 Y130.562 E10.17228
G0 F7500 X121.682 Y130.928
;TYPE:WALL-OUTER
G1 F1200 X121.309 Y131.031 E10.18773
G1 X121.25 Y131.036 E10.19009
G1 X93.987 Y131.036 E11.27822
G1 X93.706 Y130.993 E11.28956
G1 X93.367 Y130.8 E11.30513
G1 X93.319 Y130.76 E11.30763
G1 X90.051 Y127.491 E11.49211
G1 X89.398 Y126.786 E11.53047
G1 X88.805 Y126.034 E11.56869
G1 X88.284 Y125.253 E11.60616
G1 X88.147 Y125.004 E11.6175
G1 X87.82 Y124.425 E11.64404
G1 X87.415 Y123.547 E11.68264
G1 X87.323 Y123.292 E11.69346
G1 X87.087 Y122.659 E11.72042
G1 X86.83 Y121.751 E11.75808
G1 X86.646 Y120.819 E11.796
G1 X86.533 Y119.86 E11.83454
G1 X86.495 Y118.916 E11.87225
G1 X86.508 Y118.637 E11.88339
G1 X86.533 Y117.971 E11.90999
G1 X86.646 Y117.01 E11.94861
G1 X86.7 Y116.746 E11.95937
G1 X86.831 Y116.077 E11.98658
G1 X87.086 Y115.177 E12.02391
G1 X87.415 Y114.284 E12.0619
G1 X87.82 Y113.406 E12.10049
G1 X88.281 Y112.582 E12.13817
G1 X88.805 Y111.798 E12.17581
G1 X89.398 Y111.045 E12.21406
G1 X90.049 Y110.339 E12.25239
G1 X93.318 Y107.073 E12.43682
G1 X93.503 Y106.927 E12.44623
G1 X93.753 Y106.824 E12.45702
G1 X93.982 Y106.796 E12.46623
G1 X121.241 Y106.796 E13.5542
G1 X121.526 Y106.838 E13.56569
G1 X121.856 Y107.024 E13.58081
G1 X121.917 Y107.076 E13.58401
G1 X125.181 Y110.34 E13.76825
G1 X125.834 Y111.045 E13.8066
G1 X126.427 Y111.798 E13.84485
G1 X126.948 Y112.578 E13.88229
G1 X127.085 Y112.827 E13.89364
G1 X127.412 Y113.406 E13.92018
G1 X127.817 Y114.284 E13.95877
G1 X127.909 Y114.539 E13.96959
G1 X128.147 Y115.178 E13.9968
G1 X128.401 Y116.077 E14.03409
G1 X128.586 Y117.01 E14.07205
G1 X128.699 Y117.971 E14.11067
G1 X128.737 Y118.915 E14.14838
G1 X128.724 Y119.194 E14.15953
G1 X128.699 Y119.86 E14.18613
G1 X128.587 Y120.816 E14.22454
G1 X128.532 Y121.085 E14.2355
G1 X128.402 Y121.749 E14.26251
G1 X128.146 Y122.655 E14.30008
G1 X127.817 Y123.547 E14.33803
G1 X127.412 Y124.425 E14.37662
G1 X126.951 Y125.249 E14.4143
G1 X126.427 Y126.034 E14.45197
G1 X125.834 Y126.786 E14.4902
G1 X125.183 Y127.492 E14.52853
G1 X121.918 Y130.755 E14.71276
G1 X121.682 Y130.928 E14.72444
G0 F7500 X121.489 Y130.981
G0 X121.373 Y130.556
G0 X121.186 Y130.245
;TYPE:SKIN
G1 F1200 X94.048 Y130.246 E15.80758
G1 X93.828 Y130.153 E15.81711
G1 X90.642 Y126.966 E15.99697
G1 X90.004 Y126.278 E16.03442
G1 X89.436 Y125.558 E16.07102
G1 X88.957 Y124.839 E16.1055
G1 X88.837 Y124.62 E16.11547
G1 X88.532 Y124.08 E16.14022
G1 X88.14 Y123.23 E16.17758
G1 X88.065 Y123.02 E16.18648
G1 X87.835 Y122.403 E16.21276
G1 X87.595 Y121.554 E16.24798
G1 X87.43 Y120.713 E16.28218
G1 X87.321 Y119.791 E16.31924
G1 X87.286 Y118.915 E16.35423
G1 X87.298 Y118.67 E16.36402
G1 X87.321 Y118.041 E16.38914
G1 X87.429 Y117.122 E16.42607
G1 X87.6 Y116.263 E16.46103
G1 X87.842 Y115.408 E16.49649
G1 X88.138 Y114.605 E16.53065
G1 X88.525 Y113.764 E16.5676
G1 X88.956 Y112.993 E16.60286
G1 X89.449 Y112.256 E16.63824
G1 X89.991 Y111.569 E16.67317
G1 X90.634 Y110.87 E16.71108
G1 X93.82 Y107.687 E16.89082
G1 X94.036 Y107.586 E16.90034
G1 X121.181 Y107.586 E17.98376
G1 X121.391 Y107.668 E17.99275
G1 X124.59 Y110.865 E18.17326
G1 X125.232 Y111.558 E18.21097
G1 X125.783 Y112.256 E18.24646
G1 X126.276 Y112.994 E18.28188
G1 X126.395 Y113.211 E18.29176
G1 X126.7 Y113.751 E18.31651
G1 X127.092 Y114.601 E18.35387
G1 X127.167 Y114.811 E18.36277
G1 X127.399 Y115.433 E18.38927
G1 X127.634 Y116.267 E18.42385
G1 X127.803 Y117.116 E18.4584
G1 X127.911 Y118.04 E18.49553
G1 X127.946 Y118.912 E18.53036
G1 X127.911 Y119.791 E18.56547
G1 X127.805 Y120.698 E18.60192
G1 X127.633 Y121.566 E18.63724
G1 X127.393 Y122.415 E18.67245
G1 X127.094 Y123.226 E18.70695
G1 X126.707 Y124.067 E18.7439
G1 X126.274 Y124.84 E18.77926
G1 X125.796 Y125.558 E18.81369
G1 X125.236 Y126.268 E18.84978
G1 X124.599 Y126.96 E18.88732
G1 X121.404 Y130.153 E19.0676
G1 X121.186 Y130.245 E19.07705
G1 F2400 E13.07705
G0 F7500 X121.258 Y130.515
G0 X118.765 Y130.426
G0 X118.765 Y131.901
G0 X117.736 Y123.393
G0 X118.086 Y124.807
G0 X118.765 Y124.508
G1 F2400 E19.07705
G0 F7500 X118.865 Y124.771
G1 F1200 X119.561 Y124.453 E19.10759
G1 X120.212 Y124.054 E19.13806
G1 X120.626 Y123.73 E19.15904
G1 X120.818 Y123.57 E19.16902
G1 X121.183 Y123.204 E19.18965
G1 X121.354 Y123.024 E19.19956
G1 X121.671 Y122.618 E19.22012
G1 X121.82 Y122.415 E19.23017
G1 X122.088 Y121.969 E19.25094
G1 X122.206 Y121.752 E19.26079
G1 X122.418 Y121.283 E19.28134
G1 X122.511 Y121.052 E19.29128
G1 X122.664 Y120.556 E19.31199
G1 X122.727 Y120.314 E19.32197
G1 X122.82 Y119.806 E19.34259
G1 X122.852 Y119.558 E19.35257
G1 X122.882 Y119.042 E19.3732
G1 X122.883 Y118.794 E19.38309
G1 X122.851 Y118.278 E19.40373
G1 X122.822 Y118.031 E19.41365
G1 X122.728 Y117.52 E19.43439
G1 X122.667 Y117.277 E19.44439
G1 X122.51 Y116.784 E19.46504
G1 X122.42 Y116.552 E19.47497
G1 X122.207 Y116.082 E19.49557
G1 X122.091 Y115.865 E19.50539
G1 X121.82 Y115.419 E19.52622
G1 X121.675 Y115.217 E19.53614
G1 X121.354 Y114.811 E19.5568
G1 X121.186 Y114.628 E19.56672
G1 X120.817 Y114.261 E19.58749
G1 X120.629 Y114.104 E19.59726
G1 X120.219 Y113.783 E19.61805
G1 X120.008 Y113.648 E19.62804
G1 X119.564 Y113.382 E19.6487
G1 X119.342 Y113.277 E19.6585
G1 X118.866 Y113.062 E19.67935
G1 X118.629 Y112.985 E19.68929
G1 X118.136 Y112.833 E19.70989
G1 X117.893 Y112.784 E19.71978
G1 X117.383 Y112.691 E19.74047
G1 X117.134 Y112.674 E19.75043
G1 X116.644 Y112.647 E19.77002
G1 X98.586 Y112.646 E20.49075
G1 X97.852 Y112.69 E20.5201
G1 X97.099 Y112.83 E20.55067
G1 X96.367 Y113.06 E20.58129
G1 X95.672 Y113.378 E20.6118
G1 X95.02 Y113.775 E20.64226
G1 X94.605 Y114.102 E20.66335
G1 X94.414 Y114.26 E20.67325
G1 X94.049 Y114.627 E20.6939
G1 X93.878 Y114.807 E20.70381
G1 X93.561 Y115.213 E20.72437
G1 X93.412 Y115.416 E20.73442
G1 X93.144 Y115.862 E20.75519
G1 X93.026 Y116.079 E20.76505
G1 X92.814 Y116.548 E20.78559
G1 X92.721 Y116.779 E20.79553
G1 X92.568 Y117.275 E20.81625
G1 X92.505 Y117.517 E20.82623
G1 X92.412 Y118.025 E20.84684
G1 X92.38 Y118.273 E20.85682
G1 X92.35 Y118.79 E20.87749
G1 X92.349 Y119.038 E20.88739
G1 X92.381 Y119.553 E20.90798
G1 X92.41 Y119.8 E20.91791
G1 X92.504 Y120.311 E20.93865
G1 X92.565 Y120.554 E20.94865
G1 X92.722 Y121.047 E20.9693
G1 X92.812 Y121.279 E20.97923
G1 X93.025 Y121.749 E20.99982
G1 X93.141 Y121.966 E21.00964
G1 X93.412 Y122.412 E21.03047
G1 X93.557 Y122.614 E21.0404
G1 X93.878 Y123.02 E21.06105
G1 X94.046 Y123.203 E21.07097
G1 X94.415 Y123.57 E21.09174
G1 X94.603 Y123.727 E21.10152
G1 X95.013 Y124.049 E21.12232
G1 X95.226 Y124.183 E21.13237
G1 X95.669 Y124.449 E21.15299
G1 X95.891 Y124.554 E21.16279
G1 X96.365 Y124.769 E21.18357
G1 X96.603 Y124.846 E21.19355
G1 X97.096 Y124.998 E21.21414
G1 X97.34 Y125.047 E21.22407
G1 X97.854 Y125.14 E21.24492
G1 X98.586 Y125.185 E21.27419
G1 X116.646 Y125.186 E21.99501
G1 X117.38 Y125.141 E22.02436
G1 X118.133 Y125.001 E22.05493
G1 X118.865 Y124.771 E22.08555
G1 F2400 E16.08555
G0 F7500 X118.765 Y124.508
G0 X120.446 Y123.163
G0 X121.232 Y122.286
G0 X121.713 Y121.506
G0 X122.134 Y120.405
G0 X122.303 Y119.506
G0 X122.302 Y118.328
G0 X122.137 Y117.428
G0 X121.712 Y116.326
G0 X121.442 Y115.885
G0 X119.903 Y113.818
G0 X119.129 Y115.051
G0 X124.891 Y108.827
G0 X123.849 Y109.871
G0 X121.522 Y107.491
G0 X121.113 Y107.306
G1 F2400 E22.08555
G0 F7500 X121.113 Y107.945
G1 F1200 X121.19 Y107.975 E22.08885
G1 X124.303 Y111.087 E22.26453
G1 X124.954 Y111.789 E22.30274
G1 X125.499 Y112.478 E22.33781
G1 X125.519 Y112.509
G1 X120.956 Y107.945 E22.59539
G1 X121.113 Y107.945 E22.60166
G1 X120.956 Y107.945
G1 X120.39 Y107.945 E22.62425
G1 X126.395 Y113.95 E22.96319
G1 X126.758 Y114.737 E22.99778
G1 X126.828 Y114.934 E23.00613
G1 X126.836 Y114.957 E23.0071
G1 X119.824 Y107.945 E23.40289
G1 X119.259 Y107.945 E23.42544
G1 X127.133 Y115.819 E23.86988
G1 X127.283 Y116.351 E23.89194
G1 X127.329 Y116.581 E23.9013
G1 X118.693 Y107.945 E24.38876
G1 X118.127 Y107.945 E24.41135
G1 X127.458 Y117.276 E24.93803
G1 X127.533 Y117.917 E24.96379
G1 X117.562 Y107.945 E25.52662
G1 X116.996 Y107.945 E25.54921
G1 X127.57 Y118.519 E26.14605
G1 X127.585 Y118.906 E26.16151
G1 X127.578 Y119.093 E26.16898
G1 X116.43 Y107.945 E26.79822
G1 X115.865 Y107.945 E26.82077
G1 X127.557 Y119.637 E27.48072
G1 X127.552 Y119.748 E27.48515
G1 X127.505 Y120.151 E27.50135
