;FLAVOR:Marlin
;TIME:3042
;Filament used: 1.61486m
;Layer height: 0.24
;MINX:87.463
;MINY:73.336
;MINZ:0.18
;MAXX:136.657
;MAXY:158.738
;MAXZ:34.98
;Generated with Cura_SteamEngine 4.13.1
M82 ;absolute extrusion mode
START_PRINT BED_TEMP=60 EXTRUDER_TEMP=205
G92 E0
G92 E0
G1 F1500 E-6
;LAYER_COUNT:146
;LAYER:0
M107
G0 F6000 X97.946 Y77.554 Z0.18
;TYPE:SKIRT
G1 F1500 E0
G1 F1200 X98.08 Y77.395 E0.00616
G1 X98.714 Y76.705 E0.03393
G1 X99.405 Y76.07 E0.06174
G1 X100.148 Y75.497 E0.08955
G1 X100.936 Y74.99 E0.11732
G1 X101.466 Y74.699 E0.13523
G1 X101.688 Y74.585 E0.14263
G1 X102.54 Y74.192 E0.17044
G1 X103.422 Y73.874 E0.19822
G1 X104.328 Y73.632 E0.22601
G1 X105.349 Y73.455 E0.25672
G1 X105.557 Y73.429 E0.26293
G1 X106.487 Y73.353 E0.29058
G1 X106.878 Y73.342 E0.30218
G1 X107.459 Y73.336 E0.31939
G1 X120.915 Y73.336 E0.71816
G1 X121.851 Y73.348 E0.7459
G1 X122.441 Y73.372 E0.7634
G1 X122.765 Y73.394 E0.77302
G1 X123.316 Y73.446 E0.78942
G1 X123.434 Y73.46 E0.79295
G1 X124.011 Y73.544 E0.81023
G1 X124.312 Y73.596 E0.81928
G1 X124.784 Y73.688 E0.83353
G1 X124.894 Y73.712 E0.83686
G1 X125.555 Y73.878 E0.85706
G1 X125.826 Y73.955 E0.86541
G1 X126.348 Y74.117 E0.88161
G1 X126.475 Y74.16 E0.88558
G1 X126.986 Y74.347 E0.90171
G1 X127.252 Y74.452 E0.91018
G1 X127.85 Y74.709 E0.92947
G1 X127.964 Y74.762 E0.9332
G1 X128.734 Y75.157 E0.95884
G1 X129.099 Y75.363 E0.97126
G1 X129.451 Y75.571 E0.98338
G1 X129.726 Y75.74 E0.99294
G1 X130.728 Y76.435 E1.02908
G1 X130.891 Y76.562 E1.03521
G1 X131.125 Y76.749 E1.04408
G1 X131.284 Y76.88 E1.05019
G1 X131.695 Y77.237 E1.06632
G1 X131.818 Y77.349 E1.07125
G1 X132.278 Y77.793 E1.0902
G1 X132.452 Y77.971 E1.09757
G1 X132.818 Y78.363 E1.11347
G1 X133.096 Y78.687 E1.12612
G1 X133.297 Y78.93 E1.13546
G1 X133.714 Y79.466 E1.15559
G1 X133.872 Y79.683 E1.16354
G1 X134.221 Y80.192 E1.18183
G1 X134.272 Y80.271 E1.18462
G1 X134.513 Y80.663 E1.19826
G1 X134.657 Y80.908 E1.20668
G1 X135.027 Y81.592 E1.22972
G1 X135.162 Y81.864 E1.23872
G1 X135.376 Y82.321 E1.25368
G1 X135.424 Y82.43 E1.25721
G1 X135.686 Y83.08 E1.27798
G1 X135.79 Y83.364 E1.28694
G1 X135.964 Y83.879 E1.30305
G1 X136.006 Y84.014 E1.30724
G1 X136.16 Y84.557 E1.32396
G1 X136.238 Y84.862 E1.33329
G1 X136.361 Y85.397 E1.34956
G1 X136.374 Y85.461 E1.3515
G1 X136.477 Y86.052 E1.36928
G1 X136.523 Y86.365 E1.37865
G1 X136.587 Y86.887 E1.39424
G1 X136.599 Y87.009 E1.39787
G1 X136.641 Y87.599 E1.4154
G1 X136.652 Y87.847 E1.42275
G1 X136.657 Y88.691 E1.44777
G1 X136.641 Y89.184 E1.46238
G1 X136.571 Y90.119 E1.49017
G1 X136.476 Y90.757 E1.50929
G1 X136.386 Y91.262 E1.52449
G1 X136.128 Y92.375 E1.55834
G1 X136.012 Y92.778 E1.57077
G1 X135.779 Y93.494 E1.59309
G1 X135.651 Y93.846 E1.60419
G1 X135.276 Y94.75 E1.63319
G1 X134.966 Y95.409 E1.65477
G1 X134.137 Y97.129 E1.71135
G1 X133.103 Y99.44 E1.78638
G1 X132.121 Y101.808 E1.86235
G1 X131.248 Y104.104 E1.93515
G1 X130.413 Y106.495 E2.0102
G1 X129.654 Y108.888 E2.0846
G1 X128.955 Y111.323 E2.15967
G1 X128.333 Y113.75 E2.23392
G1 X127.767 Y116.244 E2.30971
G1 X127.292 Y118.661 E2.38271
G1 X126.871 Y121.172 E2.45816
G1 X126.53 Y123.634 E2.53182
G1 X126.143 Y127.373 E2.64321
G1 X126.034 Y128.675 E2.68193
G1 X125.997 Y129.047 E2.69301
G1 X125.928 Y129.633 E2.7105
G1 X125.748 Y130.703 E2.74265
G1 X125.634 Y131.223 E2.75843
G1 X125.468 Y131.882 E2.77857
G1 X125.307 Y132.442 E2.79583
G1 X124.705 Y134.433 E2.85748
G1 X124.044 Y136.871 E2.93233
G1 X123.457 Y139.296 E3.00627
G1 X122.933 Y141.78 E3.08151
G1 X122.484 Y144.241 E3.15564
G1 X122.1 Y146.75 E3.23086
G1 X121.999 Y147.526 E3.25405
G1 X121.833 Y148.474 E3.28257
G1 X121.768 Y148.769 E3.29152
G1 X121.61 Y149.398 E3.31074
G1 X121.595 Y149.451 E3.31238
G1 X121.128 Y150.774 E3.35395
G1 X120.985 Y151.109 E3.36475
G1 X120.58 Y151.955 E3.39254
G1 X120.061 Y152.831 E3.42272
G1 X119.9 Y153.076 E3.43141
G1 X119.352 Y153.837 E3.4592
G1 X118.979 Y154.286 E3.4765
G1 X118.844 Y154.44 E3.48256
G1 X118.196 Y155.118 E3.51036
G1 X117.703 Y155.564 E3.53006
G1 X117.528 Y155.713 E3.53687
G1 X116.767 Y156.306 E3.56546
G1 X116.553 Y156.458 E3.57324
G1 X115.702 Y157.005 E3.60322
G1 X115.652 Y157.034 E3.60493
G1 X114.767 Y157.495 E3.6345
G1 X114.556 Y157.593 E3.6414
G1 X113.546 Y158.003 E3.6737
G1 X113.354 Y158.07 E3.67973
G1 X112.456 Y158.341 E3.70753
G1 X111.988 Y158.45 E3.72177
G1 X111.783 Y158.493 E3.72797
G1 X110.858 Y158.646 E3.75576
G1 X110.303 Y158.699 E3.77228
G1 X110.049 Y158.717 E3.77983
G1 X108.871 Y158.738 E3.81474
G1 X108.761 Y158.734 E3.818
G1 X107.805 Y158.657 E3.84643
G1 X107.483 Y158.617 E3.85604
G1 X106.558 Y158.462 E3.88384
G1 X105.567 Y158.203 E3.91419
G1 X105.307 Y158.122 E3.92226
G1 X104.212 Y157.716 E3.95687
G1 X103.997 Y157.623 E3.96381
G1 X102.752 Y156.988 E4.00523
G1 X102.548 Y156.867 E4.01226
G1 X101.519 Y156.175 E4.04901
G1 X101.416 Y156.097 E4.05283
G1 X100.693 Y155.5 E4.08062
G1 X100.348 Y155.175 E4.09467
G1 X100.121 Y154.952 E4.1041
G1 X99.481 Y154.267 E4.13188
G1 X98.879 Y153.499 E4.1608
G1 X98.744 Y153.31 E4.16768
G1 X98.167 Y152.413 E4.19929
G1 X98.017 Y152.153 E4.20818
G1 X97.583 Y151.321 E4.23599
G1 X97.221 Y150.452 E4.26389
G1 X97.139 Y150.229 E4.27093
G1 X96.81 Y149.174 E4.30368
G1 X96.757 Y148.968 E4.30998
G1 X96.526 Y147.818 E4.34474
G1 X96.507 Y147.688 E4.34864
G1 X96.414 Y146.802 E4.37504
G1 X96.31 Y145.19 E4.42291
G1 X96.286 Y144.917 E4.43103
G1 X96.225 Y143.899 E4.46125
G1 X95.999 Y141.363 E4.5367
G1 X95.703 Y138.845 E4.61184
G1 X95.346 Y136.399 E4.68509
G1 X94.909 Y133.904 E4.76016
G1 X94.309 Y131.032 E4.84711
G1 X94.204 Y130.507 E4.86297
G1 X94.082 Y129.766 E4.88523
G1 X94.035 Y129.404 E4.89605
G1 X93.996 Y129.071 E4.90598
G1 X93.874 Y127.833 E4.94285
G1 X93.584 Y125.285 E5.01884
G1 X93.229 Y122.782 E5.09376
G1 X92.8 Y120.28 E5.16899
G1 X92.316 Y117.862 E5.24207
G1 X91.744 Y115.38 E5.31755
G1 X91.121 Y112.984 E5.39092
G1 X90.404 Y110.514 E5.46714
G1 X89.637 Y108.129 E5.54138
G1 X88.702 Y105.49 E5.62435
G1 X88.337 Y104.503 E5.65553
G1 X88.149 Y103.953 E5.67276
G1 X88.116 Y103.847 E5.67605
G1 X87.968 Y103.326 E5.6921
G1 X87.896 Y103.047 E5.70064
G1 X87.761 Y102.455 E5.71863
G1 X87.74 Y102.35 E5.72181
G1 X87.593 Y101.405 E5.75015
G1 X87.538 Y100.909 E5.76494
G1 X87.495 Y100.429 E5.77922
G1 X87.465 Y99.694 E5.80102
G1 X87.463 Y99.411 E5.80941
G1 X87.469 Y98.959 E5.8228
G1 X87.474 Y98.812 E5.82716
G1 X87.516 Y98.155 E5.84667
G1 X87.54 Y97.9 E5.85426
G1 X87.594 Y97.437 E5.86807
G1 X87.628 Y97.189 E5.87549
G1 X87.848 Y96.039 E5.91019
G1 X87.976 Y95.522 E5.92597
G1 X88.249 Y94.596 E5.95458
G1 X88.284 Y94.494 E5.95778
G1 X88.467 Y94.002 E5.97334
G1 X88.589 Y93.695 E5.98313
G1 X88.883 Y93.021 E6.00492
G1 X88.935 Y92.912 E6.0085
G1 X89.127 Y92.528 E6.02122
G1 X89.32 Y92.161 E6.03351
G1 X89.469 Y91.888 E6.04272
G1 X89.773 Y91.349 E6.06106
G1 X96.533 Y79.641 E6.46171
G1 X96.903 Y79.019 E6.48316
G1 X97.403 Y78.255 E6.51021
G0 F1080 X97.417 Y78.234
G0 X97.946 Y77.554
G0 F6000 X98.252 Y77.812
G1 F1200 X98.386 Y77.653 E6.51638
G1 X99.009 Y76.975 E6.54366
G1 X99.689 Y76.355 E6.57093
G1 X100.42 Y75.795 E6.59822
G1 X101.197 Y75.301 E6.62551
G1 X101.649 Y75.055 E6.64076
G1 X101.871 Y74.941 E6.64815
G1 X102.707 Y74.556 E6.67543
G1 X103.574 Y74.245 E6.70273
G1 X104.464 Y74.011 E6.73
G1 X105.398 Y73.852 E6.75807
G1 X105.606 Y73.826 E6.76429
G1 X106.503 Y73.752 E6.79096
G1 X106.882 Y73.742 E6.80219
G1 X107.459 Y73.736 E6.8193
G1 X120.915 Y73.736 E7.21806
G1 X121.845 Y73.748 E7.24562
G1 X122.414 Y73.771 E7.2625
G1 X122.738 Y73.793 E7.27212
G1 X123.269 Y73.843 E7.28793
G1 X123.387 Y73.857 E7.29145
G1 X123.942 Y73.938 E7.30807
G1 X124.243 Y73.99 E7.31712
G1 X124.699 Y74.079 E7.33089
G1 X124.809 Y74.103 E7.33423
G1 X125.446 Y74.263 E7.35369
G1 X125.717 Y74.34 E7.36204
G1 X126.219 Y74.496 E7.37762
G1 X126.346 Y74.539 E7.38159
G1 X126.839 Y74.719 E7.39715
G1 X127.105 Y74.824 E7.40562
G1 X127.682 Y75.072 E7.42423
G1 X127.796 Y75.125 E7.42796
G1 X128.537 Y75.506 E7.45265
G1 X128.902 Y75.712 E7.46507
G1 X129.242 Y75.912 E7.47676
G1 X129.517 Y76.081 E7.48633
G1 X130.482 Y76.75 E7.52112
G1 X130.645 Y76.877 E7.52725
G1 X131.029 Y77.189 E7.54191
G1 X131.426 Y77.532 E7.55746
G1 X131.549 Y77.644 E7.56239
G1 X131.992 Y78.072 E7.58064
G1 X132.166 Y78.25 E7.58802
G1 X132.52 Y78.63 E7.60341
G1 X132.788 Y78.942 E7.6156
G1 X132.989 Y79.185 E7.62494
G1 X133.39 Y79.702 E7.64433
G1 X133.548 Y79.919 E7.65229
G1 X133.884 Y80.409 E7.6699
G1 X133.935 Y80.488 E7.67268
G1 X134.168 Y80.866 E7.68584
G1 X134.312 Y81.111 E7.69426
G1 X134.669 Y81.769 E7.71645
G1 X134.804 Y82.041 E7.72545
G1 X135.01 Y82.482 E7.73987
G1 X135.058 Y82.591 E7.7434
G1 X135.311 Y83.218 E7.76344
G1 X135.415 Y83.502 E7.7724
G1 X135.582 Y83.998 E7.78791
G1 X135.624 Y84.133 E7.7921
G1 X135.772 Y84.656 E7.80821
G1 X135.85 Y84.961 E7.81754
G1 X135.969 Y85.477 E7.83323
G1 X135.982 Y85.541 E7.83517
G1 X136.081 Y86.11 E7.85228
G1 X136.127 Y86.423 E7.86166
G1 X136.189 Y86.926 E7.87668
G1 X136.201 Y87.048 E7.88031
G1 X136.242 Y87.616 E7.89718
G1 X136.253 Y87.864 E7.90454
G1 X136.257 Y88.678 E7.92866
G1 X136.241 Y89.171 E7.94328
G1 X136.172 Y90.089 E7.97056
G1 X136.083 Y90.687 E7.98848
G1 X135.993 Y91.192 E8.00368
G1 X135.743 Y92.264 E8.0363
G1 X135.627 Y92.667 E8.04873
G1 X135.403 Y93.357 E8.07023
G1 X135.275 Y93.709 E8.08133
G1 X134.914 Y94.58 E8.10927
G1 X134.606 Y95.236 E8.13075
G1 X133.764 Y96.984 E8.18824
G1 X132.732 Y99.289 E8.26309
G1 X131.761 Y101.632 E8.33825
G1 X130.861 Y103.998 E8.41326
G1 X130.041 Y106.348 E8.48702
G1 X129.264 Y108.794 E8.56308
G1 X128.568 Y111.219 E8.63785
G1 X127.948 Y113.642 E8.71196
G1 X127.379 Y116.143 E8.78797
G1 X126.892 Y118.624 E8.8629
G1 X126.48 Y121.082 E8.93676
G1 X126.135 Y123.569 E9.01117
G1 X125.739 Y127.393 E9.1251
G1 X125.635 Y128.642 E9.16224
G1 X125.599 Y129.001 E9.17293
G1 X125.53 Y129.587 E9.19042
G1 X125.357 Y130.617 E9.22137
G1 X125.243 Y131.137 E9.23714
G1 X125.083 Y131.772 E9.25655
G1 X124.924 Y132.326 E9.27363
G1 X124.325 Y134.309 E9.33502
G1 X123.661 Y136.753 E9.41007
G1 X123.057 Y139.249 E9.48618
G1 X122.547 Y141.669 E9.55947
G1 X122.089 Y144.18 E9.63511
G1 X121.699 Y146.725 E9.71141
G1 X121.602 Y147.474 E9.73379
G1 X121.443 Y148.388 E9.76128
G1 X121.378 Y148.683 E9.77024
G1 X121.225 Y149.289 E9.78876
G1 X121.21 Y149.342 E9.79039
G1 X120.76 Y150.616 E9.83043
G1 X120.617 Y150.951 E9.84122
G1 X120.219 Y151.782 E9.86853
G1 X119.726 Y152.611 E9.89711
G1 X119.565 Y152.856 E9.9058
G1 X119.027 Y153.603 E9.93308
G1 X118.678 Y154.022 E9.94924
G1 X118.543 Y154.176 E9.95531
G1 X117.907 Y154.842 E9.9826
G1 X117.444 Y155.26 E10.00109
G1 X117.269 Y155.409 E10.0079
G1 X116.535 Y155.98 E10.03546
G1 X116.321 Y156.132 E10.04324
G1 X115.501 Y156.659 E10.07212
G1 X115.451 Y156.688 E10.07384
G1 X114.598 Y157.133 E10.10235
G1 X114.387 Y157.231 E10.10924
G1 X113.414 Y157.625 E10.14035
G1 X113.222 Y157.692 E10.14638
G1 X111.906 Y158.058 E10.18686
G1 X111.701 Y158.101 E10.19306
G1 X110.793 Y158.251 E10.22034
G1 X110.274 Y158.3 E10.23579
G1 X110.02 Y158.318 E10.24333
G1 X108.886 Y158.338 E10.27694
G1 X108.776 Y158.334 E10.2802
G1 X107.854 Y158.26 E10.30762
G1 X107.532 Y158.22 E10.31723
G1 X106.624 Y158.067 E10.34452
G1 X105.686 Y157.821 E10.37326
G1 X105.426 Y157.74 E10.38133
G1 X104.371 Y157.349 E10.41467
G1 X104.156 Y157.256 E10.42161
G1 X102.956 Y156.644 E10.46153
G1 X102.752 Y156.523 E10.46856
G1 X101.761 Y155.856 E10.50396
G1 X101.658 Y155.778 E10.50779
G1 X100.629 Y154.89 E10.54807
G1 X100.402 Y154.667 E10.5575
G1 X99.773 Y153.994 E10.5848
G1 X99.204 Y153.266 E10.61218
G1 X99.069 Y153.077 E10.61906
G1 X98.513 Y152.213 E10.64951
G1 X98.363 Y151.953 E10.65841
G1 X97.938 Y151.136 E10.6857
G1 X97.596 Y150.314 E10.71208
G1 X97.514 Y150.091 E10.71912
G1 X97.197 Y149.074 E10.75069
G1 X97.144 Y148.868 E10.757
G1 X96.921 Y147.76 E10.79049
G1 X96.902 Y147.63 E10.79438
G1 X96.813 Y146.776 E10.81983
G1 X96.7 Y145.017 E10.87206
G1 X96.685 Y144.893 E10.87576
G1 X96.622 Y143.839 E10.90706
G1 X96.4 Y141.351 E10.98108
G1 X96.102 Y138.817 E11.05669
G1 X95.735 Y136.304 E11.13195
G1 X95.304 Y133.844 E11.20597
G1 X94.701 Y130.954 E11.29345
G1 X94.596 Y130.429 E11.30932
G1 X94.478 Y129.715 E11.33077
G1 X94.431 Y129.353 E11.34158
G1 X94.394 Y129.031 E11.35119
G1 X94.266 Y127.737 E11.38972
G1 X93.984 Y125.255 E11.46375
G1 X93.621 Y122.696 E11.54035
G1 X93.199 Y120.241 E11.61417
G1 X92.71 Y117.792 E11.68817
G1 X92.129 Y115.27 E11.76487
G1 X91.495 Y112.834 E11.83947
G1 X90.796 Y110.427 E11.91374
G1 X90.015 Y108 E11.9893
G1 X89.083 Y105.365 E12.07213
G1 X88.712 Y104.364 E12.10376
G1 X88.531 Y103.834 E12.12036
G1 X88.498 Y103.728 E12.12365
G1 X88.355 Y103.226 E12.13912
G1 X88.283 Y102.947 E12.14766
G1 X88.153 Y102.377 E12.16498
G1 X88.132 Y102.272 E12.16816
G1 X87.991 Y101.361 E12.19548
G1 X87.936 Y100.865 E12.21027
G1 X87.894 Y100.399 E12.22413
G1 X87.865 Y99.691 E12.24513
G1 X87.863 Y99.408 E12.25352
G1 X87.869 Y98.973 E12.26641
G1 X87.874 Y98.826 E12.27077
G1 X87.915 Y98.193 E12.28957
G1 X87.939 Y97.938 E12.29716
G1 X87.99 Y97.491 E12.31049
G1 X88.024 Y97.243 E12.31791
G1 X88.237 Y96.136 E12.35132
G1 X88.365 Y95.619 E12.3671
G1 X88.628 Y94.726 E12.39469
G1 X88.663 Y94.624 E12.39788
G1 X88.838 Y94.149 E12.41288
G1 X88.96 Y93.842 E12.42267
G1 X89.244 Y93.193 E12.44367
G1 X89.296 Y93.084 E12.44725
G1 X89.481 Y92.714 E12.45951
G1 X89.674 Y92.347 E12.47179
G1 X89.817 Y92.084 E12.48067
G1 X90.119 Y91.549 E12.49887
G1 X96.877 Y79.846 E12.89936
G1 X97.247 Y79.224 E12.92081
G1 X97.712 Y78.515 E12.94593
G0 F1080 X97.752 Y78.454
G0 X98.252 Y77.812
G0 F6000 X98.557 Y78.07
G1 F1200 X98.691 Y77.911 E12.9521
G1 X99.303 Y77.247 E12.97886
G1 X99.972 Y76.639 E13.00565
G1 X100.691 Y76.093 E13.0324
G1 X101.832 Y75.41 E13.07181
G1 X102.054 Y75.296 E13.07921
G1 X102.874 Y74.92 E13.10594
G1 X103.725 Y74.617 E13.13271
G1 X104.6 Y74.391 E13.15949
G1 X105.448 Y74.249 E13.18497
G1 X105.656 Y74.223 E13.19118
G1 X106.519 Y74.152 E13.21684
G1 X106.887 Y74.142 E13.22775
G1 X107.459 Y74.136 E13.2447
G1 X120.915 Y74.136 E13.64347
G1 X121.84 Y74.148 E13.67089
G1 X122.387 Y74.17 E13.68711
G1 X122.711 Y74.192 E13.69673
G1 X123.222 Y74.24 E13.71194
G1 X123.34 Y74.254 E13.71546
G1 X123.874 Y74.332 E13.73146
G1 X124.175 Y74.384 E13.74051
G1 X124.613 Y74.469 E13.75373
G1 X124.723 Y74.493 E13.75707
G1 X125.337 Y74.647 E13.77583
G1 X125.608 Y74.724 E13.78418
G1 X126.091 Y74.875 E13.79917
G1 X126.218 Y74.918 E13.80315
G1 X126.692 Y75.091 E13.8181
G1 X126.958 Y75.196 E13.82657
G1 X127.513 Y75.435 E13.84448
G1 X127.627 Y75.488 E13.84821
G1 X128.34 Y75.854 E13.87196
G1 X128.705 Y76.06 E13.88438
G1 X129.033 Y76.253 E13.89566
G1 X129.308 Y76.422 E13.90522
G1 X130.236 Y77.066 E13.9387
G1 X130.399 Y77.193 E13.94482
G1 X130.616 Y77.367 E13.95306
G1 X130.775 Y77.498 E13.95917
G1 X131.156 Y77.828 E13.97411
G1 X131.279 Y77.94 E13.97904
G1 X131.706 Y78.352 E13.99662
G1 X131.88 Y78.53 E14.004
G1 X132.221 Y78.897 E14.01884
G1 X132.48 Y79.197 E14.03059
G1 X132.681 Y79.44 E14.03993
G1 X133.067 Y79.937 E14.05858
G1 X133.225 Y80.154 E14.06654
G1 X133.548 Y80.626 E14.08349
G1 X133.599 Y80.705 E14.08627
G1 X133.824 Y81.069 E14.09895
G1 X133.968 Y81.314 E14.10738
G1 X134.311 Y81.947 E14.12871
G1 X134.446 Y82.219 E14.13771
G1 X134.644 Y82.643 E14.15158
G1 X134.692 Y82.752 E14.15511
G1 X134.935 Y83.356 E14.1744
G1 X135.039 Y83.64 E14.18336
G1 X135.201 Y84.117 E14.19829
G1 X135.243 Y84.252 E14.20248
G1 X135.385 Y84.755 E14.21797
G1 X135.463 Y85.06 E14.2273
G1 X135.577 Y85.557 E14.24241
G1 X135.59 Y85.621 E14.24435
G1 X135.686 Y86.168 E14.26081
G1 X135.732 Y86.481 E14.27018
G1 X135.791 Y86.966 E14.28466
G1 X135.803 Y87.088 E14.28829
G1 X135.842 Y87.634 E14.30451
G1 X135.853 Y87.882 E14.31187
G1 X135.858 Y88.665 E14.33508
G1 X135.842 Y89.158 E14.34969
G1 X135.772 Y90.058 E14.37644
G1 X135.689 Y90.617 E14.39319
G1 X135.599 Y91.122 E14.40839
G1 X135.359 Y92.153 E14.43976
G1 X135.243 Y92.556 E14.45219
G1 X135.027 Y93.221 E14.47291
G1 X134.899 Y93.573 E14.48401
G1 X134.551 Y94.411 E14.5109
G1 X134.246 Y95.062 E14.53221
G1 X133.403 Y96.812 E14.58977
G1 X132.37 Y99.122 E14.66476
G1 X131.382 Y101.502 E14.74113
G1 X130.493 Y103.841 E14.81528
