;FLAVOR:Marlin
;TIME:5677
;Filament used: 4.49801m
;Layer height: 0.24
;MINX:62.763
;MINY:39.755
;MINZ:0.18
;MAXX:130.363
;MAXY:145.627
;MAXZ:12.9
;Generated with Cura_SteamEngine 4.13.1
M82 ;absolute extrusion mode
START_PRINT BED_TEMP=55 EXTRUDER_TEMP=205
G92 E0
G92 E0
G1 F1500 E-6
;LAYER_COUNT:54
;LAYER:0
M107
G0 F6000 X64.768 Y44.533 Z0.18
;TYPE:SKIRT
G1 F1500 E0
G1 F1200 X65.339 Y43.789 E0.02779
G1 X65.971 Y43.096 E0.05559
G1 X66.66 Y42.46 E0.08338
G1 X67.399 Y41.885 E0.11112
G1 X67.52 Y41.799 E0.11552
G1 X68.307 Y41.289 E0.14331
G1 X69.135 Y40.847 E0.17113
G1 X69.997 Y40.478 E0.19892
G1 X70.887 Y40.184 E0.22669
G1 X71.8 Y39.966 E0.25451
G1 X72.727 Y39.827 E0.28229
G1 X73.551 Y39.77 E0.30677
G1 X73.808 Y39.762 E0.31439
G1 X74.322 Y39.755 E0.32962
G1 X100.222 Y39.755 E1.09716
G1 X101.081 Y39.766 E1.12262
G1 X102.018 Y39.819 E1.15043
G1 X102.946 Y39.952 E1.17821
G1 X103.86 Y40.164 E1.20602
G1 X104.752 Y40.452 E1.2338
G1 X105.617 Y40.816 E1.26161
G1 X106.447 Y41.252 E1.28939
G1 X107.285 Y41.79 E1.3189
G1 X107.412 Y41.88 E1.32352
G1 X108.154 Y42.455 E1.35133
G1 X108.724 Y42.973 E1.37416
G1 X109.332 Y43.565 E1.39931
G1 X111.258 Y45.391 E1.47796
G1 X113.159 Y47.091 E1.55354
G1 X115.077 Y48.712 E1.62796
G1 X117.019 Y50.26 E1.70155
G1 X119.061 Y51.797 E1.77729
G1 X120.781 Y53.024 E1.83991
G1 X120.987 Y53.168 E1.84735
G1 X121.733 Y53.737 E1.87516
G1 X122.427 Y54.368 E1.90296
G1 X123.065 Y55.055 E1.93074
G1 X123.642 Y55.795 E1.95855
G1 X124.154 Y56.58 E1.98632
G1 X124.597 Y57.407 E2.01412
G1 X124.968 Y58.268 E2.04191
G1 X125.265 Y59.158 E2.06971
G1 X125.484 Y60.07 E2.09751
G1 X125.625 Y60.997 E2.1253
G1 X125.685 Y61.848 E2.15058
G1 X125.695 Y62.172 E2.16018
G1 X125.7 Y62.511 E2.17023
G1 X125.7 Y70.747 E2.4143
G1 X125.737 Y73.355 E2.4916
G1 X125.844 Y75.876 E2.56637
G1 X126.021 Y78.371 E2.6405
G1 X126.269 Y80.871 E2.71495
G1 X126.588 Y83.364 E2.78943
G1 X126.979 Y85.857 E2.86421
G1 X127.442 Y88.347 E2.93927
G1 X127.972 Y90.811 E3.01396
G1 X128.561 Y93.213 E3.08725
G1 X129.237 Y95.67 E3.16277
G1 X129.729 Y97.279 E3.21263
G1 X129.905 Y97.877 E3.2311
G1 X130.132 Y98.787 E3.2589
G1 X130.28 Y99.714 E3.28672
G1 X130.348 Y100.652 E3.31459
G1 X130.358 Y100.984 E3.32443
G1 X130.363 Y101.315 E3.33424
G1 X130.362 Y113.435 E3.69342
G1 X130.352 Y114.136 E3.71419
G1 X130.299 Y115.072 E3.74197
G1 X130.166 Y116.001 E3.76979
G1 X129.954 Y116.914 E3.79756
G1 X129.666 Y117.807 E3.82537
G1 X129.302 Y118.671 E3.85315
G1 X128.866 Y119.502 E3.88096
G1 X128.361 Y120.292 E3.90875
G1 X127.791 Y121.036 E3.93652
G1 X127.159 Y121.729 E3.96432
G1 X126.515 Y122.328 E3.99038
G1 X126.382 Y122.442 E3.99557
G1 X124.402 Y124.187 E4.07379
G1 X122.563 Y125.902 E4.14831
G1 X120.781 Y127.66 E4.22249
G1 X119.014 Y129.505 E4.29819
G1 X117.364 Y131.329 E4.37108
G1 X115.701 Y133.275 E4.44694
G1 X114.131 Y135.221 E4.52104
G1 X112.607 Y137.224 E4.59563
G1 X111.132 Y139.279 E4.67059
G1 X110.614 Y140.045 E4.69799
G1 X110.08 Y140.812 E4.72569
G1 X109.511 Y141.558 E4.75349
G1 X108.882 Y142.253 E4.78127
G1 X108.195 Y142.892 E4.80908
G1 X107.582 Y143.379 E4.83228
G1 X107.46 Y143.469 E4.83677
G1 X106.682 Y143.993 E4.86457
G1 X105.863 Y144.449 E4.89235
G1 X105.007 Y144.833 E4.92015
G1 X104.122 Y145.144 E4.94795
G1 X103.214 Y145.377 E4.97573
G1 X102.289 Y145.533 E5.00353
G1 X101.267 Y145.612 E5.03391
G1 X100.797 Y145.624 E5.04784
G1 X100.497 Y145.627 E5.05673
G1 X74.441 Y145.626 E5.82889
G1 X73.737 Y145.616 E5.84976
G1 X72.8 Y145.563 E5.87757
G1 X71.872 Y145.43 E5.90535
G1 X70.958 Y145.218 E5.93316
G1 X70.066 Y144.93 E5.96094
G1 X69.201 Y144.566 E5.98875
G1 X68.371 Y144.13 E6.01653
G1 X67.436 Y143.523 E6.04957
G1 X67.316 Y143.436 E6.05396
G1 X66.581 Y142.853 E6.08176
G1 X65.898 Y142.21 E6.10956
G1 X65.273 Y141.512 E6.13732
G1 X64.709 Y140.762 E6.16513
G1 X64.211 Y139.968 E6.19291
G1 X63.782 Y139.133 E6.22073
G1 X63.427 Y138.265 E6.24852
G1 X63.146 Y137.371 E6.27629
G1 X62.943 Y136.455 E6.3041
G1 X62.818 Y135.525 E6.3319
G1 X62.779 Y134.889 E6.35079
G1 X62.771 Y134.644 E6.35805
G1 X62.765 Y134.368 E6.36623
G1 X62.763 Y134.021 E6.37652
G1 X62.763 Y97.093 E7.47087
G1 X62.781 Y95.854 E7.50759
G1 X62.836 Y93.92 E7.56493
G1 X62.836 Y91.41 E7.63931
G1 X62.788 Y89.445 E7.69756
G1 X62.773 Y89.009 E7.71049
G1 X62.767 Y88.752 E7.71811
G1 X62.763 Y88.361 E7.7297
G1 X62.763 Y51.361 E8.82618
G1 X62.773 Y50.688 E8.84613
G1 X62.827 Y49.751 E8.87394
G1 X62.961 Y48.823 E8.90173
G1 X63.173 Y47.909 E8.92953
G1 X63.462 Y47.017 E8.95732
G1 X63.826 Y46.153 E8.9851
G1 X64.262 Y45.323 E9.01289
G1 X64.29 Y45.28 E9.01441
G0 F1080 X64.768 Y44.533
G0 F6000 X65.164 Y44.666
G1 F1200 X65.733 Y43.942 E9.0417
G1 X66.363 Y43.271 E9.06897
G1 X67.048 Y42.656 E9.09625
G1 X67.631 Y42.211 E9.11799
G1 X67.752 Y42.125 E9.12239
G1 X68.525 Y41.625 E9.14967
G1 X69.338 Y41.193 E9.17695
G1 X70.186 Y40.834 E9.20424
G1 X71.062 Y40.55 E9.23153
G1 X71.959 Y40.343 E9.25882
G1 X72.87 Y40.214 E9.28608
G1 X73.563 Y40.17 E9.30666
G1 X74.027 Y40.158 E9.32042
G1 X74.322 Y40.155 E9.32916
G1 X100.222 Y40.155 E10.0967
G1 X101.076 Y40.166 E10.12201
G1 X101.995 Y40.219 E10.14929
G1 X102.906 Y40.352 E10.17657
G1 X103.802 Y40.563 E10.20385
G1 X104.676 Y40.851 E10.23112
G1 X105.523 Y41.214 E10.25843
G1 X106.334 Y41.649 E10.2857
G1 X107.054 Y42.116 E10.31114
G1 X107.181 Y42.206 E10.31575
G1 X107.908 Y42.771 E10.34303
G1 X108.445 Y43.259 E10.36454
G1 X109.108 Y43.905 E10.39197
G1 X110.999 Y45.697 E10.46918
G1 X112.88 Y47.379 E10.54395
G1 X114.815 Y49.015 E10.61905
G1 X116.792 Y50.591 E10.69397
G1 X118.809 Y52.109 E10.76878
G1 X120.543 Y53.346 E10.8319
G1 X120.758 Y53.496 E10.83967
G1 X121.49 Y54.055 E10.86697
G1 X122.17 Y54.676 E10.89426
G1 X122.793 Y55.353 E10.92152
G1 X123.356 Y56.082 E10.94882
G1 X123.853 Y56.857 E10.9761
G1 X124.281 Y57.672 E11.00338
G1 X124.636 Y58.522 E11.03068
G1 X124.917 Y59.399 E11.05797
G1 X125.12 Y60.296 E11.08523
G1 X125.245 Y61.209 E11.11254
G1 X125.285 Y61.86 E11.13186
G1 X125.295 Y62.184 E11.14147
G1 X125.3 Y62.511 E11.15116
G1 X125.3 Y70.753 E11.39541
G1 X125.337 Y73.378 E11.47321
G1 X125.444 Y75.886 E11.5476
G1 X125.622 Y78.406 E11.62247
G1 X125.871 Y80.921 E11.69736
G1 X126.19 Y83.41 E11.77173
G1 X126.591 Y85.962 E11.84829
G1 X127.043 Y88.393 E11.92156
G1 X127.579 Y90.885 E11.9971
G1 X128.181 Y93.342 E12.07207
G1 X128.854 Y95.788 E12.14725
G1 X129.346 Y97.392 E12.19697
G1 X129.522 Y97.99 E12.21544
G1 X129.743 Y98.884 E12.24273
G1 X129.886 Y99.793 E12.27
G1 X129.948 Y100.664 E12.29588
G1 X129.958 Y100.996 E12.30572
G1 X129.963 Y101.315 E12.31518
G1 X129.962 Y113.429 E12.67417
G1 X129.952 Y114.13 E12.69495
G1 X129.899 Y115.049 E12.72223
G1 X129.766 Y115.96 E12.74951
G1 X129.555 Y116.856 E12.77679
G1 X129.267 Y117.731 E12.80409
G1 X128.904 Y118.577 E12.83137
G1 X128.469 Y119.388 E12.85864
G1 X127.965 Y120.159 E12.88594
G1 X127.396 Y120.883 E12.91323
G1 X126.767 Y121.555 E12.94051
G1 X126.255 Y122.024 E12.96108
G1 X126.104 Y122.153 E12.96697
G1 X124.128 Y123.895 E13.04503
G1 X122.31 Y125.59 E13.11869
G1 X120.494 Y127.381 E13.19428
G1 X118.729 Y129.225 E13.26992
G1 X117.047 Y131.085 E13.34424
G1 X115.401 Y133.01 E13.4193
G1 X113.8 Y134.995 E13.49487
G1 X112.296 Y136.971 E13.56846
G1 X110.791 Y139.068 E13.64496
G1 X110.285 Y139.817 E13.67174
G1 X109.751 Y140.584 E13.69944
G1 X109.193 Y141.316 E13.72672
G1 X108.573 Y141.996 E13.75399
G1 X107.897 Y142.621 E13.78127
G1 X107.345 Y143.057 E13.80211
G1 X107.223 Y143.147 E13.80661
G1 X106.459 Y143.661 E13.8339
G1 X105.653 Y144.107 E13.86119
G1 X104.812 Y144.481 E13.88847
G1 X103.941 Y144.78 E13.91576
G1 X103.048 Y145.003 E13.94304
G1 X102.139 Y145.148 E13.97032
G1 X101.255 Y145.212 E13.99658
G1 X100.792 Y145.224 E14.01031
G1 X100.497 Y145.227 E14.01905
G1 X74.446 Y145.226 E14.79107
G1 X73.742 Y145.216 E14.81193
G1 X72.823 Y145.163 E14.83921
G1 X71.912 Y145.03 E14.86649
G1 X71.016 Y144.819 E14.89377
G1 X70.142 Y144.531 E14.92104
G1 X69.296 Y144.168 E14.94833
G1 X68.484 Y143.733 E14.97562
G1 X67.671 Y143.199 E15.00445
G1 X67.551 Y143.112 E15.00884
G1 X66.83 Y142.54 E15.03612
G1 X66.161 Y141.907 E15.06341
G1 X65.55 Y141.219 E15.09068
G1 X65 Y140.48 E15.11798
G1 X64.517 Y139.696 E15.14527
G1 X64.104 Y138.874 E15.17253
G1 X63.763 Y138.018 E15.19983
G1 X63.498 Y137.136 E15.22713
G1 X63.311 Y136.235 E15.2544
G1 X63.179 Y134.876 E15.29486
G1 X63.165 Y134.365 E15.31001
G1 X63.163 Y134.021 E15.3202
G1 X63.163 Y97.099 E16.41438
G1 X63.181 Y95.866 E16.45092
G1 X63.236 Y93.932 E16.50826
G1 X63.236 Y91.4 E16.58329
G1 X63.191 Y89.543 E16.63834
G1 X63.172 Y88.995 E16.65459
G1 X63.164 Y88.48 E16.66986
G1 X63.162 Y51.524 E17.76504
G1 X63.173 Y50.694 E17.78964
G1 X63.227 Y49.774 E17.81695
G1 X63.36 Y48.863 E17.84423
G1 X63.572 Y47.967 E17.87152
G1 X63.86 Y47.093 E17.89879
G1 X64.224 Y46.247 E17.92608
G1 X64.659 Y45.436 E17.95335
G1 X64.678 Y45.408 E17.95436
G0 F1080 X65.164 Y44.666
G0 F6000 X65.559 Y44.802
G1 F1200 X66.127 Y44.099 E17.98114
G1 X66.754 Y43.449 E18.0079
G1 X67.436 Y42.858 E18.03465
G1 X67.863 Y42.537 E18.05048
G1 X67.984 Y42.451 E18.05488
G1 X68.742 Y41.961 E18.08163
G1 X69.541 Y41.54 E18.10839
G1 X70.374 Y41.191 E18.13516
G1 X71.235 Y40.917 E18.16193
G1 X72.117 Y40.721 E18.18871
G1 X73.012 Y40.603 E18.21546
G1 X73.576 Y40.57 E18.2322
G1 X74.031 Y40.558 E18.24569
G1 X74.322 Y40.555 E18.25432
G1 X100.222 Y40.555 E19.02186
G1 X101.07 Y40.566 E19.04699
G1 X101.972 Y40.619 E19.07377
G1 X102.865 Y40.751 E19.10052
G1 X103.743 Y40.962 E19.12728
G1 X104.599 Y41.25 E19.15404
G1 X105.426 Y41.612 E19.18079
G1 X106.218 Y42.046 E19.20756
G1 X106.823 Y42.443 E19.229
G1 X106.95 Y42.533 E19.23362
G1 X107.663 Y43.087 E19.26037
G1 X108.166 Y43.546 E19.28055
G1 X108.782 Y44.146 E19.30604
G1 X110.74 Y46.002 E19.38599
G1 X112.6 Y47.665 E19.45993
G1 X114.554 Y49.317 E19.53576
G1 X116.548 Y50.907 E19.61133
G1 X118.602 Y52.453 E19.68752
G1 X120.305 Y53.667 E19.7495
G1 X120.529 Y53.824 E19.7576
G1 X121.246 Y54.373 E19.78437
G1 X121.912 Y54.984 E19.81115
G1 X122.521 Y55.651 E19.83792
G1 X123.068 Y56.369 E19.86466
G1 X123.55 Y57.133 E19.89143
G1 X123.962 Y57.936 E19.91818
G1 X124.302 Y58.773 E19.94495
G1 X124.566 Y59.637 E19.97173
G1 X124.753 Y60.52 E19.99847
G1 X124.861 Y61.417 E20.02525
G1 X124.885 Y61.872 E20.03875
G1 X124.895 Y62.196 E20.04836
G1 X124.9 Y62.511 E20.05769
G1 X124.9 Y70.759 E20.30212
G1 X124.937 Y73.365 E20.37936
G1 X125.046 Y75.93 E20.45544
G1 X125.224 Y78.437 E20.52992
G1 X125.475 Y80.978 E20.60559
G1 X125.796 Y83.486 E20.68052
G1 X126.19 Y85.991 E20.75567
G1 X126.652 Y88.476 E20.83057
G1 X127.193 Y90.992 E20.90684
G1 X127.792 Y93.438 E20.98147
G1 X128.463 Y95.874 E21.05634
G1 X128.962 Y97.505 E21.10689
G1 X129.138 Y98.103 E21.12536
G1 X129.354 Y98.98 E21.15213
G1 X129.492 Y99.872 E21.17888
G1 X129.548 Y100.676 E21.20276
G1 X129.558 Y101.008 E21.21261
G1 X129.563 Y101.315 E21.22171
G1 X129.562 Y113.423 E21.58052
G1 X129.552 Y114.124 E21.6013
G1 X129.499 Y115.026 E21.62808
G1 X129.367 Y115.919 E21.65483
G1 X129.156 Y116.798 E21.68162
G1 X128.868 Y117.654 E21.70838
G1 X128.506 Y118.481 E21.73513
G1 X128.072 Y119.273 E21.7619
G1 X127.569 Y120.023 E21.78866
G1 X127.002 Y120.726 E21.81542
G1 X126.376 Y121.376 E21.84217
G1 X125.994 Y121.721 E21.85742
G1 X125.858 Y121.837 E21.86272
G1 X123.855 Y123.603 E21.94185
G1 X122.021 Y125.312 E22.01614
G1 X120.207 Y127.102 E22.09167
G1 X118.443 Y128.945 E22.16727
G1 X116.747 Y130.82 E22.24219
G1 X115.084 Y132.765 E22.31803
G1 X113.503 Y134.726 E22.39268
G1 X111.956 Y136.758 E22.46836
G1 X110.49 Y138.801 E22.54288
G1 X109.957 Y139.588 E22.57105
G1 X109.423 Y140.355 E22.59874
G1 X108.875 Y141.073 E22.62551
G1 X108.265 Y141.739 E22.65228
G1 X107.599 Y142.349 E22.67904
G1 X107.107 Y142.735 E22.69757
G1 X106.985 Y142.825 E22.70206
G1 X106.235 Y143.329 E22.72884
G1 X105.444 Y143.764 E22.75559
G1 X104.617 Y144.127 E22.78236
G1 X103.762 Y144.416 E22.80911
G1 X102.884 Y144.628 E22.83587
G1 X101.991 Y144.762 E22.86263
G1 X101.242 Y144.812 E22.88488
G1 X100.788 Y144.824 E22.89834
G1 X100.497 Y144.827 E22.90696
G1 X74.452 Y144.826 E23.6788
G1 X73.748 Y144.816 E23.69966
G1 X72.847 Y144.763 E23.72641
G1 X71.953 Y144.631 E23.75319
G1 X71.075 Y144.42 E23.77995
G1 X70.219 Y144.132 E23.80672
G1 X69.392 Y143.77 E23.83347
G1 X68.6 Y143.336 E23.86023
G1 X67.906 Y142.875 E23.88492
G1 X67.786 Y142.788 E23.88932
G1 X67.079 Y142.226 E23.91608
G1 X66.424 Y141.604 E23.94285
G1 X65.828 Y140.926 E23.9696
G1 X65.293 Y140.198 E23.99638
G1 X64.825 Y139.426 E24.02313
G1 X64.427 Y138.615 E24.0499
G1 X64.102 Y137.773 E24.07665
G1 X63.853 Y136.904 E24.10344
G1 X63.682 Y136.018 E24.13018
G1 X63.578 Y134.863 E24.16454
G1 X63.57 Y134.618 E24.17181
G1 X63.565 Y134.362 E24.1794
G1 X63.563 Y134.021 E24.1895
G1 X63.563 Y97.104 E25.28353
G1 X63.581 Y95.877 E25.3199
G1 X63.636 Y93.943 E25.37723
G1 X63.636 Y91.39 E25.45289
G1 X63.591 Y89.529 E25.50806
G1 X63.572 Y88.981 E25.52431
G1 X63.564 Y88.476 E25.53927
G1 X63.562 Y51.524 E26.63434
G1 X63.573 Y50.699 E26.65879
G1 X63.627 Y49.798 E26.68554
G1 X63.759 Y48.905 E26.71229
G1 X63.971 Y48.027 E26.73906
G1 X64.259 Y47.171 E26.76582
G1 X64.622 Y46.344 E26.79259
G1 X65.056 Y45.552 E26.81935
G1 X65.065 Y45.538 E26.81984
G0 F1080 X65.559 Y44.802
G1 F1500 E20.81984
;MESH:Strong_Case_Front.3mf
G0 F6000 X73.098 Y51.176
G0 X74.182 Y51.175
G0 X74.545 Y88.153
G0 X100.457 Y88.335
;TYPE:WALL-INNER
G1 F1500 E26.81984
G1 F1200 X74.363 Y88.335 E27.59313
G1 X74.362 Y51.355 E28.68903
G1 X100.456 Y51.355 E29.46232
G1 X100.457 Y87.448 E30.53192
G0 F1080 X100.457 Y88.335
G0 F6000 X100.857 Y88.735
;TYPE:WALL-OUTER
G1 F1200 X73.963 Y88.735 E31.32892
G1 X73.962 Y50.955 E32.44852
G1 X100.856 Y50.955 E33.24552
G1 X100.857 Y87.848 E34.33884
G0 F1080 X100.857 Y88.735
G0 F6000 X100.587 Y88.465
G0 X100.347 Y87.945
G0 X100.067 Y87.945
;TYPE:SKIN
G1 F1200 X74.753 Y87.945 E35.08901
G1 X74.752 Y51.745 E36.16179
G1 X100.066 Y51.745 E36.91197
G1 X100.067 Y87.058 E37.95846
G0 F1080 X100.067 Y87.945
G0 F6000 X100.347 Y87.945
G0 X75.338 Y88.225
G0 X75.338 Y87.783
G1 F1200 X74.912 Y87.357 E37.97631
G0 F6000 X74.912 Y86.791
G1 F1200 X75.904 Y87.783 E38.01789
G0 F6000 X76.47 Y87.783
G1 F1200 X74.912 Y86.226 E38.08316
G0 F6000 X74.912 Y85.66
G1 F1200 X77.035 Y87.783 E38.17214
G0 F6000 X77.601 Y87.783
G1 F1200 X74.912 Y85.094 E38.28483
G0 F6000 X74.912 Y84.528
G1 F1200 X78.167 Y87.783 E38.42125
G0 F6000 X78.732 Y87.783
G1 F1200 X74.912 Y83.963 E38.58135
G0 F6000 X74.912 Y83.397
G1 F1200 X79.298 Y87.783 E38.76516
G0 F6000 X79.864 Y87.783
G1 F1200 X74.912 Y82.831 E38.9727
G0 F6000 X74.912 Y82.266
G1 F1200 X80.429 Y87.783 E39.20392
G0 F6000 X80.995 Y87.783
G1 F1200 X74.912 Y81.7 E39.45886
G0 F6000 X74.912 Y81.134
G1 F1200 X81.561 Y87.783 E39.73751
G0 F6000 X82.126 Y87.783
G1 F1200 X74.912 Y80.569 E40.03985
G0 F6000 X74.912 Y80.003
G1 F1200 X82.692 Y87.783 E40.36591
G0 F6000 X83.258 Y87.783
G1 F1200 X74.912 Y79.437 E40.71569
G0 F6000 X74.912 Y78.872
G1 F1200 X83.823 Y87.783 E41.08915
G0 F6000 X84.389 Y87.783
G1 F1200 X74.912 Y78.306 E41.48633
G0 F6000 X74.912 Y77.74
G1 F1200 X84.955 Y87.783 E41.90723
G0 F6000 X85.521 Y87.783
G1 F1200 X74.912 Y77.175 E42.35183
G0 F6000 X74.912 Y76.609
G1 F1200 X86.086 Y87.783 E42.82013
G0 F6000 X86.652 Y87.783
G1 F1200 X74.912 Y76.043 E43.31216
G0 F6000 X74.912 Y75.477
G1 F1200 X87.218 Y87.783 E43.8279
G0 F6000 X87.784 Y87.784
G1 F1200 X74.912 Y74.912 E44.36736
G0 F6000 X74.912 Y74.346
G1 F1200 X88.35 Y87.784 E44.93055
G0 F6000 X88.915 Y87.784
G1 F1200 X74.912 Y73.78 E45.51744
G0 F6000 X74.912 Y73.215
G1 F1200 X89.481 Y87.784 E46.12802
G0 F6000 X90.047 Y87.784
G1 F1200 X74.912 Y72.649 E46.76233
G0 F6000 X74.912 Y72.083
G1 F1200 X90.612 Y87.784 E47.42033
G0 F6000 X91.178 Y87.784
G1 F1200 X74.912 Y71.518 E48.10204
G0 F6000 X74.912 Y70.952
G1 F1200 X91.744 Y87.784 E48.80747
G0 F6000 X92.309 Y87.784
G1 F1200 X74.912 Y70.386 E49.5366
G0 F6000 X74.911 Y69.82
G1 F1200 X92.875 Y87.784 E50.28947
G0 F6000 X93.441 Y87.784
G1 F1200 X74.911 Y69.254 E51.06606
G0 F6000 X74.911 Y68.689
G1 F1200 X94.007 Y87.784 E51.86635
G0 F6000 X94.572 Y87.784
G1 F1200 X74.911 Y68.123 E52.69034
G0 F6000 X74.911 Y67.557
G1 F1200 X95.138 Y87.784 E53.53805
