;FLAVOR:Marlin
;TIME:3497
;Filament used: 1.91951m
;Layer height: 0.24
;MINX:70.069
;MINY:77.109
;MINZ:0.24
;MAXX:144.495
;MAXY:137.441
;MAXZ:35.24
;Generated with Cura_SteamEngine 4.13.1
M82 ;absolute extrusion mode
START_PRINT BED_TEMP=60 EXTRUDER_TEMP=205
G92 E0
G92 E0
G1 F1500 E-6
;LAYER_COUNT:146
;LAYER:0
M107
G1 F300 Z0.44
G0 F6000 X84.296 Y80.376 Z0.44
;TYPE:SKIRT
G1 F300 Z0.24
G1 F1500 E0
G1 F1200 X84.984 Y79.739 E0.03742
G1 X85.724 Y79.163 E0.07485
G1 X86.51 Y78.651 E0.11229
G1 X87.337 Y78.208 E0.14973
G1 X88.199 Y77.838 E0.18717
G1 X89.089 Y77.542 E0.22461
G1 X90.001 Y77.323 E0.26204
G1 X90.928 Y77.183 E0.29946
G1 X91.769 Y77.124 E0.33311
G1 X92.091 Y77.114 E0.34597
G1 X92.432 Y77.109 E0.35958
G1 X127.145 Y77.109 E1.74505
G1 X128.001 Y77.12 E1.77922
G1 X128.937 Y77.174 E1.81664
G1 X129.865 Y77.306 E1.85405
G1 X130.779 Y77.518 E1.8915
G1 X131.671 Y77.807 E1.92892
G1 X132.536 Y78.17 E1.96636
G1 X133.366 Y78.606 E2.00378
G1 X134.157 Y79.111 E2.04124
G1 X134.901 Y79.682 E2.07867
G1 X135.594 Y80.314 E2.1161
G1 X136.231 Y81.002 E2.15353
G1 X136.806 Y81.743 E2.19096
G1 X137.317 Y82.529 E2.22838
G1 X137.759 Y83.357 E2.26584
G1 X138.128 Y84.219 E2.30326
G1 X138.423 Y85.109 E2.34069
G1 X138.641 Y86.021 E2.37811
G1 X138.803 Y87.182 E2.4249
G1 X139.069 Y89.844 E2.53167
G1 X139.385 Y92.297 E2.63039
G1 X139.788 Y94.847 E2.73343
G1 X140.244 Y97.287 E2.8325
G1 X140.775 Y99.742 E2.93275
G1 X141.368 Y102.15 E3.03173
G1 X142.052 Y104.626 E3.13425
G1 X142.785 Y107.011 E3.23384
G1 X143.433 Y108.914 E3.31407
G1 X143.716 Y109.776 E3.35028
G1 X143.877 Y110.313 E3.37266
G1 X143.928 Y110.5 E3.38039
G1 X144.063 Y111.048 E3.40292
G1 X144.173 Y111.552 E3.42351
G1 X144.35 Y112.609 E3.46628
G1 X144.409 Y113.109 E3.48638
G1 X144.483 Y114.174 E3.52899
G1 X144.495 Y114.763 E3.5525
G1 X144.452 Y115.983 E3.60122
G1 X144.419 Y116.346 E3.61577
G1 X144.299 Y117.249 E3.65213
G1 X144.211 Y117.751 E3.67247
G1 X143.976 Y118.79 E3.71499
G1 X143.846 Y119.259 E3.73441
G1 X143.52 Y120.251 E3.77609
G1 X143.323 Y120.766 E3.79809
G1 X142.883 Y121.765 E3.84166
G1 X142.687 Y122.156 E3.85912
G1 X142.17 Y123.074 E3.90117
G1 X141.897 Y123.509 E3.92167
G1 X141.286 Y124.385 E3.96429
G1 X140.964 Y124.802 E3.98532
G1 X140.269 Y125.617 E4.02807
G1 X139.903 Y126.006 E4.04939
G1 X139.656 Y126.26 E4.06353
G1 X139.166 Y126.749 E4.09116
G1 X137.359 Y128.599 E4.19438
G1 X135.648 Y130.453 E4.29507
G1 X133.365 Y133.097 E4.43449
G1 X133.058 Y133.466 E4.45365
G1 X132.428 Y134.161 E4.49109
G1 X131.741 Y134.799 E4.52851
G1 X131.002 Y135.377 E4.56595
G1 X130.217 Y135.89 E4.60338
G1 X129.391 Y136.334 E4.64081
G1 X128.53 Y136.705 E4.67823
G1 X127.263 Y137.104 E4.73125
G1 X126.344 Y137.292 E4.76869
G1 X125.413 Y137.402 E4.8061
G1 X124.906 Y137.428 E4.82636
G1 X124.588 Y137.437 E4.83906
G1 X124.277 Y137.441 E4.85148
G1 X112.158 Y137.44 E5.33517
G1 X111.454 Y137.43 E5.36327
G1 X110.517 Y137.377 E5.40073
G1 X109.589 Y137.244 E5.43815
G1 X108.675 Y137.032 E5.47559
G1 X107.845 Y136.767 E5.51037
G1 X107.565 Y136.665 E5.52226
G1 X105.424 Y135.841 E5.61383
G1 X103.057 Y135.006 E5.714
G1 X100.644 Y134.231 E5.81516
G1 X98.246 Y133.534 E5.91483
G1 X95.791 Y132.896 E6.01607
G1 X93.316 Y132.325 E6.11744
G1 X90.866 Y131.836 E6.21716
G1 X88.427 Y131.419 E6.31592
G1 X85.89 Y131.058 E6.41819
G1 X84.811 Y130.937 E6.46153
G1 X83.314 Y130.756 E6.52171
G1 X82.826 Y130.686 E6.54139
G1 X82.52 Y130.635 E6.55377
G1 X81.764 Y130.482 E6.58455
G1 X81.643 Y130.453 E6.58952
G1 X81.242 Y130.349 E6.60605
G1 X80.949 Y130.267 E6.6182
G1 X80.407 Y130.1 E6.64083
G1 X80.297 Y130.063 E6.64547
G1 X79.8 Y129.882 E6.66658
G1 X79.539 Y129.78 E6.67776
G1 X78.723 Y129.423 E6.71331
G1 X78.483 Y129.306 E6.72397
G1 X77.898 Y128.999 E6.75034
G1 X77.742 Y128.911 E6.75748
G1 X77.377 Y128.695 E6.77441
G1 X77.054 Y128.496 E6.78955
G1 X76.44 Y128.089 E6.81895
G1 X76.266 Y127.965 E6.82748
G1 X75.612 Y127.461 E6.86044
G1 X75.421 Y127.302 E6.87036
G1 X74.913 Y126.852 E6.89744
G1 X74.721 Y126.671 E6.90797
G1 X74.294 Y126.246 E6.93202
G1 X74.121 Y126.064 E6.94204
G1 X73.495 Y125.344 E6.98012
G1 X73.223 Y125.003 E6.99753
G1 X72.74 Y124.35 E7.02995
G1 X72.477 Y123.953 E7.04895
G1 X72.301 Y123.674 E7.06212
G1 X71.976 Y123.124 E7.08762
G1 X71.918 Y123.019 E7.09241
G1 X71.701 Y122.604 E7.1111
G1 X71.574 Y122.349 E7.12247
G1 X71.284 Y121.717 E7.15022
G1 X71.233 Y121.596 E7.15546
G1 X71.057 Y121.153 E7.17449
G1 X70.956 Y120.881 E7.18607
G1 X70.743 Y120.249 E7.21269
G1 X70.702 Y120.114 E7.21832
G1 X70.572 Y119.65 E7.23755
G1 X70.503 Y119.381 E7.24863
G1 X70.412 Y118.999 E7.26431
G1 X70.384 Y118.871 E7.26954
G1 X70.246 Y118.113 E7.30029
G1 X70.204 Y117.826 E7.31186
G1 X70.118 Y117.049 E7.34306
G1 X70.1 Y116.807 E7.35275
G1 X70.071 Y116.12 E7.38019
G1 X70.069 Y115.949 E7.38702
G1 X70.073 Y115.479 E7.40578
G1 X70.088 Y114.995 E7.4251
G1 X70.163 Y114.014 E7.46437
G1 X70.182 Y113.857 E7.47068
G1 X70.263 Y113.305 E7.49295
G1 X70.3 Y113.091 E7.50162
G1 X70.388 Y112.637 E7.52008
G1 X70.409 Y112.54 E7.52404
G1 X70.576 Y111.87 E7.5516
G1 X70.659 Y111.577 E7.56375
G1 X70.891 Y110.854 E7.59406
G1 X71.07 Y110.356 E7.61518
G1 X71.55 Y109.224 E7.66425
G1 X71.638 Y109.045 E7.67222
G1 X71.772 Y108.783 E7.68396
G1 X71.928 Y108.486 E7.69735
G1 X72.075 Y108.215 E7.70965
G1 X72.598 Y107.283 E7.75231
G1 X73.55 Y105.573 E7.83042
G1 X74.706 Y103.356 E7.93022
G1 X75.816 Y101.075 E8.03146
G1 X76.852 Y98.782 E8.13189
G1 X77.825 Y96.454 E8.23259
G1 X78.737 Y94.091 E8.33369
G1 X79.567 Y91.736 E8.43335
G1 X80.331 Y89.359 E8.533
G1 X81.044 Y86.907 E8.63492
G1 X81.236 Y86.173 E8.6652
G1 X81.506 Y85.194 E8.70573
G1 X81.794 Y84.302 E8.74314
G1 X82.156 Y83.437 E8.78057
G1 X82.591 Y82.606 E8.818
G1 X83.095 Y81.815 E8.85544
G1 X83.665 Y81.07 E8.89288
G1 X83.849 Y80.868 E8.90378
G0 F1080 X84.296 Y80.376
G0 F6000 X84.652 Y80.586
G1 F1200 X85.334 Y79.968 E8.94051
G1 X86.067 Y79.41 E8.97728
G1 X86.845 Y78.919 E9.014
G1 X87.663 Y78.497 E9.05074
G1 X88.515 Y78.147 E9.0875
G1 X89.394 Y77.873 E9.12425
G1 X90.293 Y77.676 E9.16098
G1 X91.206 Y77.558 E9.19772
G1 X91.781 Y77.524 E9.22071
G1 X92.103 Y77.514 E9.23357
G1 X92.432 Y77.509 E9.2467
G1 X127.145 Y77.509 E10.63217
G1 X127.995 Y77.52 E10.6661
G1 X128.914 Y77.573 E10.70284
G1 X129.825 Y77.706 E10.73959
G1 X130.721 Y77.917 E10.77633
G1 X131.595 Y78.205 E10.81306
G1 X132.442 Y78.568 E10.84984
G1 X133.253 Y79.003 E10.88657
G1 X134.023 Y79.507 E10.9233
G1 X134.747 Y80.076 E10.96005
G1 X135.419 Y80.706 E10.99681
G1 X136.034 Y81.391 E11.03356
G1 X136.587 Y82.127 E11.0703
G1 X137.074 Y82.908 E11.10703
G1 X137.491 Y83.729 E11.14379
G1 X137.836 Y84.583 E11.18055
G1 X138.105 Y85.463 E11.21727
G1 X138.297 Y86.364 E11.25404
G1 X138.404 Y87.216 E11.28832
G1 X138.667 Y89.849 E11.39393
G1 X138.997 Y92.408 E11.49691
G1 X139.386 Y94.876 E11.59663
G1 X139.853 Y97.373 E11.69802
G1 X140.384 Y99.825 E11.79815
G1 X140.986 Y102.272 E11.89873
G1 X141.669 Y104.744 E12.00109
G1 X142.403 Y107.131 E12.10076
G1 X143.053 Y109.039 E12.18121
G1 X143.336 Y109.901 E12.21742
G1 X143.491 Y110.418 E12.23896
G1 X143.542 Y110.605 E12.2467
G1 X143.672 Y111.134 E12.26844
G1 X143.782 Y111.638 E12.28903
G1 X143.953 Y112.656 E12.33023
G1 X144.012 Y113.156 E12.35032
G1 X144.083 Y114.182 E12.39137
G1 X144.095 Y114.771 E12.41488
G1 X144.053 Y115.947 E12.46185
G1 X144.02 Y116.31 E12.4764
G1 X143.905 Y117.18 E12.51142
G1 X143.817 Y117.682 E12.53177
G1 X143.591 Y118.683 E12.57272
G1 X143.461 Y119.152 E12.59215
G1 X143.146 Y120.108 E12.63232
G1 X142.949 Y120.623 E12.65433
G1 X142.525 Y121.586 E12.69632
G1 X142.329 Y121.977 E12.71378
G1 X141.831 Y122.862 E12.75431
G1 X141.558 Y123.297 E12.77481
G1 X140.97 Y124.14 E12.81583
G1 X140.648 Y124.557 E12.83686
G1 X139.978 Y125.343 E12.87808
G1 X139.612 Y125.732 E12.8994
G1 X139.374 Y125.977 E12.91303
G1 X138.88 Y126.469 E12.94086
G1 X137.061 Y128.331 E13.04475
G1 X135.348 Y130.188 E13.14559
G1 X133.09 Y132.804 E13.28351
G1 X132.751 Y133.211 E13.30465
G1 X132.132 Y133.892 E13.34138
G1 X131.456 Y134.517 E13.37813
G1 X130.728 Y135.081 E13.41488
G1 X129.954 Y135.58 E13.45164
G1 X129.14 Y136.01 E13.48838
G1 X128.292 Y136.367 E13.52511
G1 X127.166 Y136.716 E13.57216
G1 X126.264 Y136.9 E13.6089
G1 X124.895 Y137.028 E13.66378
G1 X124.577 Y137.037 E13.67647
G1 X124.277 Y137.041 E13.68845
G1 X112.163 Y137.04 E14.17194
G1 X111.459 Y137.03 E14.20004
G1 X110.54 Y136.977 E14.23679
G1 X109.629 Y136.844 E14.27353
G1 X108.733 Y136.633 E14.31027
G1 X107.982 Y136.391 E14.34176
G1 X107.519 Y136.22 E14.36146
G1 X105.564 Y135.467 E14.44508
G1 X103.175 Y134.624 E14.54619
G1 X100.763 Y133.849 E14.64731
G1 X98.362 Y133.152 E14.74709
G1 X95.875 Y132.505 E14.84966
G1 X93.405 Y131.935 E14.95083
G1 X90.947 Y131.444 E15.05087
G1 X88.479 Y131.022 E15.1508
G1 X85.957 Y130.664 E15.25247
G1 X84.859 Y130.54 E15.29657
G1 X83.362 Y130.359 E15.35676
G1 X82.891 Y130.292 E15.37575
G1 X82.585 Y130.241 E15.38813
G1 X81.857 Y130.093 E15.41778
G1 X81.736 Y130.064 E15.42274
G1 X81.35 Y129.964 E15.43866
G1 X81.057 Y129.882 E15.4508
G1 X80.535 Y129.721 E15.47261
G1 X80.425 Y129.684 E15.47724
G1 X79.946 Y129.51 E15.49758
G1 X79.685 Y129.408 E15.50876
G1 X78.898 Y129.063 E15.54306
G1 X78.658 Y128.946 E15.55371
G1 X78.095 Y128.65 E15.5791
G1 X77.939 Y128.562 E15.58625
G1 X77.587 Y128.355 E15.60255
G1 X77.264 Y128.156 E15.61769
G1 X76.672 Y127.763 E15.64605
G1 X76.498 Y127.639 E15.65458
G1 X75.868 Y127.154 E15.68631
G1 X75.677 Y126.995 E15.69623
G1 X75.188 Y126.561 E15.72233
G1 X74.996 Y126.38 E15.73286
G1 X74.584 Y125.97 E15.75606
G1 X74.411 Y125.788 E15.76608
G1 X73.807 Y125.095 E15.80277
G1 X73.535 Y124.754 E15.82018
G1 X73.07 Y124.124 E15.85143
G1 X72.816 Y123.739 E15.86984
G1 X72.64 Y123.46 E15.883
G1 X72.326 Y122.93 E15.90759
G1 X72.268 Y122.825 E15.91238
G1 X72.059 Y122.426 E15.93036
G1 X71.932 Y122.171 E15.94173
G1 X71.652 Y121.562 E15.96848
G1 X71.601 Y121.441 E15.97372
G1 X71.432 Y121.014 E15.99205
G1 X71.331 Y120.742 E16.00363
G1 X71.125 Y120.132 E16.02933
G1 X71.084 Y119.997 E16.03496
G1 X70.959 Y119.551 E16.05344
G1 X70.89 Y119.282 E16.06453
G1 X70.803 Y118.913 E16.07966
G1 X70.775 Y118.785 E16.08489
G1 X70.642 Y118.055 E16.1145
G1 X70.6 Y117.768 E16.12608
G1 X70.517 Y117.019 E16.15616
G1 X70.499 Y116.777 E16.16584
G1 X70.471 Y116.115 E16.19229
G1 X70.469 Y115.944 E16.19912
G1 X70.473 Y115.492 E16.21716
G1 X70.488 Y115.008 E16.23648
G1 X70.56 Y114.062 E16.27435
G1 X70.579 Y113.905 E16.28066
G1 X70.657 Y113.373 E16.30212
G1 X70.694 Y113.159 E16.31079
G1 X70.779 Y112.722 E16.32856
G1 X70.8 Y112.625 E16.33252
G1 X70.961 Y111.979 E16.35909
G1 X71.044 Y111.686 E16.37125
G1 X71.268 Y110.99 E16.40043
G1 X71.447 Y110.492 E16.42155
G1 X71.909 Y109.4 E16.46887
G1 X71.997 Y109.221 E16.47683
G1 X72.126 Y108.969 E16.48813
G1 X72.282 Y108.672 E16.50152
G1 X72.423 Y108.411 E16.51336
G1 X72.967 Y107.444 E16.55765
G1 X73.881 Y105.803 E16.63262
G1 X75.077 Y103.509 E16.73587
G1 X76.176 Y101.249 E16.83617
G1 X77.214 Y98.952 E16.93678
G1 X78.196 Y96.604 E17.03836
G1 X79.112 Y94.232 E17.13984
G1 X79.949 Y91.854 E17.24046
G1 X80.713 Y89.478 E17.34007
G1 X81.429 Y87.015 E17.44245
G1 X81.621 Y86.28 E17.47277
G1 X81.891 Y85.301 E17.5133
G1 X82.175 Y84.425 E17.55005
G1 X82.533 Y83.577 E17.58679
G1 X82.963 Y82.763 E17.62353
G1 X83.462 Y81.989 E17.66029
G1 X84.027 Y81.262 E17.69704
G1 X84.201 Y81.074 E17.70726
G0 F1080 X84.652 Y80.586
G0 F6000 X85.007 Y80.798
G1 F1200 X85.683 Y80.199 E17.74331
G1 X86.408 Y79.661 E17.77934
G1 X87.179 Y79.19 E17.8154
G1 X87.988 Y78.789 E17.85144
G1 X88.829 Y78.461 E17.88747
G1 X89.697 Y78.209 E17.92355
G1 X90.583 Y78.034 E17.95959
G1 X91.793 Y77.924 E18.00808
G1 X92.115 Y77.914 E18.02094
G1 X92.432 Y77.909 E18.03359
G1 X127.145 Y77.909 E19.41907
G1 X127.989 Y77.92 E19.45275
G1 X128.891 Y77.973 E19.48882
G1 X129.784 Y78.105 E19.52485
G1 X130.662 Y78.316 E19.56089
G1 X131.518 Y78.604 E19.59693
G1 X132.345 Y78.966 E19.63296
G1 X133.137 Y79.401 E19.66903
G1 X133.888 Y79.903 E19.70508
G1 X134.591 Y80.47 E19.74113
G1 X135.241 Y81.097 E19.77718
G1 X135.833 Y81.779 E19.81322
G1 X136.363 Y82.51 E19.84926
G1 X136.825 Y83.286 E19.8853
G1 X137.218 Y84.099 E19.92134
G1 X137.536 Y84.944 E19.95738
G1 X137.779 Y85.814 E19.99343
G1 X137.944 Y86.702 E20.02948
G1 X138.006 Y87.25 E20.05149
G1 X138.014 Y87.345 E20.0553
G1 X138.272 Y89.919 E20.15855
G1 X138.599 Y92.45 E20.2604
G1 X138.993 Y94.947 E20.3613
G1 X139.456 Y97.426 E20.46195
G1 X140.004 Y99.959 E20.56539
G1 X140.6 Y102.377 E20.66478
G1 X141.278 Y104.831 E20.7664
G1 X142.028 Y107.271 E20.86828
G1 X142.673 Y109.163 E20.94806
G1 X142.956 Y110.025 E20.98427
G1 X143.106 Y110.523 E21.00503
G1 X143.157 Y110.71 E21.01276
G1 X143.281 Y111.219 E21.03367
G1 X143.391 Y111.723 E21.05426
G1 X143.556 Y112.703 E21.09393
G1 X143.615 Y113.203 E21.11402
G1 X143.683 Y114.19 E21.15351
G1 X143.695 Y114.779 E21.17702
G1 X143.655 Y115.91 E21.22219
G1 X143.622 Y116.273 E21.23674
G1 X143.511 Y117.111 E21.27048
G1 X143.423 Y117.613 E21.29082
G1 X143.205 Y118.577 E21.33027
G1 X143.075 Y119.046 E21.34969
G1 X142.773 Y119.965 E21.3883
G1 X142.576 Y120.48 E21.41031
G1 X142.167 Y121.407 E21.45075
G1 X141.971 Y121.798 E21.4682
G1 X141.493 Y122.649 E21.50716
G1 X141.22 Y123.084 E21.52766
G1 X140.653 Y123.896 E21.56719
G1 X140.331 Y124.313 E21.58821
G1 X139.687 Y125.069 E21.62785
G1 X139.321 Y125.458 E21.64917
G1 X139.091 Y125.694 E21.66232
G1 X138.594 Y126.189 E21.69032
G1 X136.764 Y128.062 E21.79483
G1 X135.077 Y129.891 E21.89414
G1 X132.737 Y132.602 E22.03707
G1 X132.443 Y132.955 E22.05541
G1 X131.835 Y133.623 E22.09146
G1 X131.171 Y134.234 E22.12748
G1 X130.455 Y134.784 E22.16351
G1 X129.693 Y135.269 E22.19956
G1 X128.891 Y135.685 E22.23562
G1 X128.056 Y136.028 E22.27165
G1 X127.069 Y136.327 E22.31281
G1 X126.184 Y136.507 E22.34886
G1 X124.884 Y136.628 E22.40097
G1 X124.566 Y136.637 E22.41366
G1 X124.277 Y136.641 E22.4252
G1 X112.169 Y136.64 E22.90846
G1 X111.465 Y136.63 E22.93656
G1 X110.564 Y136.577 E22.97258
G1 X109.67 Y136.445 E23.00865
G1 X108.792 Y136.234 E23.04469
G1 X108.119 Y136.015 E23.07294
G1 X107.662 Y135.847 E23.09237
G1 X105.693 Y135.088 E23.17659
G1 X103.283 Y134.238 E23.27859
G1 X100.892 Y133.47 E23.37882
G1 X98.437 Y132.757 E23.48085
G1 X95.995 Y132.121 E23.58157
G1 X93.508 Y131.548 E23.68343
G1 X91.014 Y131.05 E23.78494
G1 X88.498 Y130.62 E23.88681
G1 X86.025 Y130.268 E23.98651
G1 X84.907 Y130.143 E24.03141
G1 X83.41 Y129.962 E24.09159
G1 X82.957 Y129.897 E24.10986
G1 X82.651 Y129.846 E24.12224
G1 X81.951 Y129.704 E24.15075
G1 X81.83 Y129.675 E24.15572
G1 X81.458 Y129.579 E24.17105
G1 X81.165 Y129.497 E24.18319
G1 X80.662 Y129.342 E24.2042
G1 X80.552 Y129.305 E24.20883
G1 X80.091 Y129.137 E24.22842
G1 X79.83 Y129.035 E24.2396
G1 X79.073 Y128.704 E24.27258
G1 X78.833 Y128.587 E24.28323
G1 X78.292 Y128.302 E24.30764
G1 X78.136 Y128.214 E24.31479
G1 X77.797 Y128.014 E24.3305
G1 X77.474 Y127.815 E24.34564
G1 X76.904 Y127.438 E24.37291
G1 X76.73 Y127.314 E24.38144
G1 X76.124 Y126.846 E24.412
G1 X75.933 Y126.687 E24.42192
G1 X75.462 Y126.27 E24.44703
G1 X75.27 Y126.089 E24.45756
G1 X74.874 Y125.694 E24.47988
G1 X74.701 Y125.512 E24.4899
G1 X74.12 Y124.845 E24.52521
G1 X73.848 Y124.504 E24.54262
G1 X73.4 Y123.899 E24.57267
G1 X73.154 Y123.526 E24.5905
G1 X72.978 Y123.247 E24.60366
G1 X72.677 Y122.737 E24.6273
G1 X72.619 Y122.632 E24.63209
G1 X72.417 Y122.247 E24.64944
G1 X72.29 Y121.992 E24.66081
G1 X72.021 Y121.407 E24.68651
G1 X71.97 Y121.286 E24.69175
G1 X71.807 Y120.875 E24.7094
G1 X71.706 Y120.603 E24.72098
G1 X71.508 Y120.016 E24.7457
G1 X71.467 Y119.881 E24.75133
G1 X71.347 Y119.451 E24.76915
G1 X71.278 Y119.182 E24.78024
G1 X71.194 Y118.828 E24.79476
G1 X71.166 Y118.7 E24.79999
G1 X71.037 Y117.997 E24.82851
G1 X70.995 Y117.71 E24.84009
G1 X70.916 Y116.99 E24.869
G1 X70.898 Y116.748 E24.87869
G1 X70.871 Y116.11 E24.90417
G1 X70.869 Y115.939 E24.911
G1 X70.873 Y115.504 E24.92836
G1 X70.888 Y115.02 E24.94769
G1 X70.957 Y114.111 E24.98407
G1 X70.976 Y113.954 E24.99038
G1 X71.051 Y113.441 E25.01108
G1 X71.088 Y113.227 E25.01974
G1 X71.17 Y112.807 E25.03682
G1 X71.191 Y112.71 E25.04078
G1 X71.346 Y112.088 E25.06637
