;FLAVOR:Marlin
;TIME:10750
;Filament used: 10.8789m
;Layer height: 0.24
;MINX:63.738
;MINY:63.738
;MINZ:0.24
;MAXX:156.262
;MAXY:156.262
;MAXZ:18
;Generated with Cura_SteamEngine 4.13.1
M82 ;absolute extrusion mode
START_PRINT BED_TEMP=60 EXTRUDER_TEMP=205
G92 E0
G92 E0
G1 F1500 E-6
;LAYER_COUNT:75
;LAYER:0
M107
G0 F6000 X77.248 Y77.327 Z0.24
;TYPE:SKIRT
G1 F1500 E0
G1 F1200 X77.936 Y76.69 E0.03742
G1 X78.675 Y76.113 E0.07484
G1 X79.461 Y75.601 E0.11228
G1 X80.288 Y75.158 E0.14973
G1 X81.149 Y74.787 E0.18715
G1 X82.004 Y74.501 E0.22313
G1 X82.344 Y74.403 E0.23725
G1 X84.486 Y73.811 E0.32595
G1 X86.889 Y73.075 E0.42626
G1 X89.264 Y72.271 E0.52633
G1 X91.633 Y71.395 E0.62714
G1 X94.003 Y70.442 E0.72909
G1 X96.266 Y69.456 E0.82762
G1 X98.561 Y68.379 E0.9288
G1 X100.775 Y67.261 E1.02779
G1 X103.634 Y65.704 E1.15772
G1 X104.568 Y65.173 E1.20061
G1 X105.402 Y64.745 E1.23802
G1 X106.27 Y64.39 E1.27545
G1 X107.165 Y64.11 E1.31288
G1 X108.081 Y63.907 E1.35032
G1 X109.011 Y63.783 E1.38777
G1 X109.947 Y63.738 E1.42517
G1 X110.885 Y63.774 E1.46264
G1 X111.815 Y63.889 E1.50004
G1 X112.733 Y64.083 E1.53749
G1 X113.631 Y64.354 E1.57492
G1 X114.502 Y64.701 E1.61234
G1 X115.23 Y65.06 E1.64474
G1 X115.553 Y65.238 E1.65946
G1 X117.542 Y66.367 E1.75074
G1 X119.768 Y67.547 E1.8513
G1 X122.024 Y68.664 E1.95177
G1 X124.301 Y69.712 E2.05182
G1 X126.626 Y70.702 E2.15268
G1 X128.969 Y71.624 E2.25317
G1 X131.34 Y72.48 E2.35378
G1 X133.699 Y73.256 E2.4529
G1 X136.836 Y74.18 E2.58342
G1 X137.853 Y74.46 E2.62552
G1 X138.746 Y74.748 E2.66297
G1 X139.611 Y75.11 E2.70039
G1 X140.442 Y75.544 E2.73781
G1 X141.233 Y76.048 E2.77525
G1 X141.978 Y76.618 E2.81269
G1 X142.673 Y77.248 E2.85013
G1 X143.31 Y77.936 E2.88755
G1 X143.887 Y78.675 E2.92497
G1 X144.399 Y79.461 E2.96241
G1 X144.842 Y80.288 E2.99985
G1 X145.213 Y81.149 E3.03727
G1 X145.499 Y82.004 E3.07325
G1 X145.597 Y82.344 E3.08738
G1 X146.189 Y84.486 E3.17607
G1 X146.925 Y86.889 E3.27638
G1 X147.729 Y89.264 E3.37646
G1 X148.605 Y91.633 E3.47727
G1 X149.558 Y94.003 E3.57922
G1 X150.544 Y96.266 E3.67774
G1 X151.621 Y98.561 E3.77892
G1 X152.739 Y100.775 E3.87792
G1 X154.296 Y103.634 E4.00785
G1 X154.827 Y104.568 E4.05073
G1 X155.255 Y105.402 E4.08815
G1 X155.61 Y106.27 E4.12557
G1 X155.89 Y107.165 E4.163
G1 X156.093 Y108.081 E4.20045
G1 X156.217 Y109.011 E4.2379
G1 X156.262 Y109.947 E4.2753
G1 X156.226 Y110.885 E4.31276
G1 X156.111 Y111.815 E4.35016
G1 X155.917 Y112.733 E4.38761
G1 X155.646 Y113.631 E4.42505
G1 X155.299 Y114.502 E4.46247
G1 X154.927 Y115.254 E4.49596
G1 X154.754 Y115.567 E4.51023
G1 X153.633 Y117.542 E4.60087
G1 X152.453 Y119.768 E4.70142
G1 X151.336 Y122.024 E4.8019
G1 X150.288 Y124.301 E4.90194
G1 X149.298 Y126.626 E5.0028
G1 X148.376 Y128.969 E5.10329
G1 X147.52 Y131.34 E5.2039
G1 X146.744 Y133.699 E5.30302
G1 X145.82 Y136.836 E5.43354
G1 X145.54 Y137.853 E5.47564
G1 X145.252 Y138.746 E5.51309
G1 X144.89 Y139.611 E5.55052
G1 X144.456 Y140.442 E5.58794
G1 X143.952 Y141.233 E5.62537
G1 X143.382 Y141.978 E5.66281
G1 X142.752 Y142.673 E5.70025
G1 X142.064 Y143.31 E5.73767
G1 X141.325 Y143.887 E5.77509
G1 X140.539 Y144.399 E5.81253
G1 X139.712 Y144.842 E5.84998
G1 X138.851 Y145.213 E5.8874
G1 X137.996 Y145.499 E5.92338
G1 X137.656 Y145.597 E5.9375
G1 X135.514 Y146.189 E6.0262
G1 X133.111 Y146.925 E6.12651
G1 X130.736 Y147.729 E6.22658
G1 X128.367 Y148.605 E6.32739
G1 X125.997 Y149.558 E6.42934
G1 X123.734 Y150.544 E6.52787
G1 X121.439 Y151.621 E6.62905
G1 X119.225 Y152.739 E6.72804
G1 X116.366 Y154.296 E6.85797
G1 X115.432 Y154.827 E6.90086
G1 X114.598 Y155.255 E6.93827
G1 X113.73 Y155.61 E6.9757
G1 X112.835 Y155.89 E7.01313
G1 X111.919 Y156.093 E7.05057
G1 X110.989 Y156.217 E7.08802
G1 X110.053 Y156.262 E7.12542
G1 X109.115 Y156.226 E7.16289
G1 X108.185 Y156.111 E7.20029
G1 X107.267 Y155.917 E7.23774
G1 X106.369 Y155.646 E7.27517
G1 X105.498 Y155.299 E7.31259
G1 X104.744 Y154.926 E7.34617
G1 X104.409 Y154.741 E7.36144
G1 X102.453 Y153.631 E7.45121
G1 X100.232 Y152.453 E7.55155
G1 X97.976 Y151.336 E7.65202
G1 X95.699 Y150.288 E7.75207
G1 X93.374 Y149.298 E7.85292
G1 X91.031 Y148.376 E7.95342
G1 X88.66 Y147.52 E8.05403
G1 X86.301 Y146.744 E8.15314
G1 X83.157 Y145.818 E8.28396
G1 X82.139 Y145.537 E8.32611
G1 X81.247 Y145.249 E8.36352
G1 X80.382 Y144.886 E8.40096
G1 X79.551 Y144.451 E8.4384
G1 X78.76 Y143.947 E8.47583
G1 X78.015 Y143.377 E8.51327
G1 X77.322 Y142.746 E8.55068
G1 X76.684 Y142.058 E8.58813
G1 X76.108 Y141.318 E8.62555
G1 X75.597 Y140.532 E8.66297
G1 X75.154 Y139.705 E8.70042
G1 X74.784 Y138.843 E8.73786
G1 X74.49 Y137.962 E8.77493
G1 X74.403 Y137.656 E8.78762
G1 X73.811 Y135.514 E8.87632
G1 X73.071 Y133.1 E8.97709
G1 X72.268 Y130.726 E9.07712
G1 X71.403 Y128.387 E9.17665
G1 X70.442 Y125.997 E9.27946
G1 X69.456 Y123.734 E9.37799
G1 X68.379 Y121.439 E9.47917
G1 X67.261 Y119.225 E9.57816
G1 X65.704 Y116.366 E9.7081
G1 X65.173 Y115.432 E9.75098
G1 X64.745 Y114.598 E9.78839
G1 X64.39 Y113.73 E9.82582
G1 X64.11 Y112.835 E9.86325
G1 X63.907 Y111.919 E9.90069
G1 X63.783 Y110.989 E9.93814
G1 X63.738 Y110.053 E9.97554
G1 X63.774 Y109.115 E10.01301
G1 X63.889 Y108.185 E10.05041
G1 X64.083 Y107.267 E10.08786
G1 X64.354 Y106.369 E10.1253
G1 X64.701 Y105.498 E10.16272
G1 X65.073 Y104.746 E10.1962
G1 X65.246 Y104.433 E10.21048
G1 X66.367 Y102.458 E10.30111
G1 X67.547 Y100.232 E10.40167
G1 X68.664 Y97.976 E10.50214
G1 X69.712 Y95.699 E10.60219
G1 X70.702 Y93.374 E10.70305
G1 X71.624 Y91.031 E10.80354
G1 X72.48 Y88.66 E10.90415
G1 X73.256 Y86.301 E11.00327
G1 X74.18 Y83.164 E11.13379
G1 X74.46 Y82.147 E11.17589
G1 X74.748 Y81.254 E11.21334
G1 X75.11 Y80.389 E11.25076
G1 X75.544 Y79.558 E11.28818
G1 X76.048 Y78.767 E11.32562
G1 X76.618 Y78.022 E11.36306
G1 X76.802 Y77.819 E11.37399
G0 F1080 X77.248 Y77.327
G0 F6000 X77.604 Y77.537
G1 F1200 X78.286 Y76.918 E11.41075
G1 X79.018 Y76.36 E11.44749
G1 X79.797 Y75.869 E11.48424
G1 X80.615 Y75.446 E11.52099
G1 X81.466 Y75.096 E11.55772
G1 X82.115 Y74.885 E11.58496
G1 X82.451 Y74.789 E11.59891
G1 X84.595 Y74.197 E11.68768
G1 X86.997 Y73.46 E11.78796
G1 X89.394 Y72.649 E11.88896
G1 X91.785 Y71.766 E11.99069
G1 X94.12 Y70.826 E12.09115
G1 X96.459 Y69.807 E12.19298
G1 X98.732 Y68.74 E12.2932
G1 X100.969 Y67.611 E12.39321
G1 X103.819 Y66.059 E12.52273
G1 X104.765 Y65.521 E12.56616
G1 X105.585 Y65.102 E12.60292
G1 X106.438 Y64.755 E12.63967
G1 X107.317 Y64.483 E12.6764
G1 X108.217 Y64.289 E12.71314
G1 X109.131 Y64.174 E12.74991
G1 X110.051 Y64.138 E12.78666
G1 X110.97 Y64.182 E12.82338
G1 X111.883 Y64.306 E12.86015
G1 X112.781 Y64.509 E12.8969
G1 X113.658 Y64.789 E12.93364
G1 X114.507 Y65.144 E12.97037
G1 X115.04 Y65.412 E12.99418
G1 X115.356 Y65.586 E13.00858
G1 X117.352 Y66.718 E13.10016
G1 X119.567 Y67.893 E13.20024
G1 X121.858 Y69.027 E13.30226
G1 X124.155 Y70.085 E13.4032
G1 X126.471 Y71.071 E13.50367
G1 X128.823 Y71.996 E13.60454
G1 X131.216 Y72.86 E13.70608
G1 X133.588 Y73.64 E13.80574
G1 X136.727 Y74.565 E13.93635
G1 X137.747 Y74.846 E13.97858
G1 X138.623 Y75.129 E14.01532
G1 X139.472 Y75.486 E14.05208
G1 X140.286 Y75.916 E14.08882
G1 X141.059 Y76.415 E14.12555
G1 X141.787 Y76.979 E14.1623
G1 X142.463 Y77.604 E14.19905
G1 X143.082 Y78.286 E14.23581
G1 X143.64 Y79.018 E14.27254
G1 X144.131 Y79.797 E14.30929
G1 X144.554 Y80.615 E14.34605
G1 X144.904 Y81.466 E14.38278
G1 X145.115 Y82.115 E14.41001
G1 X145.211 Y82.451 E14.42396
G1 X145.803 Y84.595 E14.51273
G1 X146.54 Y86.997 E14.61301
G1 X147.351 Y89.394 E14.71401
G1 X148.234 Y91.785 E14.81574
G1 X149.174 Y94.12 E14.9162
G1 X150.193 Y96.459 E15.01803
G1 X151.26 Y98.732 E15.11825
G1 X152.389 Y100.969 E15.21826
G1 X153.941 Y103.819 E15.34778
G1 X154.479 Y104.765 E15.39122
G1 X154.898 Y105.585 E15.42797
G1 X155.245 Y106.438 E15.46473
G1 X155.517 Y107.317 E15.50145
G1 X155.711 Y108.217 E15.5382
G1 X155.826 Y109.131 E15.57496
G1 X155.862 Y110.051 E15.61171
G1 X155.818 Y110.97 E15.64843
G1 X155.694 Y111.883 E15.68521
G1 X155.491 Y112.781 E15.72195
G1 X155.211 Y113.658 E15.7587
G1 X154.856 Y114.507 E15.79542
G1 X154.575 Y115.063 E15.82029
G1 X154.406 Y115.37 E15.83428
G1 X153.282 Y117.351 E15.92518
G1 X152.107 Y119.567 E16.02529
G1 X150.973 Y121.858 E16.12732
G1 X149.915 Y124.155 E16.22825
G1 X148.929 Y126.471 E16.32872
G1 X148.004 Y128.823 E16.42959
G1 X147.14 Y131.216 E16.53114
G1 X146.36 Y133.588 E16.6308
G1 X145.435 Y136.727 E16.76141
G1 X145.154 Y137.747 E16.80363
G1 X144.871 Y138.623 E16.84038
G1 X144.514 Y139.472 E16.87713
G1 X144.084 Y140.286 E16.91388
G1 X143.585 Y141.059 E16.9506
G1 X143.021 Y141.787 E16.98735
G1 X142.396 Y142.463 E17.0241
G1 X141.714 Y143.082 E17.06086
G1 X140.982 Y143.64 E17.0976
G1 X140.203 Y144.131 E17.13435
G1 X139.385 Y144.554 E17.1711
G1 X138.534 Y144.904 E17.20783
G1 X137.885 Y145.115 E17.23507
G1 X137.549 Y145.211 E17.24901
G1 X135.405 Y145.803 E17.33779
G1 X133.003 Y146.54 E17.43807
G1 X130.606 Y147.351 E17.53907
G1 X128.215 Y148.234 E17.64079
G1 X125.88 Y149.174 E17.74126
G1 X123.541 Y150.193 E17.84309
G1 X121.268 Y151.26 E17.94331
G1 X119.031 Y152.389 E18.04332
G1 X116.181 Y153.941 E18.17284
G1 X115.235 Y154.479 E18.21627
G1 X114.415 Y154.898 E18.25303
G1 X113.562 Y155.245 E18.28978
G1 X112.683 Y155.517 E18.3265
G1 X111.783 Y155.711 E18.36325
G1 X110.869 Y155.826 E18.40002
G1 X109.949 Y155.862 E18.43677
G1 X109.03 Y155.818 E18.47349
G1 X108.117 Y155.694 E18.51026
G1 X107.219 Y155.491 E18.54701
G1 X106.342 Y155.211 E18.58375
G1 X105.493 Y154.856 E18.62048
G1 X104.935 Y154.574 E18.64543
G1 X104.607 Y154.394 E18.66037
G1 X102.633 Y153.273 E18.75097
G1 X100.433 Y152.107 E18.85035
G1 X98.142 Y150.973 E18.95237
G1 X95.845 Y149.915 E19.05331
G1 X93.529 Y148.929 E19.15377
G1 X91.177 Y148.004 E19.25465
G1 X88.784 Y147.14 E19.35619
G1 X86.412 Y146.36 E19.45585
G1 X83.251 Y145.428 E19.58738
G1 X82.246 Y145.151 E19.62899
G1 X81.37 Y144.868 E19.66573
G1 X80.522 Y144.51 E19.70247
G1 X79.708 Y144.08 E19.73921
G1 X78.934 Y143.58 E19.77599
G1 X78.207 Y143.016 E19.81271
G1 X77.532 Y142.39 E19.84946
G1 X76.913 Y141.708 E19.88622
G1 X76.356 Y140.975 E19.92296
G1 X75.864 Y140.197 E19.9597
G1 X75.442 Y139.379 E19.99644
G1 X75.093 Y138.527 E20.03318
G1 X74.875 Y137.852 E20.0615
G1 X74.789 Y137.549 E20.07407
G1 X74.197 Y135.405 E20.16284
G1 X73.457 Y132.992 E20.26358
G1 X72.647 Y130.596 E20.36452
G1 X71.774 Y128.235 E20.46499
G1 X70.826 Y125.88 E20.56631
G1 X69.807 Y123.541 E20.66814
G1 X68.74 Y121.268 E20.76836
G1 X67.611 Y119.031 E20.86837
G1 X66.059 Y116.181 E20.99789
G1 X65.521 Y115.235 E21.04133
G1 X65.102 Y114.415 E21.07808
G1 X64.755 Y113.562 E21.11484
G1 X64.483 Y112.683 E21.15156
G1 X64.289 Y111.783 E21.18831
G1 X64.174 Y110.869 E21.22507
G1 X64.138 Y109.949 E21.26182
G1 X64.182 Y109.03 E21.29854
G1 X64.306 Y108.117 E21.33532
G1 X64.509 Y107.219 E21.37206
G1 X64.789 Y106.342 E21.40881
G1 X65.144 Y105.493 E21.44553
G1 X65.425 Y104.937 E21.4704
G1 X65.594 Y104.63 E21.48439
G1 X66.718 Y102.649 E21.57529
G1 X67.893 Y100.433 E21.6754
G1 X69.027 Y98.142 E21.77743
G1 X70.085 Y95.845 E21.87836
G1 X71.071 Y93.529 E21.97883
G1 X71.996 Y91.177 E22.0797
G1 X72.86 Y88.784 E22.18125
G1 X73.64 Y86.412 E22.2809
G1 X74.565 Y83.273 E22.41151
G1 X74.846 Y82.253 E22.45374
G1 X75.129 Y81.377 E22.49048
G1 X75.486 Y80.528 E22.52724
G1 X75.916 Y79.714 E22.56399
G1 X76.415 Y78.941 E22.60071
G1 X76.979 Y78.213 E22.63746
G1 X77.153 Y78.025 E22.64769
G0 F1080 X77.604 Y77.537
G0 F6000 X77.96 Y77.749
G1 F1200 X78.635 Y77.149 E22.68373
G1 X79.36 Y76.611 E22.71977
G1 X80.13 Y76.14 E22.75579
G1 X80.939 Y75.738 E22.79185
G1 X81.781 Y75.41 E22.82791
G1 X82.226 Y75.269 E22.84655
G1 X82.557 Y75.174 E22.86029
G1 X84.713 Y74.578 E22.94957
G1 X87.137 Y73.835 E23.05076
G1 X89.556 Y73.017 E23.15268
G1 X91.925 Y72.141 E23.25348
G1 X94.263 Y71.2 E23.35407
G1 X96.611 Y70.178 E23.45628
G1 X98.903 Y69.102 E23.55734
G1 X101.174 Y67.955 E23.65888
G1 X104.009 Y66.411 E23.78773
G1 X104.963 Y65.869 E23.83152
G1 X105.767 Y65.458 E23.86756
G1 X106.605 Y65.12 E23.90362
G1 X107.469 Y64.857 E23.93967
G1 X108.353 Y64.672 E23.97572
G1 X109.249 Y64.566 E24.01173
G1 X110.152 Y64.539 E24.04778
G1 X111.054 Y64.592 E24.08385
G1 X111.947 Y64.725 E24.11988
G1 X112.825 Y64.937 E24.15593
G1 X113.681 Y65.225 E24.19198
G1 X114.85 Y65.764 E24.24336
G1 X115.159 Y65.934 E24.25743
G1 X117.146 Y67.062 E24.34862
G1 X119.424 Y68.269 E24.45152
G1 X121.65 Y69.371 E24.55065
G1 X123.998 Y70.452 E24.65382
G1 X126.317 Y71.44 E24.75443
G1 X128.708 Y72.381 E24.85698
G1 X131.072 Y73.234 E24.95729
G1 X133.477 Y74.025 E25.05834
G1 X136.618 Y74.95 E25.18903
G1 X137.641 Y75.232 E25.23138
G1 X138.5 Y75.51 E25.26741
G1 X139.331 Y75.863 E25.30345
G1 X140.128 Y76.288 E25.3395
G1 X140.884 Y76.781 E25.37552
G1 X141.594 Y77.34 E25.41159
G1 X142.251 Y77.96 E25.44764
G1 X142.851 Y78.635 E25.48369
G1 X143.389 Y79.36 E25.51972
G1 X143.86 Y80.13 E25.55575
G1 X144.262 Y80.939 E25.5918
G1 X144.59 Y81.781 E25.62787
G1 X144.731 Y82.226 E25.6465
G1 X144.826 Y82.557 E25.66024
G1 X145.422 Y84.713 E25.74952
G1 X146.165 Y87.137 E25.85071
G1 X146.983 Y89.556 E25.95263
G1 X147.859 Y91.925 E26.05344
G1 X148.8 Y94.263 E26.15403
G1 X149.822 Y96.611 E26.25623
G1 X150.898 Y98.903 E26.35729
G1 X152.045 Y101.174 E26.45884
G1 X153.589 Y104.009 E26.58768
G1 X154.131 Y104.963 E26.63147
G1 X154.542 Y105.767 E26.66751
G1 X154.88 Y106.605 E26.70358
G1 X155.143 Y107.469 E26.73962
G1 X155.328 Y108.353 E26.77567
G1 X155.434 Y109.249 E26.81168
G1 X155.461 Y110.152 E26.84774
G1 X155.408 Y111.054 E26.8838
G1 X155.275 Y111.947 E26.91984
G1 X155.063 Y112.825 E26.95589
G1 X154.775 Y113.681 E26.99193
G1 X154.224 Y114.872 E27.04431
G1 X154.059 Y115.172 E27.05797
G1 X152.932 Y117.158 E27.14911
G1 X151.731 Y119.424 E27.25147
G1 X150.629 Y121.65 E27.35061
G1 X149.548 Y123.998 E27.45378
G1 X148.56 Y126.317 E27.55438
G1 X147.619 Y128.708 E27.65694
G1 X146.766 Y131.072 E27.75724
G1 X145.975 Y133.477 E27.85829
G1 X145.05 Y136.618 E27.98898
G1 X144.768 Y137.641 E28.03133
G1 X144.49 Y138.5 E28.06737
G1 X144.137 Y139.331 E28.1034
G1 X143.712 Y140.128 E28.13945
G1 X143.219 Y140.884 E28.17547
G1 X142.66 Y141.594 E28.21154
G1 X142.04 Y142.251 E28.24759
G1 X141.365 Y142.851 E28.28364
G1 X140.64 Y143.389 E28.31967
G1 X139.87 Y143.86 E28.3557
G1 X139.061 Y144.262 E28.39176
G1 X138.219 Y144.59 E28.42782
G1 X137.774 Y144.731 E28.44645
G1 X137.443 Y144.826 E28.4602
G1 X135.287 Y145.422 E28.54947
G1 X132.863 Y146.165 E28.65066
G1 X130.444 Y146.983 E28.75258
G1 X128.075 Y147.859 E28.85339
G1 X125.737 Y148.8 E28.95398
G1 X123.389 Y149.822 E29.05619
G1 X121.097 Y150.898 E29.15724
G1 X118.826 Y152.045 E29.25879
G1 X115.991 Y153.589 E29.38763
G1 X115.037 Y154.131 E29.43143
G1 X114.233 Y154.542 E29.46746
G1 X113.395 Y154.88 E29.50353
G1 X112.531 Y155.143 E29.53958
G1 X111.647 Y155.328 E29.57562
G1 X110.751 Y155.434 E29.61163
G1 X109.848 Y155.461 E29.64769
G1 X108.946 Y155.408 E29.68375
G1 X108.053 Y155.275 E29.71979
G1 X107.175 Y155.063 E29.75584
G1 X106.319 Y154.775 E29.79188
G1 X105.126 Y154.223 E29.84435
G1 X104.804 Y154.046 E29.85901
G1 X102.838 Y152.93 E29.94924
G1 X100.576 Y151.731 E30.05142
G1 X98.35 Y150.629 E30.15056
G1 X96.002 Y149.548 E30.25373
G1 X93.683 Y148.56 E30.35433
G1 X91.292 Y147.619 E30.45689
G1 X88.928 Y146.766 E30.55719
G1 X86.523 Y145.975 E30.65824
G1 X83.414 Y145.059 E30.7876
G1 X82.352 Y144.766 E30.83157
G1 X81.493 Y144.487 E30.86762
G1 X80.662 Y144.134 E30.90366
G1 X79.865 Y143.708 E30.93972
G1 X79.11 Y143.214 E30.97574
G1 X78.401 Y142.655 E31.01177
G1 X77.744 Y142.035 E31.04783
G1 X77.144 Y141.36 E31.08387
G1 X76.607 Y140.634 E31.11991
G1 X76.136 Y139.863 E31.15597
G1 X75.735 Y139.054 E31.19201
G1 X75.407 Y138.213 E31.22804
G1 X75.259 Y137.741 E31.24778
G1 X75.174 Y137.443 E31.26015
G1 X74.578 Y135.287 E31.34943
G1 X73.832 Y132.852 E31.45107
G1 X73.029 Y130.477 E31.55114
G1 X72.132 Y128.053 E31.65429
G1 X71.2 Y125.737 E31.75394
G1 X70.178 Y123.389 E31.85614
G1 X69.102 Y121.097 E31.9572
G1 X67.955 Y118.826 E32.05874
G1 X66.411 Y115.991 E32.18759
G1 X65.869 Y115.037 E32.23138
G1 X65.458 Y114.233 E32.26742
G1 X65.12 Y113.395 E32.30348
G1 X64.857 Y112.531 E32.33953
G1 X64.672 Y111.647 E32.37558
