;FLAVOR:Marlin
;TIME:8059
;Filament used: 4.33694m
;Layer height: 0.16
;MINX:82.339
;MINY:90.002
;MINZ:0.16
;MAXX:139.09
;MAXY:154.377
;MAXZ:71.56
;Generated with Cura_SteamEngine 4.13.1
M82 ;absolute extrusion mode
START_PRINT BED_TEMP=75 EXTRUDER_TEMP=242
G92 E0
G92 E0
G1 F2400 E-6
;LAYER_COUNT:446
;LAYER:0
M107
G1 F600 Z0.36
G0 F7500 X89.925 Y110.386 Z0.36
;TYPE:SKIRT
G1 F600 Z0.16
G1 F2400 E0
G1 F1500 X90.689 Y109.812 E0.02543
G1 X91.289 Y109.374 E0.04519
G1 X91.999 Y108.871 E0.06835
G1 X92.804 Y108.352 E0.09383
G1 X93.02 Y108.226 E0.10048
G1 X95.201 Y106.904 E0.16834
G1 X97.321 Y105.537 E0.23546
G1 X99.378 Y104.125 E0.30185
G1 X101.439 Y102.623 E0.36971
G1 X103.439 Y101.078 E0.43695
G1 X105.37 Y99.496 E0.50338
G1 X107.259 Y97.857 E0.56992
G1 X109.125 Y96.145 E0.6373
G1 X111.649 Y93.666 E0.73144
G1 X112.708 Y92.75 E0.76869
G1 X113.234 Y92.351 E0.78626
G1 X113.517 Y92.143 E0.7956
G1 X113.665 Y92.038 E0.80043
G1 X114.452 Y91.529 E0.82537
G1 X115.28 Y91.088 E0.85033
G1 X116.143 Y90.72 E0.8753
G1 X117.033 Y90.426 E0.90024
G1 X117.946 Y90.209 E0.92521
G1 X118.874 Y90.071 E0.95017
G1 X119.851 Y90.011 E0.97622
G1 X120.403 Y90.002 E0.99091
G1 X120.726 Y90.002 E0.9995
G1 X120.955 Y90.005 E1.00559
G1 X121.892 Y90.057 E1.03056
G1 X122.82 Y90.189 E1.0555
G1 X123.734 Y90.399 E1.08046
G1 X124.627 Y90.687 E1.10542
G1 X125.492 Y91.05 E1.13038
G1 X126.323 Y91.484 E1.15533
G1 X127.142 Y92.009 E1.18121
G1 X127.581 Y92.318 E1.1955
G1 X127.821 Y92.491 E1.20337
G1 X128.017 Y92.637 E1.20987
G1 X128.745 Y93.229 E1.23484
G1 X129.419 Y93.881 E1.25979
G1 X130.036 Y94.588 E1.28476
G1 X130.59 Y95.344 E1.3097
G1 X131.078 Y96.145 E1.33466
G1 X131.495 Y96.985 E1.35961
G1 X131.84 Y97.857 E1.38456
G1 X132.047 Y98.525 E1.40317
G1 X132.246 Y99.244 E1.42302
G1 X132.332 Y99.575 E1.43212
G1 X132.427 Y99.965 E1.4428
G1 X132.655 Y101.203 E1.4763
G1 X132.822 Y102.539 E1.51212
G1 X133.175 Y105.072 E1.58017
G1 X133.6 Y107.596 E1.64828
G1 X134.086 Y110.061 E1.71513
G1 X134.637 Y112.482 E1.78119
G1 X135.274 Y114.965 E1.8494
G1 X135.959 Y117.344 E1.91527
G1 X136.725 Y119.752 E1.98251
G1 X138.003 Y123.329 E2.08358
G1 X138.167 Y123.776 E2.09625
G1 X138.415 Y124.494 E2.11646
G1 X138.533 Y124.856 E2.12659
G1 X138.615 Y125.123 E2.13402
G1 X138.852 Y126.03 E2.15897
G1 X139.011 Y126.954 E2.18391
G1 X139.09 Y127.889 E2.20888
G1 X139.09 Y128.827 E2.23384
G1 X139.009 Y129.761 E2.25878
G1 X138.85 Y130.685 E2.28373
G1 X138.624 Y131.553 E2.3076
G1 X138.457 Y132.102 E2.32287
G1 X138.35 Y132.433 E2.33212
G1 X138.271 Y132.666 E2.33867
G1 X138.032 Y133.306 E2.35685
G1 X137.642 Y134.159 E2.3818
G1 X137.347 Y134.7 E2.3982
G1 X136.74 Y135.742 E2.43029
G1 X135.443 Y138.047 E2.50066
G1 X134.275 Y140.267 E2.56741
G1 X133.15 Y142.562 E2.63541
G1 X132.102 Y144.859 E2.70259
G1 X131.804 Y145.538 E2.72232
G1 X131.391 Y146.379 E2.74725
G1 X130.907 Y147.183 E2.77222
G1 X130.357 Y147.942 E2.79717
G1 X129.743 Y148.652 E2.82214
G1 X129.072 Y149.307 E2.84709
G1 X128.357 Y149.895 E2.87172
G1 X127.535 Y150.513 E2.89909
G1 X125.576 Y151.937 E2.96353
G1 X125.002 Y152.343 E2.98224
G1 X124.214 Y152.851 E3.00718
G1 X123.385 Y153.29 E3.03214
G1 X122.523 Y153.658 E3.05708
G1 X121.631 Y153.95 E3.08206
G1 X120.719 Y154.166 E3.10699
G1 X119.791 Y154.303 E3.13195
G1 X118.843 Y154.36 E3.15722
G1 X117.793 Y154.377 E3.18517
G1 X115.374 Y154.376 E3.24953
G1 X114.672 Y154.366 E3.26821
G1 X113.736 Y154.313 E3.29316
G1 X112.808 Y154.18 E3.3181
G1 X111.894 Y153.968 E3.34307
G1 X111.001 Y153.68 E3.36803
G1 X110.153 Y153.324 E3.3925
G1 X109.612 Y153.069 E3.40842
G1 X107.956 Y152.265 E3.4574
G1 X105.685 Y151.24 E3.5237
G1 X103.319 Y150.251 E3.59193
G1 X101.02 Y149.368 E3.65746
G1 X98.659 Y148.535 E3.72408
G1 X95.225 Y147.452 E3.81988
G1 X94.184 Y147.146 E3.84876
G1 X93.296 Y146.843 E3.87372
G1 X92.437 Y146.465 E3.89869
G1 X91.299 Y145.819 E3.93351
G1 X90.82 Y145.508 E3.94871
G1 X90 Y144.921 E3.97554
G1 X88.528 Y143.759 E4.02544
G1 X86.879 Y142.5 E4.08064
G1 X86.158 Y141.9 E4.1056
G1 X85.492 Y141.24 E4.13055
G1 X84.884 Y140.526 E4.1555
G1 X84.339 Y139.763 E4.18045
G1 X83.861 Y138.956 E4.20541
G1 X83.453 Y138.111 E4.23038
G1 X83.16 Y137.355 E4.25195
G1 X83.006 Y136.91 E4.26448
G1 X82.887 Y136.548 E4.27462
G1 X82.815 Y136.314 E4.28113
G1 X82.578 Y135.407 E4.30608
G1 X82.419 Y134.482 E4.33105
G1 X82.339 Y133.548 E4.35599
G1 X82.339 Y132.61 E4.38095
G1 X82.419 Y131.676 E4.4059
G1 X82.676 Y130.338 E4.44215
G1 X83.335 Y127.776 E4.51254
G1 X84.057 Y124.541 E4.60073
G1 X84.303 Y123.348 E4.63314
G1 X84.767 Y120.881 E4.69994
G1 X84.892 Y120.109 E4.72075
G1 X85.018 Y119.403 E4.73983
G1 X85.317 Y118.164 E4.77374
G1 X85.634 Y117.121 E4.80275
G1 X85.698 Y116.917 E4.80844
G1 X85.896 Y116.314 E4.82532
G1 X86.132 Y115.622 E4.84478
G1 X86.472 Y114.748 E4.86973
G1 X86.886 Y113.907 E4.89467
G1 X87.369 Y113.103 E4.91963
G1 X87.92 Y112.344 E4.94459
G1 X88.533 Y111.634 E4.96954
G1 X89.204 Y110.979 E4.99449
G1 X89.925 Y110.386 E5.01933
G0 F7500 X90.166 Y110.706
G1 F1500 X90.925 Y110.136 E5.04459
G1 X91.652 Y109.606 E5.06853
G1 X92.23 Y109.197 E5.08737
G1 X93.006 Y108.698 E5.11192
G1 X93.177 Y108.598 E5.11719
G1 X95.42 Y107.239 E5.18697
G1 X97.542 Y105.87 E5.25416
G1 X99.634 Y104.434 E5.32168
G1 X101.674 Y102.948 E5.38883
G1 X103.652 Y101.419 E5.45536
G1 X105.64 Y99.792 E5.52371
G1 X107.527 Y98.154 E5.5902
G1 X109.386 Y96.448 E5.65733
G1 X111.929 Y93.951 E5.75216
G1 X112.95 Y93.069 E5.78806
G1 X113.476 Y92.67 E5.80563
G1 X113.749 Y92.47 E5.81464
G1 X113.897 Y92.365 E5.81946
G1 X114.67 Y91.865 E5.84396
G1 X115.484 Y91.435 E5.86846
G1 X116.332 Y91.076 E5.89296
G1 X117.208 Y90.793 E5.91745
G1 X118.105 Y90.586 E5.94195
G1 X119.017 Y90.459 E5.96645
G1 X119.857 Y90.411 E5.98884
G1 X120.409 Y90.402 E6.00353
G1 X120.721 Y90.402 E6.01183
G1 X120.95 Y90.405 E6.01792
G1 X121.869 Y90.457 E6.04241
G1 X122.78 Y90.589 E6.06691
G1 X123.677 Y90.799 E6.09142
G1 X124.551 Y91.086 E6.1159
G1 X125.398 Y91.448 E6.1404
G1 X126.21 Y91.882 E6.1649
G1 X126.912 Y92.336 E6.18715
G1 X127.351 Y92.645 E6.20143
G1 X127.582 Y92.812 E6.20902
G1 X127.778 Y92.958 E6.21552
G1 X128.492 Y93.54 E6.24003
G1 X129.153 Y94.181 E6.26453
G1 X129.755 Y94.877 E6.28902
G1 X130.295 Y95.623 E6.31352
G1 X130.768 Y96.413 E6.33802
G1 X131.171 Y97.241 E6.36252
G1 X131.5 Y98.1 E6.387
G1 X131.662 Y98.632 E6.40179
G1 X131.861 Y99.351 E6.42165
G1 X131.944 Y99.669 E6.43039
G1 X132.039 Y100.059 E6.44107
G1 X132.258 Y101.252 E6.47334
G1 X132.427 Y102.604 E6.5096
G1 X132.784 Y105.162 E6.57832
G1 X133.205 Y107.662 E6.64578
G1 X133.692 Y110.129 E6.71269
G1 X134.252 Y112.591 E6.77987
G1 X134.879 Y115.037 E6.84706
G1 X135.589 Y117.503 E6.91534
G1 X136.332 Y119.838 E6.98054
G1 X137.643 Y123.507 E7.08421
G1 X137.789 Y123.906 E7.09551
G1 X138.037 Y124.624 E7.11573
G1 X138.151 Y124.973 E7.12549
G1 X138.233 Y125.24 E7.13293
G1 X138.465 Y126.131 E7.15743
G1 X138.618 Y127.039 E7.18193
G1 X138.693 Y127.956 E7.20641
G1 X138.687 Y128.877 E7.23091
G1 X138.601 Y129.794 E7.25542
G1 X138.437 Y130.7 E7.27992
G1 X138.241 Y131.437 E7.30021
G1 X138.074 Y131.986 E7.31548
G1 X137.972 Y132.305 E7.32439
G1 X137.893 Y132.538 E7.33094
G1 X137.662 Y133.156 E7.34849
G1 X137.278 Y133.993 E7.373
G1 X137.002 Y134.499 E7.38833
G1 X136.36 Y135.602 E7.42229
G1 X135.098 Y137.844 E7.49075
G1 X133.905 Y140.112 E7.55893
G1 X132.798 Y142.37 E7.62585
G1 X131.744 Y144.681 E7.69343
G1 X131.438 Y145.377 E7.71366
G1 X131.032 Y146.203 E7.73815
G1 X130.555 Y146.99 E7.76264
G1 X130.012 Y147.733 E7.78712
G1 X129.406 Y148.427 E7.81164
G1 X128.742 Y149.065 E7.83614
G1 X128.116 Y149.575 E7.85763
G1 X127.299 Y150.189 E7.88482
G1 X125.345 Y151.61 E7.94911
G1 X124.771 Y152.016 E7.96781
G1 X123.997 Y152.515 E7.99232
G1 X123.183 Y152.944 E8.0168
G1 X122.334 Y153.301 E8.04131
G1 X121.458 Y153.583 E8.06579
G1 X120.56 Y153.788 E8.0903
G1 X119.648 Y153.915 E8.1148
G1 X118.836 Y153.96 E8.13644
G1 X117.793 Y153.977 E8.1642
G1 X115.38 Y153.976 E8.2284
G1 X114.678 Y153.966 E8.24708
G1 X113.759 Y153.913 E8.27158
G1 X112.848 Y153.78 E8.29607
G1 X111.952 Y153.569 E8.32057
G1 X111.077 Y153.281 E8.34508
G1 X110.323 Y152.962 E8.36686
G1 X109.787 Y152.709 E8.38263
G1 X108.13 Y151.904 E8.43165
G1 X105.855 Y150.878 E8.49805
G1 X103.479 Y149.885 E8.56657
G1 X101.116 Y148.977 E8.63393
G1 X98.786 Y148.155 E8.69967
G1 X95.363 Y147.076 E8.79517
G1 X94.297 Y146.762 E8.82474
G1 X93.426 Y146.464 E8.84923
G1 X92.584 Y146.091 E8.87374
G1 X91.517 Y145.483 E8.90642
G1 X91.038 Y145.172 E8.92161
G1 X90.248 Y144.607 E8.94745
G1 X88.769 Y143.44 E8.99758
G1 X87.122 Y142.182 E9.05273
G1 X86.415 Y141.592 E9.07723
G1 X85.762 Y140.943 E9.10173
G1 X85.168 Y140.24 E9.12622
G1 X84.637 Y139.488 E9.15071
G1 X84.174 Y138.692 E9.17521
G1 X83.781 Y137.86 E9.1997
G1 X83.538 Y137.225 E9.21779
G1 X83.384 Y136.78 E9.23032
G1 X83.27 Y136.43 E9.24011
G1 X83.198 Y136.196 E9.24663
G1 X82.965 Y135.305 E9.27113
G1 X82.811 Y134.398 E9.29561
G1 X82.737 Y133.48 E9.32012
G1 X82.742 Y132.56 E9.3446
G1 X82.827 Y131.643 E9.3691
G1 X83.063 Y130.437 E9.4018
G1 X83.725 Y127.866 E9.47244
G1 X84.454 Y124.596 E9.56158
G1 X84.695 Y123.428 E9.59332
G1 X85.163 Y120.941 E9.66065
G1 X85.287 Y120.173 E9.68135
G1 X85.412 Y119.474 E9.70025
G1 X85.7 Y118.281 E9.7329
G1 X86.017 Y117.238 E9.76191
G1 X86.227 Y116.586 E9.78013
G1 X86.51 Y115.751 E9.80359
G1 X86.845 Y114.894 E9.82808
G1 X87.253 Y114.068 E9.85259
G1 X87.731 Y113.282 E9.87707
G1 X88.275 Y112.539 E9.90157
G1 X88.882 Y111.847 E9.92606
G1 X89.547 Y111.21 E9.95056
G1 X90.166 Y110.706 E9.9718
G0 F7500 X90.407 Y111.025
G1 F1500 X91.161 Y110.459 E9.99689
G1 X91.883 Y109.933 E10.02066
G1 X92.461 Y109.524 E10.0395
G1 X93.207 Y109.043 E10.06312
G1 X93.407 Y108.926 E10.06928
G1 X95.638 Y107.574 E10.13869
G1 X97.756 Y106.208 E10.20575
G1 X99.874 Y104.754 E10.27411
G1 X101.891 Y103.285 E10.34051
G1 X103.926 Y101.712 E10.40894
G1 X105.889 Y100.105 E10.47645
G1 X107.796 Y98.45 E10.54363
G1 X109.669 Y96.732 E10.61126
G1 X112.209 Y94.237 E10.70599
G1 X113.192 Y93.387 E10.74057
G1 X113.718 Y92.988 E10.75814
G1 X113.98 Y92.796 E10.76678
G1 X114.128 Y92.691 E10.77161
G1 X114.887 Y92.202 E10.79563
G1 X115.686 Y91.781 E10.81967
G1 X116.52 Y91.433 E10.84371
G1 X117.38 Y91.16 E10.86772
G1 X118.262 Y90.964 E10.89176
G1 X119.158 Y90.847 E10.9158
G1 X119.864 Y90.811 E10.93461
G1 X120.416 Y90.802 E10.9493
G1 X120.716 Y90.802 E10.95728
G1 X120.945 Y90.805 E10.96338
G1 X121.846 Y90.857 E10.98739
G1 X122.74 Y90.988 E11.01143
G1 X123.618 Y91.198 E11.03545
G1 X124.474 Y91.485 E11.05948
G1 X125.302 Y91.846 E11.08351
G1 X126.095 Y92.279 E11.10755
G1 X126.682 Y92.663 E11.12622
G1 X127.121 Y92.972 E11.1405
G1 X127.343 Y93.133 E11.1478
G1 X127.539 Y93.279 E11.1543
G1 X128.239 Y93.85 E11.17834
G1 X128.885 Y94.481 E11.20237
G1 X129.473 Y95.166 E11.22639
G1 X129.999 Y95.901 E11.25044
G1 X130.457 Y96.679 E11.27446
G1 X130.844 Y97.495 E11.29849
G1 X131.276 Y98.738 E11.3335
G1 X131.475 Y99.457 E11.35335
G1 X131.555 Y99.764 E11.36179
G1 X131.65 Y100.154 E11.37247
G1 X131.861 Y101.302 E11.40353
G1 X132.028 Y102.633 E11.43923
G1 X132.387 Y105.212 E11.50851
G1 X132.813 Y107.741 E11.57675
G1 X133.301 Y110.216 E11.64387
G1 X133.862 Y112.682 E11.71116
G1 X134.502 Y115.174 E11.77962
G1 X135.199 Y117.598 E11.84673
G1 X135.957 Y119.977 E11.91317
G1 X137.266 Y123.644 E12.01677
G1 X137.411 Y124.037 E12.02792
G1 X137.659 Y124.755 E12.04813
G1 X137.769 Y125.09 E12.05751
G1 X137.851 Y125.357 E12.06495
G1 X138.077 Y126.232 E12.08899
G1 X138.226 Y127.122 E12.113
G1 X138.295 Y128.023 E12.13705
G1 X138.284 Y128.926 E12.16108
G1 X138.193 Y129.825 E12.18512
G1 X138.023 Y130.712 E12.20915
G1 X137.859 Y131.32 E12.22591
G1 X137.692 Y131.869 E12.24117
G1 X137.593 Y132.176 E12.24976
G1 X137.514 Y132.409 E12.2563
G1 X137.291 Y133.005 E12.27324
G1 X136.914 Y133.826 E12.29727
G1 X136.656 Y134.298 E12.31159
G1 X136.008 Y135.41 E12.34583
G1 X134.753 Y137.641 E12.41394
G1 X133.55 Y139.928 E12.4827
G1 X132.433 Y142.207 E12.55023
G1 X131.395 Y144.481 E12.61674
G1 X131.072 Y145.216 E12.63811
G1 X130.673 Y146.026 E12.66213
G1 X130.203 Y146.797 E12.68616
G1 X129.667 Y147.524 E12.71019
G1 X129.069 Y148.2 E12.73421
G1 X128.413 Y148.821 E12.75824
G1 X127.875 Y149.256 E12.77665
G1 X127.064 Y149.866 E12.80365
G1 X125.114 Y151.283 E12.86779
G1 X124.54 Y151.689 E12.8865
G1 X123.78 Y152.178 E12.91054
G1 X122.981 Y152.597 E12.93455
G1 X122.147 Y152.944 E12.95859
G1 X121.285 Y153.216 E12.98264
G1 X120.404 Y153.41 E13.00664
G1 X119.508 Y153.526 E13.03068
G1 X118.829 Y153.56 E13.04877
G1 X117.793 Y153.577 E13.07634
G1 X115.386 Y153.576 E13.14039
G1 X114.684 Y153.566 E13.15907
G1 X113.782 Y153.513 E13.18311
G1 X112.889 Y153.381 E13.20713
G1 X112.011 Y153.17 E13.23115
G1 X111.155 Y152.882 E13.25519
G1 X110.493 Y152.6 E13.27433
G1 X109.962 Y152.349 E13.28996
G1 X108.32 Y151.552 E13.33852
G1 X106.008 Y150.508 E13.40602
G1 X103.599 Y149.501 E13.4755
G1 X101.288 Y148.614 E13.54136
G1 X98.922 Y147.779 E13.60812
G1 X95.438 Y146.681 E13.70532
G1 X94.41 Y146.378 E13.73384
G1 X93.555 Y146.085 E13.75789
G1 X92.73 Y145.718 E13.78191
G1 X91.735 Y145.148 E13.81242
G1 X91.256 Y144.837 E13.82762
G1 X90.496 Y144.293 E13.85249
G1 X89.076 Y143.172 E13.90063
G1 X87.364 Y141.865 E13.95794
G1 X86.672 Y141.285 E13.98196
G1 X86.033 Y140.647 E14.00599
G1 X85.453 Y139.954 E14.03003
G1 X84.937 Y139.214 E14.05404
G1 X84.488 Y138.43 E14.07808
G1 X84.11 Y137.609 E14.10213
G1 X83.916 Y137.094 E14.11677
G1 X83.762 Y136.649 E14.1293
G1 X83.652 Y136.313 E14.13871
G1 X83.58 Y136.079 E14.14522
G1 X83.353 Y135.205 E14.16925
G1 X83.204 Y134.314 E14.19329
G1 X83.134 Y133.413 E14.21733
G1 X83.145 Y132.51 E14.24136
G1 X83.235 Y131.612 E14.26537
G1 X83.451 Y130.537 E14.29455
G1 X84.115 Y127.956 E14.36546
G1 X84.837 Y124.72 E14.45368
G1 X85.045 Y123.704 E14.48128
G1 X85.089 Y123.499 E14.48686
G1 X85.558 Y121.007 E14.55433
G1 X85.682 Y120.236 E14.57511
G1 X85.715 Y120.042 E14.58034
G1 X85.805 Y119.545 E14.59378
G1 X86.083 Y118.397 E14.62521
G1 X86.459 Y117.165 E14.65948
G1 X86.653 Y116.573 E14.67606
G1 X86.889 Y115.881 E14.69551
G1 X87.218 Y115.04 E14.71954
G1 X87.62 Y114.231 E14.74358
G1 X88.092 Y113.461 E14.76761
G1 X88.631 Y112.736 E14.79165
G1 X89.231 Y112.061 E14.81568
G1 X89.889 Y111.442 E14.83972
G1 X90.407 Y111.025 E14.85741
G1 F2400 E8.85741
G1 F600 Z0.36
G0 F7500 X115.077 Y135.409 Z0.36
G1 F600 Z0.16
G1 F2400 E14.85741
G1 F1500 X117.41 Y135.409 E14.91949
G1 X118.508 Y136.208 E14.95562
G1 X118.926 Y137.493 E14.99158
G1 X118.508 Y138.778 E15.02753
G1 X117.41 Y139.577 E15.06366
G1 X116.06 Y139.577 E15.09958
G1 X114.962 Y138.778 E15.13572
G1 X114.544 Y137.493 E15.17167
G1 X114.9 Y136.398 E15.20231
G1 X115.033 Y135.863 E15.21698
G1 X115.077 Y135.409 E15.22911
G0 F7500 X114.687 Y135.248
G1 F1500 X114.669 Y134.994 E15.23589
G1 X114.934 Y135.009 E15.24295
G1 X117.539 Y135.009 E15.31226
G1 X118.848 Y135.962 E15.35535
G1 X119.347 Y137.493 E15.39819
G1 X118.848 Y139.024 E15.44104
G1 X117.539 Y139.977 E15.48412
G1 X115.931 Y139.977 E15.52691
G1 X114.622 Y139.024 E15.56999
G1 X114.123 Y137.493 E15.61284
G1 X114.52 Y136.274 E15.64695
G1 X114.643 Y135.768 E15.66081
G1 X114.687 Y135.248 E15.67469
G0 F7500 X114.934 Y134.609
G1 F1500 X117.67 Y134.609 E15.74749
G1 X119.188 Y135.714 E15.79745
G1 X119.767 Y137.493 E15.84723
G1 X119.188 Y139.272 E15.89701
G1 X117.67 Y140.377 E15.94697
G1 X115.8 Y140.377 E15.99673
G1 X114.282 Y139.272 E16.04669
G1 X113.703 Y137.493 E16.09646
G1 X114.14 Y136.15 E16.13404
G1 X114.253 Y135.674 E16.14706
G1 X114.287 Y135.186 E16.16008
G1 X114.241 Y134.698 E16.17312
G1 X114.209 Y134.52 E16.17793
G1 X114.934 Y134.609 E16.19737
G0 F7500 X114.934 Y134.209
G1 F1500 X117.8 Y134.209 E16.27363
G1 X119.529 Y135.467 E16.33052
G1 X120.188 Y137.493 E16.38721
G1 X119.529 Y139.519 E16.4439
G1 X117.8 Y140.777 E16.50079
G1 X115.67 Y140.777 E16.55747
G1 X113.941 Y139.519 E16.61436
G1 X113.282 Y137.493 E16.67105
G1 X113.759 Y136.027 E16.71207
G1 X113.862 Y135.583 E16.7242
G1 X113.885 Y135.128 E16.73632
G1 X113.829 Y134.675 E16.74846
G1 X113.76 Y134.418 E16.75554
G1 X113.564 Y133.815 E16.77242
G1 X113.933 Y134.008 E16.7835
G1 X114.367 Y134.146 E16.79561
G1 X114.934 Y134.209 E16.81079
